;FLAVOR:Marlin
;TIME:7501
;Filament used: 6.42355m
;Layer height: 0.2
;Generated with Cura_SteamEngine 3.6.0
M104 S200
M105
M109 S200
M82 ;absolute extrusion mode
G28 ;Home
G1 Z15.0 F6000 ;Move the platform down 15mm
;Prime the extruder
G92 E0
G1 F200 E3
G92 E0
G92 E0
G1 F1500 E-6.5
;LAYER_COUNT:490
;LAYER:-6
M107
G0 F2400 X36.35 Y40.366 Z0.36
;TYPE:SUPPORT-INTERFACE
G1 F1500 E0
G1 F900 X36.801 Y39.973 E0.07163
G1 X37.145 Y39.701 E0.12414
G1 X37.8 Y39.233 E0.22053
G1 X38.184 Y38.977 E0.27579
G1 X38.401 Y38.842 E0.30639
G1 X38.849 Y38.582 E0.36841
G1 X39.256 Y38.372 E0.42325
G1 X40.1 Y37.992 E0.53407
G1 X40.446 Y37.857 E0.57854
G1 X40.844 Y37.721 E0.6289
G1 X40.993 Y37.676 E0.64754
G1 X41.702 Y37.487 E0.7354
G1 X41.7 Y37.479 E0.73639
G1 X41.818 Y37.446 E0.75106
G1 X42.145 Y37.355 E0.7917
G1 X42.559 Y37.263 E0.84248
G1 X43.088 Y37.173 E0.90673
G1 X43.865 Y37.081 E1.00041
G1 X44.35 Y37.049 E1.05861
G1 X44.824 Y37.04 E1.11538
G1 X45.335 Y37.056 E1.17659
G1 X45.714 Y37.088 E1.22214
G1 X46.076 Y37.106 E1.26553
G1 X46.718 Y37.16 E1.34268
G1 X47.513 Y37.282 E1.43898
G1 X48.128 Y37.419 E1.51442
G1 X48.922 Y37.652 E1.6135
G1 X49.41 Y37.82 E1.6753
G1 X49.916 Y38.022 E1.74054
G1 X50.332 Y38.209 E1.79515
G1 X51.136 Y38.606 E1.90251
G1 X51.649 Y38.887 E1.97255
G1 X52.158 Y39.213 E2.04492
G1 X52.968 Y39.78 E2.16331
G1 X53.338 Y40.069 E2.21953
G1 X53.711 Y40.393 E2.27868
G1 X54.293 Y40.956 E2.37564
G1 X54.705 Y41.397 E2.4479
G1 X55.007 Y41.759 E2.50435
G1 X55.649 Y42.609 E2.63189
G1 X55.965 Y43.075 E2.69931
G1 X56.223 Y43.506 E2.75946
G1 X56.378 Y43.786 E2.79778
G1 X56.6 Y44.226 E2.85679
G1 X56.951 Y44.978 E2.95615
G1 X57.124 Y45.396 E3.01032
G1 X57.288 Y45.852 E3.06834
G1 X57.484 Y46.488 E3.14803
G1 X57.527 Y46.653 E3.16845
G1 X57.659 Y47.25 E3.24166
G1 X57.69 Y47.421 E3.26247
G1 X57.789 Y48.123 E3.34735
G1 X57.883 Y48.71 E3.41853
G1 X57.911 Y48.963 E3.44901
G1 X57.954 Y49.611 E3.52677
G1 X57.959 Y49.829 E3.55288
G1 X57.927 Y50.913 E3.68273
G1 X57.908 Y51.219 E3.71944
G1 X57.868 Y51.599 E3.76519
G1 X57.832 Y51.839 E3.79425
G1 X57.706 Y52.474 E3.87177
G1 X57.485 Y53.286 E3.97253
G1 X57.347 Y53.899 E4.04776
G1 X57.227 Y54.315 E4.09961
G1 X57.081 Y54.713 E4.15037
G1 X56.57 Y55.841 E4.29864
G1 X56.445 Y56.089 E4.33189
G1 X56.212 Y56.517 E4.39024
G1 X55.936 Y56.966 E4.45335
G1 X55.696 Y57.314 E4.50397
G1 X55.2 Y57.989 E4.60426
G1 X54.663 Y58.645 E4.70577
G1 X54.27 Y59.068 E4.77491
G1 X53.821 Y59.507 E4.85009
G1 X53.338 Y59.933 E4.92721
G1 X52.951 Y60.234 E4.98591
G1 X52.086 Y60.83 E5.11169
G1 X51.767 Y61.041 E5.15748
G1 X51.62 Y61.128 E5.17794
G1 X50.974 Y61.474 E5.26568
G1 X50.424 Y61.746 E5.33915
G1 X49.864 Y62 E5.41278
G1 X49.18 Y62.264 E5.50057
G1 X48.765 Y62.403 E5.55297
G1 X48.167 Y62.575 E5.62748
G1 X47.717 Y62.68 E5.6828
G1 X46.97 Y62.812 E5.77363
G1 X46.683 Y62.849 E5.80828
G1 X46.17 Y62.89 E5.8699
G1 X45.354 Y62.942 E5.96781
G1 X44.8 Y62.961 E6.03418
G1 X44.177 Y62.944 E6.1088
G1 X43.874 Y62.919 E6.14521
G1 X43.044 Y62.821 E6.24528
G1 X42.39 Y62.702 E6.32487
G1 X42.115 Y62.637 E6.35871
G1 X41.408 Y62.439 E6.44662
G1 X41.089 Y62.358 E6.48602
G1 X40.9 Y62.3 E6.5097
G1 X40.364 Y62.113 E6.57767
G1 X39.988 Y61.962 E6.62618
G1 X39.249 Y61.626 E6.72339
G1 X38.797 Y61.39 E6.78444
G1 X38.394 Y61.153 E6.84042
G1 X38.041 Y60.924 E6.8908
G1 X37.109 Y60.267 E7.02734
G1 X36.674 Y59.919 E7.09404
G1 X36.34 Y59.622 E7.14755
G1 X35.574 Y58.896 E7.27392
G1 X35.263 Y58.565 E7.3283
G1 X34.918 Y58.155 E7.39246
G1 X34.354 Y57.395 E7.50578
G1 X34.119 Y57.038 E7.55696
G1 X33.694 Y56.33 E7.65583
G1 X33.526 Y56.023 E7.69774
G1 X33.278 Y55.513 E7.76564
G1 X32.86 Y54.534 E7.8931
G1 X32.691 Y54.073 E7.95189
G1 X32.541 Y53.559 E8.016
G1 X32.298 Y52.486 E8.14773
G1 X32.202 Y51.989 E8.20834
G1 X32.155 Y51.649 E8.24944
G1 X32.143 Y51.473 E8.27056
G1 X32.051 Y50.633 E8.37174
G1 X32.034 Y50.307 E8.41083
G1 X32.035 Y49.673 E8.48674
G1 X32.068 Y49.03 E8.56383
G1 X32.152 Y48.313 E8.65027
G1 X32.247 Y47.811 E8.71145
G1 X32.319 Y47.385 E8.76318
G1 X32.408 Y46.93 E8.81869
G1 X32.567 Y46.319 E8.89429
G1 X32.798 Y45.649 E8.97914
G1 X33.367 Y44.3 E9.15445
G1 X33.664 Y43.707 E9.23386
G1 X33.917 Y43.275 E9.2938
G1 X34.579 Y42.294 E9.43551
G1 X34.871 Y41.901 E9.49413
G1 X35.167 Y41.544 E9.54966
G1 X35.493 Y41.187 E9.60755
G1 X35.915 Y40.775 E9.67816
G1 X36.35 Y40.366 E9.74966
G0 F2400 X36.8 Y39.973
G1 F900 X36.8 Y60.019 E12.14989
G0 F2400 X38.4 Y61.156
G1 F900 X38.4 Y38.842 E14.82169
G0 F2400 X40 Y38.037
G1 F900 X40 Y61.966 E17.68687
G0 F2400 X41.6 Y62.492
G1 F900 X41.6 Y37.514 E20.67765
G0 F2400 X43.2 Y37.159
G1 F900 X43.2 Y62.839 E23.75248
G0 F2400 X44.8 Y62.961
G1 F900 X44.8 Y37.04 E26.85617
G0 F2400 X46.4 Y37.134
G1 F900 X46.4 Y62.872 E29.93795
G0 F2400 X48 Y62.614
G1 F900 X48 Y37.391 E32.95806
G0 F2400 X49.6 Y37.896
G1 F900 X49.6 Y62.102 E35.8564
G0 F2400 X51.2 Y61.353
G1 F900 X51.2 Y38.642 E38.57574
G0 F2400 X52.8 Y39.663
G1 F900 X52.8 Y60.339 E41.05141
G0 F2400 X54.4 Y58.929
G1 F900 X54.4 Y41.071 E43.18966
G0 F2400 X56 Y43.134
G1 F900 X56 Y56.862 E44.83341
G0 F2400 X57.6 Y52.864
G1 F900 X57.6 Y46.984 E45.53746
G0 F2400 X35.2 Y41.507
G1 F900 X35.2 Y58.49 E47.57094
G0 F2400 X33.6 Y56.158
G1 F900 X33.6 Y43.834 E49.04657
G0 F2400 X32.247 Y47.803
;TIME_ELAPSED:37.189300
;LAYER:-5
G0 X32.247 Y47.803 Z0.66
;TYPE:SUPPORT
G1 F900 X47.211 Y62.767 E51.15816
G1 X47.716 Y62.679 E51.2093
G1 X48.167 Y62.574 E51.25551
G1 X48.372 Y62.514 E51.27682
G1 X32.485 Y46.628 E53.51858
G1 X32.566 Y46.318 E53.55055
G1 X32.797 Y45.648 E53.62126
G1 X32.833 Y45.561 E53.63066
G1 X49.435 Y62.163 E55.97338
G1 X49.863 Y61.999 E56.01911
G1 X50.428 Y61.742 E56.08105
G1 X33.253 Y44.566 E58.5047
G1 X33.366 Y44.298 E58.53372
G1 X33.663 Y43.706 E58.5998
G1 X33.716 Y43.615 E58.61031
G1 X51.364 Y61.263 E61.10064
G1 X51.619 Y61.127 E61.12947
G1 X51.767 Y61.04 E61.1466
G1 X52.086 Y60.828 E61.18482
G1 X52.238 Y60.723 E61.20325
G1 X34.267 Y42.753 E63.73908
G1 X34.578 Y42.293 E63.79449
G1 X34.853 Y41.924 E63.84041
G1 X53.069 Y60.14 E66.41088
G1 X53.337 Y59.932 E66.44473
G1 X53.82 Y59.505 E66.50906
G1 X53.834 Y59.491 E66.51104
G1 X35.511 Y41.168 E69.09661
G1 X35.915 Y40.774 E69.15292
G1 X36.233 Y40.476 E69.1964
G1 X54.537 Y58.78 E71.77929
G1 X54.662 Y58.643 E71.7978
G1 X55.181 Y58.01 E71.87948
G1 X36.992 Y39.821 E74.44614
G1 X37.145 Y39.7 E74.4656
G1 X37.799 Y39.232 E74.54585
G1 X37.811 Y39.225 E74.54723
G1 X55.779 Y57.193 E77.08271
G1 X55.935 Y56.965 E77.11028
G1 X56.212 Y56.516 E77.16292
G1 X56.319 Y56.319 E77.18529
G1 X38.68 Y38.68 E79.67434
G1 X38.847 Y38.581 E79.69371
G1 X39.255 Y38.371 E79.7395
G1 X39.622 Y38.207 E79.77961
G1 X56.783 Y55.369 E82.20128
G1 X57.08 Y54.713 E82.27313
G1 X57.204 Y54.376 E82.30896
G1 X40.624 Y37.796 E84.64858
G1 X40.843 Y37.72 E84.67171
G1 X40.992 Y37.676 E84.68721
G1 X41.701 Y37.487 E84.76043
G1 X41.717 Y37.474 E84.76248
G1 X57.494 Y53.251 E86.98879
G1 X57.705 Y52.474 E87.06913
G1 X57.776 Y52.119 E87.10525
G1 X42.867 Y37.21 E89.20907
G1 X43.087 Y37.173 E89.23133
G1 X43.864 Y37.08 E89.30941
G1 X44.134 Y37.063 E89.33641
G1 X57.928 Y50.857 E91.28289
G1 X57.958 Y49.829 E91.38551
G1 X57.953 Y49.61 E91.40737
G1 X57.943 Y49.457 E91.42266
G1 X45.56 Y37.075 E93.16997
G1 X45.713 Y37.087 E93.18528
G1 X46.075 Y37.106 E93.22145
G1 X46.717 Y37.159 E93.28573
G1 X47.121 Y37.222 E93.32653
G1 X57.75 Y47.85 E94.82632
G1 X57.689 Y47.42 E94.86966
G1 X57.658 Y47.249 E94.887
G1 X57.526 Y46.652 E94.94801
G1 X57.483 Y46.488 E94.96492
G1 X57.341 Y46.027 E95.01306
G1 X48.989 Y37.675 E96.19161
G1 X49.409 Y37.819 E96.23592
G1 X49.915 Y38.021 E96.29028
G1 X50.331 Y38.208 E96.33579
G1 X51.135 Y38.605 E96.42526
G1 X51.573 Y38.845 E96.47509
G1 X56.205 Y43.477 E97.12872
G0 F2400 X55.963 Y43.074
G1 F900 X55.647 Y42.608 E97.1849
G1 X55.005 Y41.758 E97.29119
G1 X54.704 Y41.396 E97.33816
G1 X54.292 Y40.956 E97.39831
G1 X53.71 Y40.392 E97.47917
G1 X53.337 Y40.068 E97.52847
G1 X52.967 Y39.779 E97.57532
G1 X52.157 Y39.213 E97.67392
G1 X51.648 Y38.886 E97.73428
G1 X51.573 Y38.845 E97.74281
G0 F2400 X32.246 Y47.81
G1 F900 X32.152 Y48.312 E97.79377
G1 X32.067 Y49.037 E97.86661
G1 X45.933 Y62.904 E99.82332
G1 X45.353 Y62.94 E99.88131
G1 X44.8 Y62.96 E99.93652
G1 X44.568 Y62.953 E99.95968
G1 X32.039 Y50.424 E101.72766
G1 X32.051 Y50.632 E101.74845
G1 X32.142 Y51.472 E101.83275
G1 X32.154 Y51.648 E101.85035
G1 X32.202 Y51.988 E101.88462
G1 X32.205 Y52.004 E101.88624
G1 X43.015 Y62.814 E103.41165
G1 X42.39 Y62.701 E103.47502
G1 X42.114 Y62.636 E103.50331
G1 X41.407 Y62.438 E103.57657
G1 X41.162 Y62.376 E103.60179
G1 X32.621 Y53.834 E104.80709
G1 X32.69 Y54.072 E104.83181
G1 X32.859 Y54.532 E104.88071
G1 X33.277 Y55.512 E104.98702
G1 X33.526 Y56.021 E105.04356
G1 X33.683 Y56.31 E105.07638
G1 X38.711 Y61.338 E105.78588
G1 X38.393 Y61.152 E105.82264
G1 X38.04 Y60.922 E105.86468
G1 X37.108 Y60.266 E105.9784
G1 X36.674 Y59.918 E106.03391
G1 X36.34 Y59.621 E106.07851
G1 X35.573 Y58.895 E106.18389
G1 X35.262 Y58.564 E106.2292
G1 X34.917 Y58.154 E106.28267
G1 X34.354 Y57.394 E106.37704
G1 X34.118 Y57.037 E106.41975
G1 X33.693 Y56.329 E106.50214
G0 F2400 X41.957 Y37.2
;TIME_ELAPSED:76.763123
;LAYER:-4
G0 X41.957 Y37.2 Z0.86
;TYPE:SUPPORT-INTERFACE
G1 F1200 X40.929 Y37.486 E106.53763
G1 X40.578 Y37.6 E106.54991
G1 X49.392 Y37.6 E106.84306
G1 X49.985 Y37.834 E106.86426
G1 X50.356 Y38 E106.87778
G1 X39.596 Y38 E107.23566
G1 X39.158 Y38.197 E107.25164
G1 X38.766 Y38.4 E107.26632
G1 X51.17 Y38.4 E107.67888
G1 X51.238 Y38.434 E107.6814
G1 X51.737 Y38.707 E107.70032
G1 X51.891 Y38.8 E107.70631
G1 X38.092 Y38.8 E108.16526
G1 X38.078 Y38.808 E108.1658
G1 X37.687 Y39.068 E108.18142
G1 X37.503 Y39.2 E108.18895
G1 X52.489 Y39.2 E108.68739
G1 X53.055 Y39.6 E108.71044
G1 X36.951 Y39.6 E109.24606
G1 X36.669 Y39.822 E109.258
G1 X36.465 Y40 E109.267
G1 X53.566 Y40 E109.83578
G1 X53.607 Y40.034 E109.83755
G1 X53.95 Y40.342 E109.85289
G1 X54.01 Y40.4 E109.85566
G1 X36.023 Y40.4 E110.45391
G1 X35.781 Y40.627 E110.46495
G1 X35.604 Y40.8 E110.47318
G1 X54.416 Y40.8 E111.09887
G1 X54.533 Y40.915 E111.10433
G1 X54.796 Y41.2 E111.11722
G1 X35.211 Y41.2 E111.76862
G1 X35.017 Y41.411 E111.77816
G1 X34.861 Y41.6 E111.78631
G1 X55.135 Y41.6 E112.46062
G1 X55.164 Y41.635 E112.46214
G1 X55.44 Y42 E112.47736
G1 X34.545 Y42 E113.17233
G1 X34.483 Y42.081 E113.17572
G1 X34.27 Y42.4 E113.18848
G1 X55.742 Y42.4 E113.90264
G1 X55.815 Y42.498 E113.9067
G1 X56.02 Y42.8 E113.91884
G1 X33.996 Y42.8 E114.65136
G1 X33.843 Y43.02 E114.66028
G1 X33.752 Y43.162 E114.66589
G1 X33.73 Y43.2 E114.66735
G1 X56.274 Y43.2 E115.41716
G1 X56.395 Y43.403 E115.42502
G1 X56.502 Y43.6 E115.43248
G1 X33.496 Y43.6 E116.19766
G1 X33.49 Y43.609 E116.19802
G1 X33.295 Y44 E116.21255
G1 X56.712 Y44 E116.99141
G1 X56.782 Y44.143 E116.9967
G1 X56.903 Y44.4 E117.00615
G1 X33.108 Y44.4 E117.79758
G1 X32.939 Y44.8 E117.81202
G1 X57.09 Y44.8 E118.61528
G1 X57.131 Y44.889 E118.61854
G1 X57.26 Y45.2 E118.62974
G1 X32.771 Y45.2 E119.44425
G1 X32.612 Y45.572 E119.4577
G1 X32.602 Y45.6 E119.45869
G1 X57.41 Y45.6 E120.28381
G1 X57.48 Y45.798 E120.2908
G1 X57.543 Y46 E120.29783
G1 X32.466 Y46 E121.1319
G1 X32.336 Y46.4 E121.14589
G1 X57.666 Y46.4 E121.98837
G1 X57.677 Y46.438 E121.98968
G1 X57.725 Y46.618 E121.99588
G1 X57.765 Y46.8 E122.00208
G1 X32.234 Y46.8 E122.85124
G1 X32.212 Y46.885 E122.85416
G1 X32.151 Y47.2 E122.86483
G1 X57.853 Y47.2 E123.71968
G1 X57.856 Y47.215 E123.72019
G1 X57.886 Y47.378 E123.72571
G1 X57.918 Y47.6 E123.73317
G1 X32.079 Y47.6 E124.59257
G1 X32.049 Y47.774 E124.59845
G1 X32.007 Y48 E124.60609
G1 X57.974 Y48 E125.46976
G1 X57.986 Y48.092 E125.47284
G1 X58.036 Y48.4 E125.48322
G1 X31.94 Y48.4 E126.35118
G1 X31.893 Y48.8 E126.36457
G1 X58.095 Y48.8 E127.23606
G1 X58.109 Y48.932 E127.24047
G1 X58.127 Y49.2 E127.24941
G1 X31.86 Y49.2 E128.12305
G1 X31.841 Y49.6 E128.13637
G1 X58.153 Y49.6 E129.01151
G1 X58.154 Y49.616 E129.01204
G1 X58.159 Y49.835 E129.01933
G1 X58.154 Y50 E129.02482
G1 X31.831 Y50 E129.90032
G1 X31.833 Y50.305 E129.91047
G1 X31.838 Y50.4 E129.91363
G1 X58.142 Y50.4 E130.78851
G1 X58.13 Y50.8 E130.80182
G1 X31.862 Y50.8 E131.6755
G0 F2400 X31.863 Y50.808
G1 F1200 X31.908 Y51.2 E131.68862
G1 X58.109 Y51.2 E132.56007
G1 X58.107 Y51.237 E132.5613
G1 X58.068 Y51.6 E132.57344
G1 X31.95 Y51.6 E133.44213
G1 X31.956 Y51.671 E133.4445
G1 X32 Y52 E133.45554
G1 X58.003 Y52 E134.3204
G1 X57.924 Y52.4 E134.33397
G1 X32.077 Y52.4 E135.19364
G1 X32.125 Y52.64 E135.20178
G1 X32.163 Y52.8 E135.20725
G1 X57.824 Y52.8 E136.06074
G1 X57.715 Y53.2 E136.07453
G1 X32.257 Y53.2 E136.92126
G1 X32.343 Y53.6 E136.93487
G1 X57.621 Y53.6 E137.77562
G1 X57.58 Y53.795 E137.78225
G1 X57.523 Y54 E137.78933
G1 X32.458 Y54 E138.62299
G1 X32.594 Y54.4 E138.63704
G1 X57.41 Y54.4 E139.46243
G1 X57.35 Y54.577 E139.46864
G1 X57.26 Y54.8 E139.47664
G1 X32.758 Y54.8 E140.29158
G1 X32.927 Y55.2 E140.30602
G1 X57.082 Y55.2 E141.10942
G1 X56.901 Y55.6 E141.12403
G1 X33.101 Y55.6 E141.91562
G1 X33.291 Y56 E141.93035
G1 X56.711 Y56 E142.7093
G1 X56.574 Y56.274 E142.71949
G1 X56.504 Y56.4 E142.72428
G1 X33.504 Y56.4 E143.48926
G1 X33.52 Y56.429 E143.49037
G1 X33.742 Y56.8 E143.50475
G1 X56.27 Y56.8 E144.25403
G1 X56.021 Y57.199 E144.26967
G0 F2400 X56.02 Y57.2
G1 F1200 X33.986 Y57.2 E145.00253
G1 X34.191 Y57.511 E145.01492
G1 X34.256 Y57.6 E145.01858
G1 X55.736 Y57.6 E145.73301
G1 X55.442 Y58 E145.74952
G1 X34.549 Y58 E146.44442
G1 X34.676 Y58.172 E146.45154
G1 X34.866 Y58.4 E146.46141
G1 X55.123 Y58.4 E147.13516
G1 X54.926 Y58.646 E147.14564
G1 X54.787 Y58.8 E147.15254
G1 X35.208 Y58.8 E147.80374
G1 X35.371 Y58.977 E147.81174
G1 X35.602 Y59.2 E147.82242
G1 X54.419 Y59.2 E148.44828
G1 X54.409 Y59.211 E148.44877
G1 X54.006 Y59.6 E148.4674
G1 X36.022 Y59.6 E149.06555
G1 X36.212 Y59.777 E149.07419
G1 X36.466 Y60 E149.08543
G1 X53.564 Y60 E149.65411
G1 X53.461 Y60.09 E149.65866
G1 X53.063 Y60.398 E149.6754
G0 F2400 X53.06 Y60.4
G1 F1200 X36.957 Y60.4 E150.21099
G1 X37.079 Y60.495 E150.21613
G1 X37.516 Y60.8 E150.23386
G1 X52.481 Y60.8 E150.73159
G1 X52.396 Y60.859 E150.73503
G1 X52.366 Y60.885 E150.73636
G1 X51.886 Y61.2 E150.75545
G1 X38.095 Y61.2 E151.21414
G1 X38.389 Y61.385 E151.22569
G1 X38.705 Y61.568 E151.23784
G1 X38.767 Y61.6 E151.24016
G1 X51.167 Y61.6 E151.65259
G1 X50.51 Y61.925 E151.67697
G1 X50.345 Y62 E151.68299
G1 X39.587 Y62 E152.04081
G1 X40.036 Y62.199 E152.05714
G1 X40.469 Y62.365 E152.07256
G1 X40.571 Y62.4 E152.07615
G1 X49.384 Y62.4 E152.36927
G1 X49.364 Y62.408 E152.36999
G1 X49.059 Y62.517 E152.38076
G1 X48.596 Y62.663 E152.39691
G1 X48.21 Y62.77 E152.41023
G1 X48.081 Y62.8 E152.41464
G1 X41.953 Y62.8 E152.61845
G0 F2400 X42.06 Y62.83
G1 F1200 X42.339 Y62.895 E152.62798
G1 X42.885 Y62.998 E152.64646
G1 X43.695 Y63.102 E152.67363
G1 X44.154 Y63.143 E152.68895
G1 X44.805 Y63.161 E152.71061
G1 X45.363 Y63.142 E152.72918
G1 X45.748 Y63.111 E152.74203
G1 X46.078 Y63.095 E152.75302
G1 X46.713 Y63.047 E152.7742
G1 X46.994 Y63.01 E152.78363
G1 X47.756 Y62.876 E152.80936
G1 X48.081 Y62.8 E152.82046
G0 F2400 X48.051 Y37.2
G1 F1200 X41.957 Y37.2 E153.02315
G1 X42.1 Y37.16 E153.02809
G1 X42.523 Y37.066 E153.0425
G1 X43.055 Y36.976 E153.06044
G1 X43.854 Y36.881 E153.08721
G1 X44.178 Y36.856 E153.09801
G1 X44.83 Y36.84 E153.11971
G1 X45.357 Y36.858 E153.13724
G1 X45.728 Y36.889 E153.14963
G1 X46.072 Y36.906 E153.16108
G1 X46.873 Y36.978 E153.18783
G1 X47.558 Y37.087 E153.2109
G0 F2400 X31.953 Y48.279
;TIME_ELAPSED:148.257185
;LAYER:-3
G0 X31.953 Y48.279 Z1.06
;TYPE:SUPPORT-INTERFACE
G1 F1200 X31.869 Y49.003 E153.23514
G1 X31.831 Y49.809 E153.26198
G1 X31.833 Y50.304 E153.27844
G1 X31.863 Y50.807 E153.2952
G1 X31.943 Y51.492 E153.31814
G1 X31.956 Y51.67 E153.32408
G1 X31.999 Y51.985 E153.33465
G1 X31.999 Y48.036 E153.466
G1 X32.049 Y47.773 E153.4749
G1 X32.121 Y47.349 E153.4892
G1 X32.212 Y46.884 E153.50496
G1 X32.322 Y46.44 E153.52018
G1 X32.399 Y46.203 E153.52847
G1 X32.399 Y53.798 E153.78108
G1 X32.447 Y53.966 E153.78689
G1 X32.61 Y54.446 E153.80375
G1 X32.799 Y54.895 E153.81995
G1 X32.799 Y45.127 E154.14484
G1 X33.178 Y44.23 E154.17722
G1 X33.199 Y44.188 E154.17879
