;FLAVOR:Marlin
;TIME:10061
;Filament used: 9.32041m
;Layer height: 0.2
;Generated with Cura_SteamEngine 3.6.0
M104 S200
M105
M109 S200
M82 ;absolute extrusion mode
G28 ;Home
G1 Z15.0 F6000 ;Move the platform down 15mm
;Prime the extruder
G92 E0
G1 F200 E3
G92 E0
G92 E0
G1 F1500 E-6.5
;LAYER_COUNT:250
;LAYER:-6
M107
G0 F2400 X31.499 Y35.52 Z0.36
;TYPE:SUPPORT-INTERFACE
G1 F1500 E0
G1 F900 X32.7 Y34.491 E0.18937
G1 X33.067 Y34.207 E0.24493
G1 X34.257 Y33.374 E0.41886
G1 X34.654 Y33.123 E0.4751
G1 X35.989 Y32.378 E0.65815
G1 X36.425 Y32.161 E0.71646
G1 X37.84 Y31.55 E0.90101
G1 X38.276 Y31.385 E0.95683
G1 X39.831 Y30.895 E1.15205
G1 X40.338 Y30.769 E1.2146
G1 X41.697 Y30.491 E1.38069
G1 X42.129 Y30.425 E1.43302
G1 X43.779 Y30.249 E1.6317
G1 X44.179 Y30.228 E1.67966
G1 X45.668 Y30.225 E1.85795
G1 X46.188 Y30.249 E1.92028
G1 X47.975 Y30.443 E2.13551
G1 X48.409 Y30.514 E2.18816
G1 X49.808 Y30.807 E2.35931
G1 X50.236 Y30.92 E2.41231
G1 X51.576 Y31.341 E2.58049
G1 X52.038 Y31.51 E2.63939
G1 X53.425 Y32.103 E2.82001
G1 X53.965 Y32.367 E2.89198
G1 X55.197 Y33.047 E3.06048
G1 X55.608 Y33.299 E3.1182
G1 X56.925 Y34.215 E3.31029
G1 X57.314 Y34.52 E3.36947
G1 X58.37 Y35.424 E3.53592
G1 X58.835 Y35.862 E3.61241
G1 X59.899 Y36.987 E3.79781
G1 X60.225 Y37.374 E3.8584
G1 X61.135 Y38.558 E4.0372
G1 X61.402 Y38.946 E4.0936
G1 X62.221 Y40.268 E4.2798
G1 X62.441 Y40.673 E4.33499
G1 X63.113 Y42.051 E4.51856
G1 X63.295 Y42.481 E4.57447
G1 X63.813 Y43.894 E4.75467
G1 X63.972 Y44.419 E4.82035
G1 X64.301 Y45.686 E4.97709
G1 X64.432 Y46.314 E5.0539
G1 X64.648 Y47.751 E5.22789
G1 X64.697 Y48.215 E5.28376
G1 X64.773 Y49.72 E5.46419
G1 X64.776 Y50.233 E5.52562
G1 X64.691 Y51.842 E5.71854
G1 X64.64 Y52.322 E5.77634
G1 X64.432 Y53.688 E5.94179
G1 X64.3 Y54.314 E6.01839
G1 X63.914 Y55.784 E6.20037
G1 X63.812 Y56.107 E6.24093
G1 X63.283 Y57.543 E6.42416
G1 X63.08 Y58.022 E6.48646
G1 X62.365 Y59.468 E6.67961
G1 X62.123 Y59.895 E6.73837
G1 X61.314 Y61.182 E6.92039
G1 X61.042 Y61.567 E6.97683
G1 X60.141 Y62.731 E7.15308
G1 X59.792 Y63.133 E7.21682
G1 X58.751 Y64.22 E7.39704
G1 X58.386 Y64.561 E7.45685
G1 X57.222 Y65.555 E7.64012
G1 X56.834 Y65.85 E7.69848
G1 X55.646 Y66.676 E7.87173
G1 X55.213 Y66.942 E7.93258
G1 X53.883 Y67.678 E8.11459
G1 X53.447 Y67.89 E8.17264
G1 X52.113 Y68.462 E8.34643
G1 X51.59 Y68.654 E8.41314
G1 X50.134 Y69.108 E8.59575
G1 X49.66 Y69.227 E8.65427
G1 X48.166 Y69.533 E8.83687
G1 X47.674 Y69.604 E8.89639
G1 X46.19 Y69.752 E9.07496
G1 X45.809 Y69.772 E9.12064
G1 X44.254 Y69.772 E9.30683
G1 X43.662 Y69.741 E9.37782
G1 X42.167 Y69.587 E9.55777
G1 X41.786 Y69.528 E9.60393
G1 X40.122 Y69.178 E9.80753
G1 X39.694 Y69.063 E9.8606
G1 X38.422 Y68.664 E10.02022
G1 X37.92 Y68.482 E10.08416
G1 X36.511 Y67.876 E10.26781
G1 X36.102 Y67.678 E10.32222
G1 X34.749 Y66.933 E10.50715
G1 X34.327 Y66.672 E10.56657
G1 X33.151 Y65.854 E10.73809
G1 X32.751 Y65.549 E10.79832
G1 X31.559 Y64.528 E10.98625
G1 X31.19 Y64.181 E11.0469
G1 X30.17 Y63.112 E11.22381
G1 X29.848 Y62.741 E11.28263
G1 X28.916 Y61.542 E11.46447
G1 X28.58 Y61.057 E11.53511
G1 X27.822 Y59.842 E11.70658
G1 X27.583 Y59.416 E11.76507
G1 X26.942 Y58.115 E11.93873
G1 X26.691 Y57.53 E12.01495
G1 X26.151 Y56.06 E12.20246
G1 X26.013 Y55.608 E12.25905
G1 X25.647 Y54.177 E12.43591
G1 X25.553 Y53.714 E12.49248
G1 X25.337 Y52.307 E12.66292
G1 X25.28 Y51.775 E12.72699
G1 X25.206 Y50.27 E12.90741
G1 X25.206 Y49.637 E12.9832
G1 X25.273 Y48.331 E13.13978
G1 X25.338 Y47.687 E13.21728
G1 X25.576 Y46.163 E13.40197
G1 X25.678 Y45.684 E13.46061
G1 X26.045 Y44.28 E13.63437
G1 X26.152 Y43.936 E13.67751
G1 X26.698 Y42.453 E13.86673
G1 X26.943 Y41.884 E13.94091
G1 X27.604 Y40.546 E14.1196
G1 X27.845 Y40.119 E14.17831
G1 X28.632 Y38.863 E14.35578
G1 X28.849 Y38.55 E14.40138
G1 X29.797 Y37.321 E14.58723
G1 X30.113 Y36.95 E14.64558
G1 X31.142 Y35.864 E14.82472
G1 X31.499 Y35.52 E14.88408
G0 F2400 X32 Y35.09
G1 F900 X32 Y64.905 E18.45402
G0 F2400 X33.6 Y66.166
G1 F900 X33.6 Y33.833 E22.32546
G0 F2400 X35.2 Y32.818
G1 F900 X35.2 Y67.181 E26.43997
G0 F2400 X36.8 Y68
G1 F900 X36.8 Y31.999 E30.7506
G0 F2400 X38.4 Y31.345
G1 F900 X38.4 Y68.656 E35.21809
G0 F2400 X40 Y69.145
G1 F900 X40 Y30.853 E39.80304
G0 F2400 X41.6 Y30.51
G1 F900 X41.6 Y69.488 E44.47013
G0 F2400 X43.2 Y69.693
G1 F900 X43.2 Y30.31 E49.18571
G0 F2400 X44.8 Y30.226
G1 F900 X44.8 Y69.772 E53.92081
G0 F2400 X46.4 Y69.732
G1 F900 X46.4 Y30.273 E58.64549
G0 F2400 X48 Y30.448
G1 F900 X48 Y69.557 E63.32826
G0 F2400 X49.6 Y69.24
G1 F900 X49.6 Y30.764 E67.93524
G0 F2400 X51.2 Y31.223
G1 F900 X51.2 Y68.776 E72.43171
G0 F2400 X52.8 Y68.168
G1 F900 X52.8 Y31.836 E76.78197
G0 F2400 X54.4 Y32.608
G1 F900 X54.4 Y67.392 E80.94689
G0 F2400 X56 Y66.43
G1 F900 X56 Y33.572 E84.88119
G0 F2400 X57.6 Y34.765
G1 F900 X57.6 Y65.233 E88.52932
G0 F2400 X59.2 Y63.752
G1 F900 X59.2 Y36.248 E91.82255
G0 F2400 X60.8 Y38.123
G1 F900 X60.8 Y61.88 E94.66713
G0 F2400 X62.4 Y59.398
G1 F900 X62.4 Y40.598 E96.91818
G0 F2400 X64 Y44.527
G1 F900 X64 Y55.457 E98.2269
G0 F2400 X30.4 Y63.353
G1 F900 X30.4 Y36.647 E101.42458
G0 F2400 X28.8 Y38.62
G1 F900 X28.8 Y61.374 E104.14907
G0 F2400 X27.2 Y58.638
G1 F900 X27.2 Y41.363 E106.21751
G0 F2400 X25.6 Y46.05
G1 F900 X25.6 Y53.945 E107.16283
G0 F2400 X28.693 Y61.22
;TIME_ELAPSED:70.492780
;LAYER:-5
G0 X28.693 Y61.22 Z0.66
;TYPE:SUPPORT
G1 F900 X33.727 Y66.254 E107.87319
G1 X33.151 Y65.853 E107.94321
G1 X32.751 Y65.548 E107.99341
G1 X31.558 Y64.527 E108.15009
G1 X31.189 Y64.18 E108.20063
G1 X30.17 Y63.111 E108.34799
G1 X29.848 Y62.74 E108.39701
G1 X28.915 Y61.541 E108.5486
G0 F2400 X33.727 Y66.254
G1 F900 X34.327 Y66.671 E108.6215
G1 X34.749 Y66.932 E108.67101
G1 X36.102 Y67.677 E108.82513
G1 X36.51 Y67.875 E108.87038
G1 X36.951 Y68.064 E108.91826
G1 X26.896 Y58.009 E110.33712
G1 X26.691 Y57.529 E110.3892
G1 X26.15 Y56.058 E110.54559
G1 X26.059 Y55.757 E110.57697
G1 X39.213 Y68.911 E112.43314
G1 X39.693 Y69.062 E112.48335
G1 X40.121 Y69.176 E112.52754
G1 X41.097 Y69.382 E112.62708
G1 X25.584 Y53.868 E114.8162
G1 X25.553 Y53.713 E114.83197
G1 X25.337 Y52.306 E114.97401
G1 X25.325 Y52.195 E114.98515
G1 X42.779 Y69.649 E117.44809
G1 X43.662 Y69.74 E117.53667
G1 X44.254 Y69.77 E117.59581
G1 X44.315 Y69.77 E117.6019
G1 X25.226 Y50.681 E120.29556
G1 X25.206 Y50.268 E120.33682
G1 X25.205 Y49.636 E120.39988
G1 X25.223 Y49.265 E120.43694
G1 X45.729 Y69.77 E123.33049
G1 X45.809 Y69.771 E123.33847
G1 X46.19 Y69.751 E123.37654
G1 X47.038 Y69.666 E123.46158
G1 X25.311 Y47.939 E126.5275
G1 X25.337 Y47.686 E126.55287
G1 X25.491 Y46.704 E126.65206
G1 X48.292 Y69.505 E129.86952
G1 X49.466 Y69.265 E129.98909
G1 X25.72 Y45.519 E133.3399
G1 X26.013 Y44.398 E133.45552
G1 X50.582 Y68.966 E136.9224
G1 X51.589 Y68.653 E137.02762
G1 X51.657 Y68.628 E137.03485
G1 X26.37 Y43.34 E140.60319
G1 X26.698 Y42.452 E140.69764
G1 X26.757 Y42.313 E140.71271
G1 X52.666 Y68.223 E144.36882
G1 X53.447 Y67.889 E144.45358
G1 X53.648 Y67.791 E144.47589
G1 X27.206 Y41.348 E148.20721
G1 X27.604 Y40.545 E148.29664
G1 X27.68 Y40.408 E148.31227
G1 X54.568 Y67.296 E152.10646
G1 X55.213 Y66.941 E152.17992
G1 X55.468 Y66.782 E152.2099
G1 X28.214 Y39.527 E156.05581
G1 X28.632 Y38.862 E156.13418
G1 X28.767 Y38.666 E156.15793
G1 X56.311 Y66.211 E160.04475
G1 X56.833 Y65.849 E160.10814
G1 X57.134 Y65.62 E160.14588
G1 X29.377 Y37.862 E164.06276
G1 X29.796 Y37.32 E164.13112
G1 X30.004 Y37.075 E164.16318
G1 X57.902 Y64.973 E168.09989
G1 X58.385 Y64.56 E168.1633
G1 X58.653 Y64.309 E168.19994
G1 X30.686 Y36.343 E172.14632
G1 X31.142 Y35.863 E172.21238
G1 X31.386 Y35.628 E172.24618
G1 X59.351 Y63.593 E176.19234
G1 X59.792 Y63.132 E176.256
G1 X60.03 Y62.858 E176.29221
G1 X32.141 Y34.969 E180.22765
G1 X32.7 Y34.49 E180.30111
G1 X32.912 Y34.326 E180.32785
G1 X60.654 Y62.068 E184.24255
G1 X61.041 Y61.566 E184.30579
G1 X61.259 Y61.259 E184.34336
G1 X33.737 Y33.737 E188.22702
G1 X34.256 Y33.374 E188.29021
G1 X34.582 Y33.168 E188.32869
G1 X61.808 Y60.394 E192.17057
G1 X62.122 Y59.894 E192.22948
G1 X62.339 Y59.511 E192.27341
G1 X35.486 Y32.658 E196.06266
G1 X35.988 Y32.377 E196.12006
G1 X36.41 Y32.167 E196.16709
G1 X62.81 Y58.567 E199.89242
G1 X63.079 Y58.022 E199.95306
G1 X63.257 Y57.6 E199.99876
G1 X37.398 Y31.741 E203.64775
G1 X37.839 Y31.55 E203.6957
G1 X38.274 Y31.384 E203.74216
G1 X38.412 Y31.341 E203.75658
G1 X63.641 Y56.569 E207.31659
G1 X63.811 Y56.106 E207.36581
G1 X63.913 Y55.784 E207.39951
G1 X63.987 Y55.502 E207.4286
G1 X39.488 Y31.003 E210.88567
G1 X39.829 Y30.894 E210.92139
G1 X40.337 Y30.769 E210.9736
G1 X40.612 Y30.713 E211.0016
G1 X64.281 Y54.382 E214.34155
G1 X64.299 Y54.313 E214.34866
G1 X64.431 Y53.687 E214.4125
G1 X64.507 Y53.193 E214.46237
G1 X41.79 Y30.477 E217.66792
G1 X42.128 Y30.425 E217.70204
G1 X43.054 Y30.326 E217.79496
G1 X64.679 Y51.951 E220.84648
G1 X64.69 Y51.842 E220.85741
G1 X64.755 Y50.613 E220.98022
G1 X44.37 Y30.228 E223.85676
G1 X45.667 Y30.225 E223.98617
G1 X45.787 Y30.23 E223.99816
G1 X64.745 Y49.189 E226.67341
G1 X64.696 Y48.214 E226.77082
G1 X64.647 Y47.751 E226.81727
G1 X64.634 Y47.663 E226.82615
G1 X47.345 Y30.375 E229.26574
G1 X47.973 Y30.443 E229.32877
G1 X48.407 Y30.513 E229.37264
G1 X49.029 Y30.644 E229.43606
G1 X64.36 Y45.976 E231.5995
G1 X64.3 Y45.686 E231.62905
G1 X63.971 Y44.419 E231.75966
G1 X63.864 Y44.065 E231.79656
G1 X50.94 Y31.141 E233.62028
G1 X51.575 Y31.341 E233.68671
G1 X52.037 Y31.51 E233.7358
G1 X53.236 Y32.023 E233.86592
G1 X62.969 Y41.756 E235.23935
G1 X62.44 Y40.672 E235.35971
G1 X62.22 Y40.267 E235.4057
G1 X61.4 Y38.946 E235.56084
G1 X61.134 Y38.557 E235.60786
G1 X60.966 Y38.338 E235.6354
G1 X56.655 Y34.028 E236.24366
G1 X56.924 Y34.214 E236.27629
G1 X57.313 Y34.52 E236.32567
G1 X58.369 Y35.423 E236.46431
G1 X58.834 Y35.861 E236.52805
G1 X59.898 Y36.986 E236.68256
G1 X60.224 Y37.373 E236.73305
G0 F2400 X34.15 Y33.205
;TIME_ELAPSED:158.010335
;LAYER:-4
G0 X34.15 Y33.205 Z0.86
;TYPE:SUPPORT-INTERFACE
G1 F1200 X33.586 Y33.6 E236.75595
G1 X56.396 Y33.6 E237.51461
G1 X56.967 Y34 E237.5378
G1 X33.015 Y34 E238.33445
G1 X32.942 Y34.051 E238.33741
G1 X32.572 Y34.336 E238.35294
G1 X32.498 Y34.4 E238.3562
G1 X57.482 Y34.4 E239.18717
G1 X57.949 Y34.8 E239.20762
G1 X32.031 Y34.8 E240.06966
G1 X31.564 Y35.2 E240.09011
G1 X58.417 Y35.2 E240.98324
G1 X58.505 Y35.276 E240.98711
G1 X58.852 Y35.6 E241.0029
G1 X31.123 Y35.6 E241.92517
G1 X31.093 Y35.628 E241.92654
G1 X30.739 Y36 E241.94362
G1 X59.238 Y36 E242.8915
G1 X59.62 Y36.4 E242.90989
G1 X30.359 Y36.4 E243.88312
G1 X29.988 Y36.789 E243.901
G1 X29.979 Y36.8 E243.90147
G1 X60 Y36.8 E244.89997
G1 X60.287 Y37.132 E244.91457
G1 X60.34 Y37.2 E244.91744
G1 X29.639 Y37.2 E245.93855
G1 X29.329 Y37.6 E245.95539
G1 X60.651 Y37.6 E246.99716
G1 X60.961 Y38 E247.01399
G1 X29.018 Y38 E248.07642
G1 X28.768 Y38.322 E248.08998
G1 X28.713 Y38.4 E248.09315
G1 X61.266 Y38.4 E249.17587
G1 X61.52 Y38.76 E249.19052
G1 X61.545 Y38.8 E249.19209
G1 X28.434 Y38.8 E250.29337
G1 X28.184 Y39.2 E250.30906
G1 X61.795 Y39.2 E251.42697
G1 X62.045 Y39.6 E251.44265
G1 X27.934 Y39.6 E252.57719
G1 X27.684 Y40 E252.59288
G1 X62.295 Y40 E253.74405
G1 X62.309 Y40.023 E253.74494
G1 X62.518 Y40.4 E253.75928
G1 X27.46 Y40.4 E254.92531
G1 X27.369 Y40.562 E254.93149
G1 X27.253 Y40.8 E254.9403
G1 X62.726 Y40.8 E256.12013
G1 X62.922 Y41.2 E256.13495
G1 X27.058 Y41.2 E257.32779
G1 X26.863 Y41.6 E257.34259
G1 X63.118 Y41.6 E258.54844
G1 X63.238 Y41.845 E258.55751
G1 X63.306 Y42 E258.56314
G1 X26.671 Y42 E259.78163
G1 X26.559 Y42.258 E259.79098
G1 X26.507 Y42.4 E259.79601
G1 X63.475 Y42.4 E261.02557
G1 X63.624 Y42.8 E261.03977
G1 X26.359 Y42.8 E262.27921
G1 X26.211 Y43.2 E262.29339
G1 X63.772 Y43.2 E263.54268
G1 X63.92 Y43.6 E263.55686
G1 X26.063 Y43.6 E264.81599
G1 X25.959 Y43.881 E264.82596
G1 X25.923 Y44 E264.83009
G1 X64.053 Y44 E266.0983
G1 X64.164 Y44.359 E266.1108
G1 X64.175 Y44.4 E266.11221
G1 X25.805 Y44.4 E267.3884
G1 X25.702 Y44.8 E267.40214
G1 X64.279 Y44.8 E268.68522
G1 X64.382 Y45.2 E268.69896
G1 X25.599 Y45.2 E269.98888
G1 X25.497 Y45.6 E270.00261
G1 X64.485 Y45.6 E271.29936
G1 X64.495 Y45.639 E271.3007
G1 X64.571 Y46 E271.31297
G1 X25.407 Y46 E272.61557
G1 X25.351 Y46.281 E272.6251
G1 X25.333 Y46.4 E272.6291
G1 X64.647 Y46.4 E273.93669
G1 X64.708 Y46.8 E273.95015
G1 X25.271 Y46.8 E275.26183
G1 X25.21 Y47.2 E275.27529
G1 X64.769 Y47.2 E276.59102
G1 X64.829 Y47.6 E276.60448
G1 X25.148 Y47.6 E277.92427
G1 X25.137 Y47.667 E277.92653
G1 X25.105 Y48 E277.93766
G1 X64.876 Y48 E279.26045
G1 X64.896 Y48.2 E279.26713
G1 X64.907 Y48.4 E279.27379
G1 X25.07 Y48.4 E280.59878
G1 X25.049 Y48.8 E280.6121
G1 X64.927 Y48.8 E281.93845
G1 X64.947 Y49.2 E281.95177
G1 X25.029 Y49.2 E283.27945
G1 X25.008 Y49.6 E283.29277
G1 X64.968 Y49.6 E284.62184
G1 X64.973 Y49.714 E284.62564
G1 X64.975 Y50 E284.63515
G1 X25.003 Y50 E285.96463
G1 X25.001 Y50.113 E285.96838
G1 X25.013 Y50.4 E285.97794
G1 X64.967 Y50.4 E287.30681
G1 X64.946 Y50.8 E287.32014
G1 X25.032 Y50.8 E288.64768
G1 X25.05 Y51.2 E288.661
G1 X64.925 Y51.2 E289.98725
G1 X64.903 Y51.6 E290.00057
G1 X25.068 Y51.6 E291.32549
G1 X25.072 Y51.684 E291.32829
G1 X25.103 Y52 E291.33885
G1 X64.875 Y52 E292.66167
G1 X64.839 Y52.34 E292.67304
G1 X64.829 Y52.4 E292.67506
G1 X25.148 Y52.4 E293.99486
G1 X25.209 Y52.8 E294.00832
G1 X64.767 Y52.8 E295.32402
G1 X64.706 Y53.2 E295.33748
G1 X25.271 Y53.2 E296.64909
G1 X25.332 Y53.6 E296.66255
G1 X64.644 Y53.6 E297.97007
G1 X64.608 Y53.834 E297.97795
G1 X64.572 Y54 E297.9836
G1 X25.406 Y54 E299.28626
G1 X25.451 Y54.222 E299.2938
G1 X25.496 Y54.4 E299.2999
G1 X64.484 Y54.4 E300.59665
G1 X64.379 Y54.8 E300.6104
G1 X25.599 Y54.8 E301.90023
G1 X25.701 Y55.2 E301.91396
G1 X64.273 Y55.2 E303.19687
G1 X64.168 Y55.6 E303.21063
G1 X25.803 Y55.6 E304.48665
G1 X25.821 Y55.667 E304.48896
G1 X25.926 Y56 E304.50057
G1 X64.054 Y56 E305.76871
G1 X64 Y56.175 E305.77481
G1 X63.916 Y56.4 E305.78279
G1 X26.059 Y56.4 E307.04192
G1 X26.208 Y56.8 E307.05612
G1 X63.768 Y56.8 E308.30537
G1 X63.619 Y57.2 E308.31957
G1 X26.357 Y57.2 E309.55891
G1 X26.506 Y57.6 E309.5731
G1 X63.471 Y57.6 E310.80256
G1 X63.422 Y57.733 E310.80728
G1 X63.304 Y58 E310.81699
G1 X26.672 Y58 E312.03537
G1 X26.757 Y58.193 E312.04239
G1 X26.858 Y58.4 E312.05005
G1 X63.117 Y58.4 E313.25603
G1 X62.918 Y58.8 E313.27089
G1 X27.055 Y58.8 E314.4637
G1 X27.252 Y59.2 E314.47853
G1 X62.72 Y59.2 E315.6582
G1 X62.536 Y59.569 E315.67191
G1 X62.518 Y59.6 E315.6731
G1 X27.455 Y59.6 E316.8393
G1 X27.646 Y59.939 E316.85224
G1 X27.684 Y60 E316.85463
G1 X62.291 Y60 E318.00567
G1 X62.039 Y60.4 E318.02139
G1 X27.934 Y60.4 E319.15573
G1 X28.184 Y60.8 E319.17142
G1 X61.788 Y60.8 E320.28909
G1 X61.537 Y61.2 E320.3048
G1 X28.434 Y61.2 E321.40581
G1 X28.459 Y61.24 E321.40738
G1 X28.712 Y61.6 E321.42201
G1 X61.262 Y61.6 E322.50463
G1 X61.2 Y61.688 E322.50821
G1 X60.958 Y62 E322.52134
G1 X29.018 Y62 E323.58367
G1 X29.329 Y62.4 E323.60052
G1 X60.648 Y62.4 E324.6422
G1 X60.338 Y62.8 E324.65903
G1 X29.64 Y62.8 E325.68005
G1 X29.696 Y62.872 E325.68308
G1 X29.98 Y63.2 E325.69751
G1 X59.997 Y63.2 E326.69588
G1 X59.617 Y63.6 E326.71423
G1 X30.356 Y63.6 E327.68746
G1 X30.735 Y64 E327.70578
G1 X59.236 Y64 E328.65373
G1 X58.888 Y64.366 E328.67053
G1 X58.852 Y64.4 E328.67218
G1 X31.13 Y64.4 E329.59421
G1 X31.296 Y64.56 E329.60188
G1 X31.573 Y64.8 E329.61407
G1 X58.409 Y64.8 E330.50664
G1 X57.942 Y65.2 E330.52709
G1 X32.035 Y65.2 E331.38876
G1 X32.497 Y65.6 E331.40909
G1 X57.474 Y65.6 E332.23983
G1 X57.343 Y65.713 E332.24558
G1 X56.966 Y66 E332.26134
G1 X33.017 Y66 E333.05789
G1 X33.586 Y66.4 E333.08102
G1 X56.392 Y66.4 E333.83955
G1 X55.816 Y66.8 E333.86288
G1 X34.158 Y66.8 E334.58322
G1 X34.57 Y67.059 E334.59941
G1 X34.823 Y67.2 E334.60904
G1 X55.155 Y67.2 E335.28529
G1 X54.438 Y67.6 E335.3126
G1 X35.542 Y67.6 E335.94108
G1 X35.902 Y67.8 E335.95478
G1 X36.309 Y68 E335.96986
G1 X53.68 Y68 E336.54762
G1 X53.602 Y68.039 E336.55052
G1 X52.763 Y68.4 E336.5809
G1 X37.217 Y68.4 E337.09796
G1 X37.754 Y68.632 E337.11742
G1 X38.201 Y68.8 E337.1333
G1 X51.779 Y68.8 E337.58491
G1 X51.723 Y68.821 E337.5869
G1 X50.511 Y69.2 E337.62913
G1 X39.47 Y69.2 E337.99636
