;FLAVOR:Marlin
;TIME:9075
;Filament used: 8.56893m
;Layer height: 0.2
;Generated with Cura_SteamEngine 3.6.0
M104 S200
M105
M109 S200
M82 ;absolute extrusion mode
G28 ;Home
G1 Z15.0 F6000 ;Move the platform down 15mm
;Prime the extruder
G92 E0
G1 F200 E3
G92 E0
G92 E0
G1 F1500 E-6.5
;LAYER_COUNT:240
;LAYER:-6
M107
G0 F2400 X30.815 Y35.247 Z0.36
;TYPE:SUPPORT-INTERFACE
G1 F1500 E0
G1 F900 X32.336 Y33.92 E0.24169
G1 X32.851 Y33.532 E0.3189
G1 X34.573 Y32.39 E0.5663
G1 X35.154 Y32.063 E0.64613
G1 X36.96 Y31.179 E0.88689
G1 X37.591 Y30.926 E0.96829
G1 X39.563 Y30.271 E1.2171
G1 X40.151 Y30.12 E1.28978
G1 X42.051 Y29.747 E1.52163
G1 X42.673 Y29.669 E1.59669
G1 X44.607 Y29.544 E1.82874
G1 X45.228 Y29.54 E1.9031
G1 X47.324 Y29.671 E2.15455
G1 X48.095 Y29.774 E2.24769
G1 X50.03 Y30.163 E2.48402
G1 X50.609 Y30.322 E2.55591
G1 X52.544 Y30.978 E2.80055
G1 X53.133 Y31.225 E2.87703
G1 X54.875 Y32.078 E3.10927
G1 X55.464 Y32.411 E3.19029
G1 X57.188 Y33.565 E3.43869
G1 X57.698 Y33.951 E3.51528
G1 X59.192 Y35.258 E3.75296
G1 X59.645 Y35.705 E3.82916
G1 X61.013 Y37.259 E4.07705
G1 X61.377 Y37.725 E4.14785
G1 X61.479 Y37.867 E4.16879
G1 X62.6 Y39.556 E4.41151
G1 X62.842 Y39.978 E4.46976
G1 X63.764 Y41.836 E4.71812
G1 X64.013 Y42.422 E4.79435
G1 X64.064 Y42.558 E4.81175
G1 X64.655 Y44.305 E5.03257
G1 X64.825 Y44.916 E5.10851
G1 X65.223 Y46.879 E5.34833
G1 X65.251 Y47.044 E5.36837
G1 X65.332 Y47.696 E5.44704
G1 X65.461 Y49.748 E5.69323
G1 X65.457 Y50.383 E5.76926
G1 X65.335 Y52.274 E5.99615
G1 X65.257 Y52.904 E6.07216
G1 X64.854 Y54.953 E6.3222
G1 X64.653 Y55.704 E6.41529
G1 X64.014 Y57.575 E6.65202
G1 X63.764 Y58.168 E6.72908
G1 X62.903 Y59.911 E6.96185
G1 X62.603 Y60.443 E7.03498
G1 X62.509 Y60.594 E7.05628
G1 X61.481 Y62.132 E7.27778
G1 X61.086 Y62.656 E7.35635
G1 X59.73 Y64.206 E7.60294
G1 X59.278 Y64.663 E7.67991
G1 X57.646 Y66.093 E7.93972
G1 X57.136 Y66.476 E8.01609
G1 X55.436 Y67.605 E8.26044
G1 X54.863 Y67.928 E8.3392
G1 X53.205 Y68.743 E8.56041
G1 X53.035 Y68.821 E8.5828
G1 X52.475 Y69.047 E8.65511
G1 X50.617 Y69.675 E8.88994
G1 X50.012 Y69.843 E8.96513
G1 X48.092 Y70.229 E9.19962
G1 X47.46 Y70.316 E9.27601
G1 X47.313 Y70.331 E9.2937
G1 X45.399 Y70.456 E9.52336
G1 X44.762 Y70.461 E9.59964
G1 X42.661 Y70.328 E9.85171
G1 X41.865 Y70.222 E9.94786
G1 X39.913 Y69.824 E10.18639
G1 X39.33 Y69.663 E10.25881
G1 X37.411 Y69.01 E10.50153
G1 X36.805 Y68.753 E10.58034
G1 X35.104 Y67.913 E10.80749
G1 X34.417 Y67.515 E10.90256
G1 X32.708 Y66.359 E11.14961
G1 X32.222 Y65.98 E11.2234
G1 X30.815 Y64.748 E11.44733
G1 X30.336 Y64.278 E11.52768
G1 X28.99 Y62.745 E11.77195
G1 X28.527 Y62.141 E11.86307
G1 X27.487 Y60.585 E12.08717
G1 X27.169 Y60.046 E12.1621
G1 X27.092 Y59.902 E12.18165
G1 X26.243 Y58.188 E12.41068
G1 X25.939 Y57.46 E12.50514
G1 X25.298 Y55.551 E12.74626
G1 X25.166 Y55.05 E12.80829
G1 X24.767 Y53.034 E13.05437
G1 X24.683 Y52.416 E13.12904
G1 X24.546 Y50.383 E13.37302
G1 X24.541 Y50.243 E13.38979
G1 X24.548 Y49.566 E13.47086
G1 X24.683 Y47.601 E13.7067
G1 X24.761 Y46.98 E13.78164
G1 X25.145 Y45.049 E14.01737
G1 X25.299 Y44.46 E14.09027
G1 X25.955 Y42.517 E14.33582
G1 X26.246 Y41.813 E14.42703
G1 X27.152 Y39.984 E14.67143
G1 X27.485 Y39.42 E14.74985
G1 X28.548 Y37.833 E14.97856
G1 X28.923 Y37.337 E15.05301
G1 X30.251 Y35.813 E15.29505
G1 X30.367 Y35.688 E15.31547
G1 X30.815 Y35.247 E15.39074
G0 F2400 X30.4 Y35.655
G1 F900 X30.4 Y64.34 E18.82538
G0 F2400 X32 Y65.785
G1 F900 X32 Y34.213 E22.6057
G0 F2400 X33.6 Y33.035
G1 F900 X33.6 Y66.962 E26.668
G0 F2400 X35.2 Y67.96
G1 F900 X35.2 Y32.04 E30.96894
G0 F2400 X36.8 Y31.257
G1 F900 X36.8 Y68.75 E35.45822
G0 F2400 X38.4 Y69.346
G1 F900 X38.4 Y30.657 E40.0907
G0 F2400 X40 Y30.158
G1 F900 X40 Y69.841 E44.8422
G0 F2400 X41.6 Y70.167
G1 F900 X41.6 Y29.835 E49.67142
G0 F2400 X43.2 Y29.634
G1 F900 X43.2 Y70.362 E54.54804
G0 F2400 X44.8 Y70.461
G1 F900 X44.8 Y29.542 E59.44754
G0 F2400 X46.4 Y29.614
G1 F900 X46.4 Y70.391 E64.33004
G0 F2400 X48 Y70.242
G1 F900 X48 Y29.762 E69.17697
G0 F2400 X49.6 Y30.077
G1 F900 X49.6 Y69.926 E73.94835
G0 F2400 X51.2 Y69.478
G1 F900 X51.2 Y30.523 E78.61268
G0 F2400 X52.8 Y31.086
G1 F900 X52.8 Y68.916 E83.14231
G0 F2400 X54.4 Y68.156
G1 F900 X54.4 Y31.846 E87.48995
G0 F2400 X56 Y32.77
G1 F900 X56 Y67.231 E91.61619
G0 F2400 X57.6 Y66.128
G1 F900 X57.6 Y33.877 E95.47781
G0 F2400 X59.2 Y35.266
G1 F900 X59.2 Y64.732 E99.00596
G0 F2400 X60.8 Y62.983
G1 F900 X60.8 Y37.018 E102.11492
G0 F2400 X62.4 Y39.255
G1 F900 X62.4 Y60.758 E104.68961
G0 F2400 X64 Y57.609
G1 F900 X64 Y42.392 E106.51164
G0 F2400 X28.8 Y37.499
G1 F900 X28.8 Y62.497 E109.50482
G0 F2400 X27.2 Y60.098
G1 F900 X27.2 Y39.902 E111.92301
G0 F2400 X25.6 Y43.568
G1 F900 X25.6 Y56.45 E113.46546
G0 F2400 X26.248 Y41.804
;TIME_ELAPSED:74.121480
;LAYER:-5
G0 X26.248 Y41.804 Z0.66
;TYPE:SUPPORT
G1 F900 X53.192 Y68.748 E117.26755
G1 X53.204 Y68.742 E117.26889
G1 X54.14 Y68.282 E117.37295
G1 X26.717 Y40.859 E121.24263
G1 X27.152 Y39.983 E121.34022
G1 X27.19 Y39.918 E121.34774
G1 X55.077 Y67.805 E125.28289
G1 X55.436 Y67.604 E125.32395
G1 X55.949 Y67.262 E125.38547
G1 X27.733 Y39.047 E129.36698
G1 X28.3 Y38.2 E129.46868
G1 X56.799 Y66.698 E133.49013
G1 X57.135 Y66.475 E133.53037
G1 X57.623 Y66.108 E133.59129
G1 X28.891 Y37.376 E137.64569
G1 X28.922 Y37.335 E137.65082
G1 X29.547 Y36.618 E137.74572
G1 X58.378 Y65.449 E141.81409
G1 X59.132 Y64.789 E141.91407
G1 X30.206 Y35.863 E145.99585
G1 X30.251 Y35.812 E146.00263
G1 X30.366 Y35.686 E146.01965
G1 X30.815 Y35.245 E146.08245
G1 X30.916 Y35.158 E146.09575
G1 X59.838 Y64.08 E150.17696
G1 X60.498 Y63.327 E150.27687
G1 X31.671 Y34.499 E154.34474
G1 X32.335 Y33.919 E154.43271
G1 X32.432 Y33.847 E154.44477
G1 X61.152 Y62.566 E158.4974
G1 X61.48 Y62.131 E158.55176
G1 X61.741 Y61.741 E158.59858
G1 X33.26 Y33.26 E162.61756
G1 X34.11 Y32.696 E162.71934
G1 X62.308 Y60.893 E166.69832
G1 X62.508 Y60.593 E166.73429
G1 X62.602 Y60.442 E166.75204
G1 X62.844 Y60.015 E166.80101
G1 X34.986 Y32.157 E170.73208
G1 X35.153 Y32.063 E170.7512
G1 X35.927 Y31.684 E170.83719
G1 X63.316 Y59.073 E174.70208
G1 X63.762 Y58.168 E174.80275
G1 X63.781 Y58.124 E174.80753
G1 X36.877 Y31.22 E178.60397
G1 X36.959 Y31.179 E178.61312
G1 X37.589 Y30.926 E178.68086
G1 X37.895 Y30.824 E178.71305
G1 X64.174 Y57.103 E182.4213
G1 X64.534 Y56.049 E182.53243
G1 X38.958 Y30.472 E186.14155
G1 X39.562 Y30.271 E186.20507
G1 X40.046 Y30.147 E186.25492
G1 X64.853 Y54.954 E189.75546
G0 F2400 X64.853 Y54.952
G1 F900 X65.086 Y53.772 E189.87547
G1 X41.223 Y29.909 E193.2428
G1 X42.05 Y29.746 E193.32691
G1 X42.427 Y29.699 E193.36481
G1 X65.297 Y52.569 E196.59202
G1 X65.334 Y52.274 E196.62168
G1 X65.4 Y51.258 E196.72327
G1 X43.742 Y29.6 E199.77945
G1 X44.606 Y29.543 E199.86585
G1 X45.097 Y29.54 E199.91484
G1 X65.459 Y49.903 E202.78821
G1 X65.46 Y49.748 E202.80368
G1 X65.376 Y48.405 E202.93795
G1 X46.596 Y29.625 E205.58801
G1 X47.323 Y29.67 E205.66069
G1 X48.093 Y29.774 E205.73821
G1 X48.175 Y29.791 E205.74657
G1 X65.212 Y46.828 E208.15067
G1 X64.852 Y45.053 E208.33139
G1 X49.945 Y30.146 E210.43493
G1 X50.029 Y30.163 E210.44348
G1 X50.608 Y30.321 E210.50337
G1 X52.01 Y30.797 E210.6511
G1 X64.213 Y43 E212.37308
G1 X64.063 Y42.557 E212.41974
G1 X64.012 Y42.421 E212.43424
G1 X63.763 Y41.835 E212.49777
G1 X63.073 Y40.446 E212.65252
G1 X54.544 Y31.917 E213.85606
G1 X54.874 Y32.078 E213.89269
G1 X55.463 Y32.411 E213.96021
G1 X57.187 Y33.565 E214.16721
G1 X57.697 Y33.951 E214.23103
G1 X59.191 Y35.258 E214.42909
G1 X59.644 Y35.704 E214.49253
G1 X61.012 Y37.258 E214.69911
G1 X61.376 Y37.724 E214.75811
G1 X61.478 Y37.866 E214.77555
G1 X62.599 Y39.556 E214.97791
G1 X62.841 Y39.977 E215.02636
G0 F2400 X26.245 Y41.811
G1 F900 X25.955 Y42.516 E215.10242
G1 X25.851 Y42.822 E215.13467
G1 X52.176 Y69.147 E218.84941
G1 X51.119 Y69.504 E218.96073
G1 X25.494 Y43.879 E222.5767
G1 X25.299 Y44.459 E222.63775
G1 X25.165 Y44.964 E222.68989
G1 X50.036 Y69.835 E226.19945
G1 X50.012 Y69.842 E226.20195
G1 X48.86 Y70.073 E226.31918
G1 X24.926 Y46.14 E229.69646
G1 X24.76 Y46.979 E229.7818
G1 X24.714 Y47.342 E229.81831
G1 X47.66 Y70.287 E233.05617
G1 X47.46 Y70.315 E233.07632
G1 X47.312 Y70.33 E233.09116
G1 X46.35 Y70.392 E233.18735
G1 X24.61 Y48.651 E236.25517
G1 X24.547 Y49.565 E236.34658
G1 X24.542 Y49.998 E236.38979
G1 X45.001 Y70.457 E239.27678
G1 X44.761 Y70.459 E239.30072
G1 X43.51 Y70.38 E239.4258
G1 X24.62 Y51.49 E242.09138
G1 X24.682 Y52.415 E242.18389
G1 X24.767 Y53.033 E242.24613
G1 X24.771 Y53.055 E242.24836
G1 X41.947 Y70.231 E244.67208
G1 X41.864 Y70.221 E244.68042
G1 X40.178 Y69.876 E244.85214
G1 X25.119 Y54.818 E246.97706
G1 X25.165 Y55.049 E247.00056
G1 X25.297 Y55.55 E247.05225
G1 X25.732 Y56.845 E247.18856
G1 X38.146 Y69.258 E248.94024
G1 X37.411 Y69.009 E249.01768
G1 X36.804 Y68.751 E249.08349
G1 X35.659 Y68.186 E249.21089
G1 X26.814 Y59.341 E250.45901
G0 F2400 X27.092 Y59.901
G1 F900 X27.169 Y60.045 E250.47531
G1 X27.487 Y60.584 E250.53775
G1 X28.526 Y62.139 E250.72436
G1 X28.989 Y62.744 E250.80037
G1 X30.336 Y64.277 E251.004
G1 X30.815 Y64.747 E251.07096
G1 X32.222 Y65.979 E251.25756
G1 X32.707 Y66.357 E251.31892
G1 X34.417 Y67.513 E251.52487
G1 X35.104 Y67.912 E251.60414
G1 X35.659 Y68.186 E251.6659
G0 F2400 X48.134 Y29.577
;TIME_ELAPSED:168.527356
;LAYER:-4
G0 X48.134 Y29.577 Z0.86
;TYPE:SUPPORT-INTERFACE
G1 F1200 X47.472 Y29.483 E251.68814
G1 X45.235 Y29.339 E251.7627
G1 X44.608 Y29.343 E251.78355
G1 X42.652 Y29.47 E251.84875
G1 X42.021 Y29.548 E251.86989
G1 X41.757 Y29.6 E251.87884
G1 X48.249 Y29.6 E252.09477
G1 X50.071 Y29.966 E252.15658
G1 X50.195 Y30 E252.16085
G1 X39.807 Y30 E252.50636
G1 X39.349 Y30.126 E252.52216
G1 X38.531 Y30.4 E252.55085
G1 X51.464 Y30.4 E252.98101
G1 X52.62 Y30.792 E253.0216
G1 X52.64 Y30.8 E253.02232
G1 X37.366 Y30.8 E253.53034
G1 X36.884 Y30.993 E253.54761
G1 X36.461 Y31.2 E253.56327
G1 X53.528 Y31.2 E254.13092
G1 X54.344 Y31.6 E254.16114
G1 X35.644 Y31.6 E254.78311
G1 X35.055 Y31.888 E254.80492
G1 X34.895 Y31.972 E254.81093
G1 X34.847 Y32 E254.81277
G1 X55.153 Y32 E255.48816
G1 X55.688 Y32.315 E255.5088
G1 X55.814 Y32.4 E255.51386
G1 X34.196 Y32.4 E256.23288
G1 X33.593 Y32.8 E256.25694
G1 X56.406 Y32.8 E257.01571
G1 X56.998 Y33.2 E257.03947
G1 X32.99 Y33.2 E257.83798
G1 X32.744 Y33.362 E257.84778
G1 X32.428 Y33.6 E257.86094
G1 X57.567 Y33.6 E258.69706
G1 X57.905 Y33.864 E258.71133
G1 X58.06 Y34 E258.71818
G1 X31.939 Y34 E259.58697
G1 X31.481 Y34.4 E259.6072
G1 X58.515 Y34.4 E260.50635
G1 X58.969 Y34.8 E260.52648
G1 X31.022 Y34.8 E261.456
G1 X30.687 Y35.092 E261.47078
G1 X30.573 Y35.2 E261.476
G1 X59.424 Y35.2 E262.43559
G1 X59.819 Y35.6 E262.45429
G1 X30.18 Y35.6 E263.44008
G1 X30.108 Y35.673 E263.44349
G1 X29.822 Y36 E263.45794
G1 X60.175 Y36 E264.46749
G1 X60.524 Y36.4 E264.48514
G1 X29.472 Y36.4 E265.51794
G1 X29.121 Y36.8 E265.53564
G1 X60.873 Y36.8 E266.59171
G1 X61.222 Y37.2 E266.60937
G1 X28.776 Y37.2 E267.68853
G1 X28.763 Y37.216 E267.68921
G1 X28.47 Y37.6 E267.70528
G1 X61.529 Y37.6 E268.80483
G1 X61.646 Y37.755 E268.81129
G1 X61.81 Y38 E268.82109
G1 X28.199 Y38 E269.939
G1 X27.93 Y38.4 E269.95503
G1 X62.076 Y38.4 E271.09073
G1 X62.343 Y38.8 E271.10673
G1 X27.661 Y38.8 E272.26025
G1 X27.392 Y39.2 E272.27629
G1 X62.61 Y39.2 E273.44764
G1 X62.69 Y39.321 E273.45247
G1 X62.854 Y39.6 E273.46323
G1 X27.146 Y39.6 E274.65088
G1 X26.978 Y39.883 E274.66183
G1 X26.92 Y40 E274.66617
G1 X63.078 Y40 E275.86879
G1 X63.276 Y40.4 E275.88364
G1 X26.722 Y40.4 E277.09943
G1 X26.524 Y40.8 E277.11427
G1 X63.475 Y40.8 E278.34327
G1 X63.673 Y41.2 E278.35811
G1 X26.325 Y41.2 E279.60031
G1 X26.127 Y41.6 E279.61516
G1 X63.872 Y41.6 E280.87056
G1 X63.947 Y41.753 E280.87623
G1 X64.011 Y41.895 E280.88141
G1 X64.054 Y42 E280.88518
G1 X25.951 Y42 E282.1525
G1 X25.786 Y42.4 E282.16689
G1 X64.217 Y42.4 E283.44511
G1 X64.254 Y42.493 E283.44844
G1 X64.358 Y42.8 E283.45922
G1 X25.647 Y42.8 E284.74675
G1 X25.511 Y43.2 E284.7608
G1 X64.494 Y43.2 E286.05738
G1 X64.629 Y43.6 E286.07142
G1 X25.375 Y43.6 E287.37702
G1 X25.238 Y44 E287.39108
G1 X64.764 Y44 E288.70572
G1 X64.847 Y44.246 E288.71435
G1 X64.889 Y44.4 E288.71966
G1 X25.112 Y44.4 E290.04265
G1 X25.001 Y44.8 E290.05646
G1 X64.996 Y44.8 E291.3867
G1 X65.051 Y45.005 E291.39376
G1 X65.091 Y45.2 E291.40038
G1 X24.915 Y45.2 E292.73664
G1 X24.833 Y45.6 E292.75022
G1 X65.171 Y45.6 E294.09187
G1 X65.251 Y46 E294.10543
G1 X24.751 Y46 E295.45247
G1 X24.67 Y46.4 E295.46604
G1 X65.331 Y46.4 E296.81843
G1 X65.412 Y46.8 E296.83201
G1 X24.589 Y46.8 E298.18979
G1 X24.531 Y47.2 E298.20323
G1 X65.475 Y47.2 E299.56503
G1 X65.513 Y47.496 E299.57496
G1 X65.524 Y47.6 E299.57844
G1 X24.487 Y47.6 E300.94333
G1 X24.459 Y48 E300.95667
G1 X65.552 Y48 E302.32343
G1 X65.578 Y48.4 E302.33676
G1 X24.43 Y48.4 E303.70535
G1 X24.402 Y48.8 E303.71868
G1 X65.604 Y48.8 E305.08907
G1 X65.631 Y49.2 E305.1024
G1 X24.374 Y49.2 E306.47462
G1 X24.347 Y49.567 E306.48686
G1 X24.347 Y49.6 E306.48795
G1 X65.656 Y49.6 E307.8619
G1 X65.661 Y49.746 E307.86675
G1 X65.659 Y50 E307.8752
G1 X24.343 Y50 E309.24938
G1 X24.34 Y50.242 E309.25743
G1 X24.345 Y50.385 E309.26219
G1 X24.346 Y50.4 E309.26269
G1 X65.655 Y50.4 E310.63663
G1 X65.628 Y50.8 E310.64996
G1 X24.372 Y50.8 E312.02214
G1 X24.399 Y51.2 E312.03548
G1 X65.602 Y51.2 E313.4059
G1 X65.575 Y51.6 E313.41923
G1 X24.426 Y51.6 E314.78785
G1 X24.453 Y52 E314.80119
G1 X65.548 Y52 E316.16801
G1 X65.521 Y52.4 E316.18135
G1 X24.48 Y52.4 E317.54637
G1 X24.484 Y52.449 E317.54801
G1 X24.53 Y52.8 E317.55978
G1 X65.47 Y52.8 E318.92145
G1 X65.433 Y53.069 E318.93049
G1 X65.406 Y53.2 E318.93493
G1 X24.594 Y53.2 E320.29235
G1 X24.673 Y53.6 E320.30591
G1 X65.326 Y53.6 E321.65803
G1 X65.245 Y54 E321.67161
G1 X24.752 Y54 E323.01841
G1 X24.832 Y54.4 E323.03198
G1 X65.165 Y54.4 E324.37346
G1 X65.084 Y54.8 E324.38703
G1 X24.911 Y54.8 E325.72319
G1 X24.971 Y55.102 E325.73343
G1 X24.997 Y55.2 E325.7368
G1 X64.999 Y55.2 E327.06728
G1 X64.889 Y55.6 E327.08107
G1 X25.106 Y55.6 E328.40426
G1 X25.143 Y55.735 E328.40892
G1 X25.232 Y56 E328.41822
G1 X64.763 Y56 E329.73302
G1 X64.626 Y56.4 E329.74708
G1 X25.368 Y56.4 E331.05281
G1 X25.503 Y56.8 E331.06685
G1 X64.489 Y56.8 E332.36353
G1 X64.352 Y57.2 E332.37759
G1 X25.638 Y57.2 E333.66523
G1 X25.751 Y57.531 E333.67686
G1 X25.779 Y57.6 E333.67934
G1 X64.216 Y57.6 E334.95776
G1 X64.199 Y57.65 E334.95951
G1 X64.054 Y58 E334.97211
G1 X25.942 Y58 E336.23972
G1 X26 Y58.141 E336.24479
G1 X26.127 Y58.4 E336.25439
G1 X63.872 Y58.4 E337.50979
G1 X63.674 Y58.8 E337.52464
G1 X26.324 Y58.8 E338.7669
G1 X26.521 Y59.2 E338.78173
G1 X63.477 Y59.2 E340.0109
G1 X63.278 Y59.6 E340.02575
G1 X26.718 Y59.6 E341.24175
G1 X26.916 Y60 E341.25659
G1 X63.08 Y60 E342.45941
G1 X62.854 Y60.4 E342.47469
G1 X27.144 Y60.4 E343.66241
G1 X27.312 Y60.685 E343.67341
G1 X27.388 Y60.8 E343.678
G1 X62.61 Y60.8 E344.84949
G1 X62.343 Y61.2 E344.86548
G1 X27.656 Y61.2 E346.01918
G1 X27.923 Y61.6 E346.03517
G1 X62.075 Y61.6 E347.17107
G1 X61.808 Y62 E347.18707
G1 X28.191 Y62 E348.30517
G1 X28.364 Y62.258 E348.31551
G1 X28.471 Y62.4 E348.32142
G1 X61.525 Y62.4 E349.4208
G1 X61.22 Y62.8 E349.43753
G1 X28.777 Y62.8 E350.51659
G1 X29.127 Y63.2 E350.53427
G1 X60.876 Y63.2 E351.59024
G1 X60.524 Y63.6 E351.60796
G1 X29.476 Y63.6 E352.64063
G1 X29.826 Y64 E352.6583
G1 X60.171 Y64 E353.66758
G1 X59.819 Y64.4 E353.6853
G1 X30.176 Y64.4 E354.67123
G1 X30.198 Y64.425 E354.67234
G1 X30.546 Y64.773 E354.68871
G1 X30.575 Y64.8 E354.69003
G1 X59.417 Y64.8 E355.64932
G1 X59.342 Y64.875 E355.65285
G1 X58.97 Y65.2 E355.66927
G1 X31.027 Y65.2 E356.59866
G1 X31.484 Y65.6 E356.61886
G1 X58.512 Y65.6 E357.51782
G1 X58.054 Y66 E357.53804
G1 X31.941 Y66 E358.40656
G1 X32.085 Y66.126 E358.41293
G1 X32.218 Y66.235 E358.41865
G1 X32.435 Y66.4 E358.42771
G1 X57.567 Y66.4 E359.26361
G1 X57.24 Y66.646 E359.27722
G1 X57.009 Y66.8 E359.28645
G1 X32.996 Y66.8 E360.08513
G1 X33.59 Y67.2 E360.10895
G1 X56.409 Y67.2 E360.86791
G1 X55.81 Y67.6 E360.89187
G1 X34.184 Y67.6 E361.61115
G1 X34.302 Y67.679 E361.61587
G1 X34.448 Y67.77 E361.62159
G1 X34.851 Y68 E361.63703
G1 X55.148 Y68 E362.31211
G1 X55.106 Y68.025 E362.31373
