;FLAVOR:Marlin
;TIME:13858
;Filament used: 11.4651m
;Layer height: 0.2
;Generated with Cura_SteamEngine 3.6.0
M104 S200
M105
M109 S200
M82 ;absolute extrusion mode
G28 ;Home
G1 Z15.0 F6000 ;Move the platform down 15mm
;Prime the extruder
G92 E0
G1 F200 E3
G92 E0
G92 E0
G1 F1500 E-6.5
;LAYER_COUNT:225
;LAYER:-6
M107
G0 F2400 X22.454 Y12.059 Z0.36
;TYPE:SUPPORT-INTERFACE
G1 F1500 E0
G1 F900 X22.593 Y11.809 E0.03425
G1 X22.745 Y11.571 E0.06806
G1 X22.935 Y11.315 E0.10624
G1 X23.356 Y10.833 E0.18286
G1 X23.745 Y10.487 E0.2452
G1 X23.96 Y10.32 E0.2778
G1 X24.191 Y10.164 E0.31117
G1 X24.459 Y10.006 E0.34842
G1 X24.716 Y9.876 E0.38291
G1 X24.986 Y9.76 E0.41809
G1 X25.242 Y9.668 E0.45067
G1 X25.534 Y9.584 E0.48705
G1 X25.795 Y9.528 E0.51901
G1 X26.115 Y9.48 E0.55775
G1 X26.583 Y9.444 E0.61396
G1 X26.775 Y9.437 E0.63696
G1 X40.474 Y9.441 E2.27723
G1 X40.851 Y9.465 E2.32246
G1 X41.149 Y9.502 E2.35842
G1 X41.433 Y9.557 E2.39306
G1 X41.724 Y9.633 E2.42907
G1 X41.982 Y9.717 E2.46156
G1 X42.18 Y9.795 E2.48704
G1 X42.817 Y10.003 E2.56727
G1 X43.488 Y10.132 E2.64909
G1 X44.17 Y10.174 E2.7309
G1 X44.851 Y10.13 E2.81261
G1 X45.524 Y9.999 E2.89471
G1 X45.663 Y9.951 E2.91232
G1 X45.666 Y9.963 E2.9138
G1 X46.504 Y9.664 E3.02033
G1 X46.783 Y9.584 E3.05508
G1 X47.044 Y9.528 E3.08705
G1 X47.364 Y9.48 E3.12579
G1 X47.832 Y9.444 E3.18199
G1 X48.024 Y9.437 E3.205
G1 X61.723 Y9.441 E4.84527
G1 X62.1 Y9.465 E4.8905
G1 X62.398 Y9.502 E4.92646
G1 X62.682 Y9.557 E4.96109
G1 X62.973 Y9.633 E4.9971
G1 X63.231 Y9.717 E5.02959
G1 X63.51 Y9.828 E5.06555
G1 X63.768 Y9.95 E5.09972
G1 X64.027 Y10.094 E5.1352
G1 X64.246 Y10.233 E5.16626
G1 X64.512 Y10.431 E5.20596
G1 X64.994 Y10.852 E5.28259
G1 X65.34 Y11.241 E5.34493
G1 X65.507 Y11.456 E5.37752
G1 X65.663 Y11.687 E5.4109
G1 X65.821 Y11.955 E5.44815
G1 X65.953 Y12.214 E5.48296
G1 X66.056 Y12.453 E5.51412
G1 X66.161 Y12.745 E5.55127
G1 X66.242 Y13.027 E5.58641
G1 X66.298 Y13.281 E5.61755
G1 X66.347 Y13.611 E5.65749
G1 X66.383 Y14.072 E5.71286
G1 X66.39 Y14.257 E5.73503
G1 X66.386 Y86.47 E14.38156
G1 X66.364 Y86.833 E14.4251
G1 X66.325 Y87.147 E14.46299
G1 X66.27 Y87.429 E14.49739
G1 X66.194 Y87.72 E14.5334
G1 X66.11 Y87.978 E14.56589
G1 X65.999 Y88.257 E14.60184
G1 X65.877 Y88.515 E14.63602
G1 X65.733 Y88.774 E14.6715
G1 X65.594 Y88.993 E14.70256
G1 X65.396 Y89.259 E14.74226
G1 X64.975 Y89.741 E14.81889
G1 X64.588 Y90.085 E14.88089
G1 X64.371 Y90.254 E14.91382
G1 X64.14 Y90.41 E14.9472
G1 X63.872 Y90.568 E14.98445
G1 X63.615 Y90.698 E15.01893
G1 X63.346 Y90.813 E15.05396
G1 X63.089 Y90.906 E15.08669
G1 X62.797 Y90.99 E15.12307
G1 X62.536 Y91.046 E15.15503
G1 X62.216 Y91.094 E15.19378
G1 X61.748 Y91.13 E15.24998
G1 X61.556 Y91.137 E15.27298
G1 X47.857 Y91.133 E16.91325
G1 X47.48 Y91.109 E16.95848
G1 X47.182 Y91.072 E16.99444
G1 X46.898 Y91.017 E17.02908
G1 X46.607 Y90.941 E17.06509
G1 X45.801 Y90.677 E17.16664
G1 X45.798 Y90.686 E17.16778
G1 X45.162 Y90.56 E17.24541
G1 X44.48 Y90.513 E17.32726
G1 X43.798 Y90.553 E17.40906
G1 X43.124 Y90.679 E17.49116
G1 X42.326 Y90.95 E17.59207
G1 X42.191 Y91.009 E17.60971
G1 X41.91 Y91.11 E17.64547
G1 X41.631 Y91.19 E17.68022
G1 X41.37 Y91.246 E17.71218
G1 X41.05 Y91.294 E17.75093
G1 X40.582 Y91.33 E17.80713
G1 X40.39 Y91.337 E17.83013
G1 X26.525 Y91.333 E19.49028
G1 X26.148 Y91.309 E19.53551
G1 X25.85 Y91.272 E19.57147
G1 X25.566 Y91.217 E19.60611
G1 X25.275 Y91.141 E19.64212
G1 X25.015 Y91.056 E19.67487
G1 X24.738 Y90.946 E19.71056
G1 X24.479 Y90.823 E19.74489
G1 X24.219 Y90.679 E19.78048
G1 X24.002 Y90.541 E19.81127
G1 X23.736 Y90.343 E19.85097
G1 X23.253 Y89.921 E19.92777
G1 X23.042 Y89.702 E19.96418
G1 X22.791 Y89.416 E20.00974
G1 X22.624 Y89.201 E20.04234
G1 X22.467 Y88.968 E20.07598
G1 X22.31 Y88.702 E20.11297
G1 X22.178 Y88.441 E20.14799
G1 X22.064 Y88.175 E20.18264
G1 X21.972 Y87.919 E20.21521
G1 X21.888 Y87.627 E20.25159
G1 X21.832 Y87.366 E20.28355
G1 X21.784 Y87.046 E20.3223
G1 X21.747 Y86.568 E20.3797
G1 X21.741 Y86.4 E20.39983
G1 X21.745 Y70.349 E22.32172
G1 X21.768 Y69.982 E22.36575
G1 X21.808 Y69.667 E22.40377
G1 X21.848 Y69.452 E22.42996
G1 X21.941 Y68.475 E22.54747
G1 X21.945 Y14.104 E29.05766
G1 X21.969 Y13.727 E29.10289
G1 X22.006 Y13.429 E29.13885
G1 X22.061 Y13.145 E29.17348
G1 X22.137 Y12.854 E29.2095
G1 X22.221 Y12.596 E29.24199
G1 X22.332 Y12.317 E29.27794
G1 X22.454 Y12.059 E29.31211
G0 F2400 X22.4 Y12.173
G1 F900 X22.4 Y88.854 E38.49362
G0 F2400 X24 Y90.539
G1 F900 X24 Y10.292 E48.10212
G0 F2400 X25.6 Y9.569
G1 F900 X25.6 Y91.223 E57.87908
G0 F2400 X27.2 Y91.333
G1 F900 X27.2 Y9.438 E67.6849
G0 F2400 X28.8 Y9.438
G1 F900 X28.8 Y91.333 E77.49072
G0 F2400 X30.4 Y91.334
G1 F900 X30.4 Y9.439 E87.29654
G0 F2400 X32 Y9.439
G1 F900 X32 Y91.334 E97.10236
G0 F2400 X33.6 Y91.335
G1 F900 X33.6 Y9.439 E106.9083
G0 F2400 X35.2 Y9.44
G1 F900 X35.2 Y91.335 E116.71412
G0 F2400 X36.8 Y91.335
G1 F900 X36.8 Y9.44 E126.51994
G0 F2400 X38.4 Y9.441
G1 F900 X38.4 Y91.336 E136.32576
G0 F2400 X40 Y91.336
G1 F900 X40 Y9.441 E146.13158
G0 F2400 X41.6 Y9.601
G1 F900 X41.6 Y91.197 E155.90159
G0 F2400 X43.2 Y90.665
G1 F900 X43.2 Y10.077 E165.55092
G0 F2400 X44.8 Y10.133
G1 F900 X44.8 Y90.535 E175.17797
G0 F2400 X46.4 Y90.873
G1 F900 X46.4 Y9.701 E184.89722
G0 F2400 X48 Y9.437
G1 F900 X48 Y91.133 E194.67921
G0 F2400 X49.6 Y91.133
G1 F900 X49.6 Y9.438 E204.46109
G0 F2400 X51.2 Y9.438
G1 F900 X51.2 Y91.133 E214.24296
G0 F2400 X52.8 Y91.134
G1 F900 X52.8 Y9.439 E224.02483
G0 F2400 X54.4 Y9.439
G1 F900 X54.4 Y91.134 E233.8067
G0 F2400 X56 Y91.135
G1 F900 X56 Y9.44 E243.58857
G0 F2400 X57.6 Y9.44
G1 F900 X57.6 Y91.135 E253.37045
G0 F2400 X59.2 Y91.136
G1 F900 X59.2 Y9.441 E263.15232
G0 F2400 X60.8 Y9.441
G1 F900 X60.8 Y91.136 E272.93419
G0 F2400 X62.4 Y91.067
G1 F900 X62.4 Y9.503 E282.70038
G0 F2400 X64 Y10.079
G1 F900 X64 Y90.493 E292.32887
G0 F2400 X65.6 Y88.984
G1 F900 X65.6 Y11.594 E301.59527
G0 F2400 X65.82 Y11.954
;TIME_ELAPSED:177.527890
;LAYER:-5
G0 X65.82 Y11.954 Z0.66
;TYPE:SUPPORT
G1 F900 X65.661 Y11.687 E301.62628
G1 X65.506 Y11.456 E301.65404
G1 X65.338 Y11.24 E301.68134
G1 X64.993 Y10.851 E301.73322
G1 X64.511 Y10.43 E301.79708
G1 X64.244 Y10.233 E301.83019
G1 X64.026 Y10.093 E301.85604
G1 X63.767 Y9.949 E301.88561
G1 X63.621 Y9.881 E301.90168
G1 X65.951 Y12.211 E302.23047
G1 X66.055 Y12.452 E302.25666
G1 X66.159 Y12.744 E302.28759
G1 X66.241 Y13.027 E302.31699
G1 X66.296 Y13.28 E302.34282
G1 X66.345 Y13.611 E302.37621
G1 X66.381 Y14.055 E302.42066
G1 X61.77 Y9.444 E303.07132
G1 X61.721 Y9.441 E303.07622
G1 X60.352 Y9.441 E303.21282
G1 X66.389 Y15.477 E304.06463
G1 X66.389 Y16.892 E304.20582
G1 X58.938 Y9.44 E305.25731
G1 X57.523 Y9.44 E305.3985
G1 X66.389 Y18.306 E306.64958
G1 X66.389 Y19.72 E306.79067
G1 X56.108 Y9.439 E308.24143
G1 X54.694 Y9.439 E308.38252
G1 X66.389 Y21.134 E310.03281
G1 X66.389 Y22.548 E310.1739
G1 X53.279 Y9.439 E312.0238
G1 X51.864 Y9.438 E312.16499
G1 X66.389 Y23.963 E314.21462
G1 X66.389 Y25.377 E314.35571
G1 X50.45 Y9.438 E316.60487
G1 X49.035 Y9.437 E316.74606
G1 X66.389 Y26.791 E319.1949
G1 X66.389 Y28.205 E319.33599
G1 X47.642 Y9.458 E321.98139
G1 X47.363 Y9.479 E322.00931
G1 X47.043 Y9.528 E322.04161
G1 X46.782 Y9.584 E322.06825
G1 X46.502 Y9.664 E322.09731
G1 X46.451 Y9.682 E322.1027
G1 X66.388 Y29.619 E324.91603
G1 X66.388 Y31.033 E325.05712
G1 X45.382 Y10.026 E328.02136
G1 X44.85 Y10.13 E328.07545
G1 X44.169 Y10.174 E328.14354
G1 X44.112 Y10.171 E328.14924
G1 X66.388 Y32.447 E331.29262
G1 X66.388 Y33.861 E331.43371
G1 X42.391 Y9.864 E334.81995
G1 X42.178 Y9.794 E334.84232
G1 X41.98 Y9.717 E334.86352
G1 X41.722 Y9.632 E334.89062
G1 X41.432 Y9.557 E334.92051
G1 X41.147 Y9.502 E334.94947
G1 X40.85 Y9.464 E334.97935
G1 X40.559 Y9.446 E335.00844
G1 X66.388 Y35.276 E338.65326
G1 X66.388 Y36.69 E338.79435
G1 X39.139 Y9.441 E342.63948
G1 X37.724 Y9.44 E342.78067
G1 X66.388 Y38.104 E346.82547
G1 X66.388 Y39.518 E346.96656
G1 X36.31 Y9.44 E351.21089
G1 X34.895 Y9.439 E351.35208
G1 X66.388 Y40.932 E355.79608
G1 X66.388 Y42.347 E355.93727
G1 X33.48 Y9.439 E360.58094
G1 X32.066 Y9.439 E360.72203
G1 X66.388 Y43.76 E365.56517
G1 X66.388 Y45.174 E365.70626
G1 X30.651 Y9.438 E370.74906
G1 X29.237 Y9.438 E370.89015
G1 X66.388 Y46.589 E376.13256
G1 X66.388 Y48.003 E376.27365
G1 X27.822 Y9.437 E381.71573
G1 X26.773 Y9.437 E381.8204
G1 X26.582 Y9.443 E381.83947
G1 X26.426 Y9.456 E381.85509
G1 X66.388 Y49.417 E387.49408
G1 X66.388 Y50.831 E387.63517
G1 X25.229 Y9.673 E393.44308
G1 X24.985 Y9.76 E393.46893
G1 X24.715 Y9.876 E393.49825
G1 X24.458 Y10.006 E393.52699
G1 X24.263 Y10.121 E393.54958
G1 X66.388 Y52.245 E399.4938
G1 X66.388 Y53.66 E399.63499
G1 X23.464 Y10.736 E405.69203
G1 X23.355 Y10.832 E405.70652
G1 X22.934 Y11.315 E405.77045
G1 X22.804 Y11.49 E405.79221
G1 X66.388 Y55.074 E411.94238
G1 X66.388 Y56.488 E412.08347
G1 X22.297 Y12.398 E418.30512
G1 X22.22 Y12.596 E418.32631
G1 X22.136 Y12.853 E418.35329
G1 X22.06 Y13.145 E418.3834
G1 X22.005 Y13.429 E418.41226
G1 X21.994 Y13.509 E418.42032
G1 X66.387 Y57.902 E424.68465
G1 X66.387 Y59.316 E424.82574
G1 X21.943 Y14.872 E431.09727
G1 X21.943 Y16.286 E431.23836
G1 X66.387 Y60.73 E437.50989
G1 X66.387 Y62.144 E437.65098
G1 X21.943 Y17.701 E443.92244
G1 X21.943 Y19.115 E444.06353
G1 X66.387 Y63.559 E450.33505
G1 X66.387 Y64.973 E450.47614
G1 X21.943 Y20.529 E456.74767
G1 X21.943 Y21.943 E456.88876
G1 X66.387 Y66.387 E463.16029
G1 X66.387 Y67.801 E463.30138
G1 X21.943 Y23.357 E469.57291
G1 X21.943 Y24.772 E469.7141
G1 X66.387 Y69.215 E475.98555
G1 X66.387 Y70.63 E476.12674
G1 X21.942 Y26.185 E482.39841
G1 X21.942 Y27.599 E482.5395
G1 X66.386 Y72.043 E488.81103
G1 X66.386 Y73.457 E488.95212
G1 X21.942 Y29.014 E495.22358
G1 X21.942 Y30.428 E495.36467
G1 X66.386 Y74.872 E501.6362
G1 X66.386 Y76.286 E501.77729
G1 X21.942 Y31.842 E508.04882
G1 X21.942 Y33.256 E508.1899
G1 X66.386 Y77.7 E514.46143
G1 X66.386 Y79.114 E514.60252
G1 X21.942 Y34.67 E520.87405
G1 X21.942 Y36.084 E521.01514
G1 X66.386 Y80.528 E527.28667
G1 X66.386 Y81.943 E527.42786
G1 X21.942 Y37.498 E533.69946
G1 X21.942 Y38.912 E533.84055
G1 X66.386 Y83.357 E540.11215
G1 X66.386 Y84.771 E540.25324
G1 X21.942 Y40.327 E546.52476
G1 X21.942 Y41.741 E546.66585
G1 X66.386 Y86.185 E552.93738
G1 X66.386 Y86.469 E552.96572
G1 X66.364 Y86.832 E553.00201
G1 X66.325 Y87.146 E553.03358
G1 X66.27 Y87.428 E553.06225
G1 X66.258 Y87.471 E553.0667
G1 X21.942 Y43.155 E559.32017
G1 X21.942 Y44.569 E559.46126
G1 X65.88 Y88.507 E565.66138
G1 X65.732 Y88.773 E565.69176
G1 X65.594 Y88.992 E565.71758
G1 X65.396 Y89.258 E565.75067
G1 X65.312 Y89.354 E565.7634
G1 X21.942 Y45.983 E571.88345
G1 X21.941 Y47.397 E572.02454
G1 X64.609 Y90.064 E578.04538
G1 X64.587 Y90.084 E578.04835
G1 X64.37 Y90.253 E578.07579
G1 X64.14 Y90.409 E578.10352
G1 X63.872 Y90.566 E578.13451
G1 X63.755 Y90.625 E578.14759
G1 X21.941 Y48.811 E584.048
G1 X21.941 Y50.225 E584.18909
G1 X62.72 Y91.004 E589.94344
G1 X62.535 Y91.044 E589.96233
G1 X62.216 Y91.093 E589.99453
G1 X61.748 Y91.129 E590.04137
G1 X61.556 Y91.136 E590.06054
G1 X61.436 Y91.135 E590.07251
G1 X21.941 Y51.64 E595.64568
G1 X21.941 Y53.054 E595.78677
G1 X60.022 Y91.135 E601.16041
G1 X58.607 Y91.134 E601.3016
G1 X21.941 Y54.468 E606.47557
G1 X21.941 Y55.882 E606.61666
G1 X57.193 Y91.134 E611.5911
G1 X55.778 Y91.134 E611.73229
G1 X21.941 Y57.296 E616.50712
G1 X21.94 Y58.71 E616.64821
G1 X54.363 Y91.133 E621.22345
G1 X52.949 Y91.133 E621.36454
G1 X21.94 Y60.124 E625.74024
G1 X21.94 Y61.538 E625.88133
G1 X51.534 Y91.132 E630.05737
G1 X50.119 Y91.131 E630.19856
G1 X21.94 Y62.953 E634.17485
G1 X21.94 Y64.367 E634.31594
G1 X48.705 Y91.131 E638.0927
G1 X47.856 Y91.131 E638.17741
G1 X47.48 Y91.108 E638.215
G1 X47.236 Y91.077 E638.23954
G1 X21.94 Y65.781 E641.80908
G1 X21.94 Y67.195 E641.95017
G1 X45.338 Y90.593 E645.25188
G1 X45.161 Y90.559 E645.26986
G1 X44.479 Y90.512 E645.33807
G1 X43.878 Y90.547 E645.39814
G1 X21.928 Y68.597 E648.49553
G1 X21.847 Y69.451 E648.58112
G1 X21.807 Y69.666 E648.60294
G1 X21.782 Y69.865 E648.62295
G1 X42.729 Y90.812 E651.5788
G1 X42.325 Y90.949 E651.62137
G1 X42.19 Y91.008 E651.63607
G1 X41.91 Y91.109 E651.66577
G1 X41.677 Y91.175 E651.68993
G1 X21.744 Y71.241 E654.50276
G1 X21.744 Y72.655 E654.64385
G1 X40.423 Y91.334 E657.27966
G1 X40.39 Y91.336 E657.28296
G1 X39.009 Y91.335 E657.42076
G1 X21.743 Y74.069 E659.85718
G1 X21.743 Y75.483 E659.99827
G1 X37.594 Y91.334 E662.23501
G1 X36.18 Y91.334 E662.3761
G1 X21.742 Y76.897 E664.41339
G1 X21.742 Y78.311 E664.55448
G1 X34.765 Y91.334 E666.39217
G1 X33.351 Y91.334 E666.53326
G1 X21.742 Y79.725 E668.17141
G1 X21.742 Y81.139 E668.3125
G1 X31.936 Y91.333 E669.75098
G1 X30.522 Y91.333 E669.89207
G1 X21.742 Y82.553 E671.13103
G1 X21.741 Y83.966 E671.27202
G1 X29.107 Y91.332 E672.31144
G1 X27.693 Y91.332 E672.45253
G1 X21.741 Y85.381 E673.29235
G1 X21.741 Y86.399 E673.39393
G1 X21.747 Y86.567 E673.4107
G1 X21.766 Y86.819 E673.43592
G1 X26.261 Y91.315 E674.07028
G1 X26.148 Y91.307 E674.08158
G1 X25.849 Y91.271 E674.11163
G1 X25.566 Y91.216 E674.1404
G1 X25.274 Y91.14 E674.1705
G1 X25.014 Y91.055 E674.1978
G1 X24.737 Y90.945 E674.22754
G1 X24.478 Y90.822 E674.25615
G1 X24.219 Y90.678 E674.28572
G1 X24.195 Y90.663 E674.28854
G1 X22.419 Y88.887 E674.53915
G0 F2400 X22.466 Y88.967
G1 F900 X22.623 Y89.2 E674.56719
G1 X22.791 Y89.415 E674.59441
G1 X23.042 Y89.701 E674.63238
G1 X23.253 Y89.92 E674.66273
G1 X23.736 Y90.342 E674.72672
G1 X24.002 Y90.54 E674.75981
G1 X24.195 Y90.663 E674.78265
G0 F2400 X42.056 Y9.53
;TIME_ELAPSED:429.078652
;LAYER:-4
G0 X42.056 Y9.53 Z0.86
;TYPE:SUPPORT-INTERFACE
G1 F1200 X41.771 Y9.437 E674.79262
G1 X41.476 Y9.36 E674.80276
G1 X41.181 Y9.303 E674.81275
G1 X40.878 Y9.266 E674.8229
G1 X40.474 Y9.24 E674.83637
G1 X26.768 Y9.236 E675.29223
G1 X26.569 Y9.243 E675.29885
G1 X26.097 Y9.279 E675.3146
G1 X25.755 Y9.33 E675.3261
G1 X25.481 Y9.39 E675.33543
G1 X25.196 Y9.471 E675.34528
G1 X24.908 Y9.575 E675.35547
G1 X24.85 Y9.6 E675.35757
G1 X42.233 Y9.6 E675.93573
G1 X42.248 Y9.606 E675.93627
G1 X42.867 Y9.808 E675.95792
G1 X43.513 Y9.932 E675.9798
G1 X44.169 Y9.972 E676.00166
G1 X44.826 Y9.93 E676.02356
G1 X45.472 Y9.805 E676.04544
G1 X45.796 Y9.693 E676.05684
G0 F2400 X63.305 Y9.53
G1 F1200 X63.02 Y9.437 E676.06681
G1 X62.725 Y9.36 E676.07696
G1 X62.43 Y9.303 E676.08695
G1 X62.127 Y9.266 E676.0971
G1 X61.723 Y9.24 E676.11057
G1 X48.017 Y9.236 E676.56643
G1 X47.818 Y9.243 E676.57305
G1 X47.346 Y9.279 E676.5888
G1 X47.004 Y9.33 E676.6003
G1 X46.73 Y9.39 E676.60963
G1 X46.44 Y9.473 E676.61966
G1 X46.085 Y9.6 E676.6322
G1 X63.482 Y9.6 E677.21083
G1 X63.575 Y9.637 E677.21416
G1 X63.876 Y9.78 E677.22524
G1 X64.124 Y9.918 E677.23468
G1 X64.254 Y10 E677.23979
G1 X24.077 Y10 E678.57608
G1 X23.84 Y10.159 E678.58558
G1 X23.604 Y10.343 E678.59553
G1 X23.54 Y10.4 E678.59838
G1 X64.783 Y10.4 E679.97013
G1 X65.136 Y10.709 E679.98573
G1 X65.217 Y10.8 E679.98978
G1 X23.118 Y10.8 E681.39
G1 X22.787 Y11.178 E681.40671
G1 X22.771 Y11.2 E681.40762
G1 X65.562 Y11.2 E682.83085
G1 X65.667 Y11.335 E682.83654
G1 X65.842 Y11.595 E682.84696
G0 F2400 X65.845 Y11.6
G1 F1200 X22.488 Y11.6 E684.28902
G1 X22.425 Y11.698 E684.2929
G1 X22.285 Y11.95 E684.30249
G1 X22.262 Y12 E684.30432
G1 X66.07 Y12 E685.76138
G1 X66.129 Y12.118 E685.76576
G1 X66.249 Y12.396 E685.77584
G0 F2400 X66.251 Y12.4
G1 F1200 X22.084 Y12.4 E687.24484
G1 X22.035 Y12.521 E687.24918
G1 X21.944 Y12.8 E687.25894
G1 X66.387 Y12.8 E688.73712
G1 X66.435 Y12.97 E688.74299
G1 X66.486 Y13.2 E688.75083
G1 X21.846 Y13.2 E690.23556
G1 X21.807 Y13.402 E690.2424
G1 X21.783 Y13.6 E690.24904
G1 X66.548 Y13.6 E691.73793
G1 X66.579 Y14 E691.75127
G1 X21.752 Y14 E693.24222
G1 X21.745 Y14.103 E693.24566
G1 X21.745 Y14.4 E693.25554
G1 X66.589 Y14.4 E694.74705
G1 X66.589 Y14.8 E694.76036
G1 X21.745 Y14.8 E696.25188
G1 X21.745 Y15.2 E696.26518
G1 X66.589 Y15.2 E697.7567
G1 X66.589 Y15.6 E697.77
G1 X21.745 Y15.6 E699.26152
G1 X21.745 Y16 E699.27482
G1 X66.589 Y16 E700.76634
G1 X66.589 Y16.4 E700.77964
G1 X21.745 Y16.4 E702.27116
G1 X21.745 Y16.8 E702.28447
G1 X66.589 Y16.8 E703.77598
G1 X66.589 Y17.2 E703.78929
