;FLAVOR:Marlin
;TIME:15334
;Filament used: 11.2165m
;Layer height: 0.2
;Generated with Cura_SteamEngine 3.6.0
M104 S200
M105
M109 S200
M82 ;absolute extrusion mode
G28 ;Home
G1 Z15.0 F6000 ;Move the platform down 15mm
;Prime the extruder
G92 E0
G1 F200 E3
G92 E0
G92 E0
G1 F1500 E-6.5
;LAYER_COUNT:243
;LAYER:-6
M107
G0 F2400 X11.963 Y8.744 Z0.36
;TYPE:SUPPORT-INTERFACE
G1 F1500 E0
G1 F900 X12.153 Y8.533 E0.034
G1 X12.569 Y8.122 E0.10402
G1 X12.774 Y7.94 E0.13684
G1 X12.913 Y7.83 E0.15807
G1 X13.365 Y7.503 E0.22487
G1 X13.605 Y7.348 E0.25907
G1 X13.752 Y7.266 E0.27923
G1 X14.433 Y6.926 E0.37037
G1 X14.71 Y6.82 E0.40588
G1 X15.253 Y6.646 E0.47415
G1 X15.552 Y6.567 E0.51118
G1 X15.707 Y6.537 E0.53009
G1 X16.28 Y6.448 E0.59952
G1 X16.431 Y6.43 E0.61773
G1 X16.962 Y6.402 E0.68139
G1 X74.807 Y6.4 E7.60755
G1 X75.31 Y6.428 E7.66787
G1 X75.608 Y6.465 E7.70383
G1 X75.892 Y6.52 E7.73846
G1 X76.183 Y6.596 E7.77448
G1 X76.441 Y6.68 E7.80696
G1 X76.72 Y6.791 E7.84292
G1 X76.978 Y6.913 E7.87709
G1 X77.236 Y7.056 E7.91241
G1 X77.456 Y7.196 E7.94363
G1 X77.722 Y7.394 E7.98334
G1 X78.204 Y7.815 E8.05997
G1 X78.55 Y8.204 E8.1223
G1 X78.717 Y8.419 E8.1549
G1 X78.873 Y8.65 E8.18827
G1 X79.031 Y8.918 E8.22553
G1 X79.166 Y9.184 E8.26124
G1 X79.264 Y9.411 E8.29085
G1 X79.372 Y9.711 E8.32903
G1 X79.453 Y9.993 E8.36416
G1 X79.508 Y10.245 E8.39504
G1 X79.557 Y10.574 E8.43487
G1 X79.592 Y11.021 E8.48855
G1 X79.6 Y11.235 E8.5142
G1 X79.596 Y88.933 E17.81748
G1 X79.572 Y89.31 E17.86271
G1 X79.535 Y89.605 E17.89831
G1 X79.479 Y89.895 E17.93368
G1 X79.406 Y90.177 E17.96856
G1 X79.32 Y90.441 E18.0018
G1 X79.209 Y90.72 E18.03775
G1 X79.087 Y90.978 E18.07193
G1 X78.944 Y91.236 E18.10725
G1 X78.801 Y91.461 E18.13917
G1 X78.606 Y91.723 E18.17827
G1 X78.315 Y92.063 E18.23186
G1 X78.185 Y92.204 E18.25482
G1 X77.798 Y92.548 E18.31682
G1 X77.581 Y92.717 E18.34975
G1 X77.35 Y92.873 E18.38313
G1 X77.082 Y93.031 E18.42038
G1 X76.825 Y93.161 E18.45487
G1 X76.556 Y93.276 E18.48989
G1 X76.299 Y93.369 E18.52262
G1 X76.007 Y93.453 E18.559
G1 X75.746 Y93.509 E18.59096
G1 X75.426 Y93.557 E18.62971
G1 X74.958 Y93.593 E18.68591
G1 X74.766 Y93.6 E18.70891
G1 X16.916 Y93.596 E25.63567
G1 X16.561 Y93.58 E25.67822
G1 X16.242 Y93.548 E25.71661
G1 X15.674 Y93.456 E25.7855
G1 X15.402 Y93.397 E25.81883
G1 X15.211 Y93.343 E25.8426
G1 X14.515 Y93.107 E25.93059
G1 X14.24 Y92.985 E25.96662
G1 X13.718 Y92.716 E26.03693
G1 X13.478 Y92.574 E26.07032
G1 X13.337 Y92.479 E26.09068
G1 X12.862 Y92.131 E26.16118
G1 X12.636 Y91.944 E26.1963
G1 X12.122 Y91.431 E26.28326
G1 X11.941 Y91.228 E26.31582
G1 X11.827 Y91.083 E26.33791
G1 X11.499 Y90.629 E26.40497
G1 X11.341 Y90.383 E26.43998
G1 X11.266 Y90.248 E26.45847
G1 X10.926 Y89.567 E26.54961
G1 X10.818 Y89.285 E26.58576
G1 X10.595 Y88.568 E26.67567
G1 X10.533 Y88.275 E26.71153
G1 X10.45 Y87.738 E26.77659
G1 X10.413 Y87.331 E26.82553
G1 X10.402 Y87.043 E26.86004
G1 X10.4 Y13.035 E35.72149
G1 X10.421 Y12.535 E35.78142
G1 X10.435 Y12.384 E35.79957
G1 X10.545 Y11.669 E35.88619
G1 X10.602 Y11.406 E35.91841
G1 X10.655 Y11.22 E35.94157
G1 X10.837 Y10.664 E36.01162
G1 X10.934 Y10.414 E36.04373
G1 X11.015 Y10.24 E36.06671
G1 X11.359 Y9.586 E36.15519
G1 X11.521 Y9.337 E36.19076
G1 X11.963 Y8.744 E36.27932
G0 F2400 X12.8 Y7.919
G1 F900 X12.8 Y92.079 E46.35634
G0 F2400 X14.4 Y93.055
G1 F900 X14.4 Y6.942 E56.66721
G0 F2400 X16 Y6.491
G1 F900 X16 Y93.508 E67.08632
G0 F2400 X17.6 Y93.596
G1 F900 X17.6 Y6.401 E77.52674
G0 F2400 X19.2 Y6.401
G1 F900 X19.2 Y93.596 E87.96716
G0 F2400 X20.8 Y93.596
G1 F900 X20.8 Y6.401 E98.40759
G0 F2400 X22.4 Y6.401
G1 F900 X22.4 Y93.596 E108.84801
G0 F2400 X24 Y93.596
G1 F900 X24 Y6.401 E119.28843
G0 F2400 X25.6 Y6.401
G1 F900 X25.6 Y93.596 E129.72885
G0 F2400 X27.2 Y93.596
G1 F900 X27.2 Y6.401 E140.16928
G0 F2400 X28.8 Y6.401
G1 F900 X28.8 Y93.596 E150.6097
G0 F2400 X30.4 Y93.596
G1 F900 X30.4 Y6.401 E161.05012
G0 F2400 X32 Y6.401
G1 F900 X32 Y93.597 E171.49067
G0 F2400 X33.6 Y93.597
G1 F900 X33.6 Y6.401 E181.93121
G0 F2400 X35.2 Y6.401
G1 F900 X35.2 Y93.597 E192.37175
G0 F2400 X36.8 Y93.597
G1 F900 X36.8 Y6.401 E202.81229
G0 F2400 X38.4 Y6.401
G1 F900 X38.4 Y93.597 E213.25284
G0 F2400 X40 Y93.597
G1 F900 X40 Y6.401 E223.69338
G0 F2400 X41.6 Y6.401
G1 F900 X41.6 Y93.597 E234.13392
G0 F2400 X43.2 Y93.597
G1 F900 X43.2 Y6.401 E244.57446
G0 F2400 X44.8 Y6.401
G1 F900 X44.8 Y93.597 E255.01501
G0 F2400 X46.4 Y93.598
G1 F900 X46.4 Y6.4 E265.45579
G0 F2400 X48 Y6.4
G1 F900 X48 Y93.598 E275.89657
G0 F2400 X49.6 Y93.598
G1 F900 X49.6 Y6.4 E286.33735
G0 F2400 X51.2 Y6.4
G1 F900 X51.2 Y93.598 E296.77814
G0 F2400 X52.8 Y93.598
G1 F900 X52.8 Y6.4 E307.21892
G0 F2400 X54.4 Y6.4
G1 F900 X54.4 Y93.598 E317.6597
G0 F2400 X56 Y93.598
G1 F900 X56 Y6.4 E328.10048
G0 F2400 X57.6 Y6.4
G1 F900 X57.6 Y93.598 E338.54126
G0 F2400 X59.2 Y93.598
G1 F900 X59.2 Y6.4 E348.98205
G0 F2400 X60.8 Y6.4
G1 F900 X60.8 Y93.599 E359.42295
G0 F2400 X62.4 Y93.599
G1 F900 X62.4 Y6.4 E369.86385
G0 F2400 X64 Y6.4
G1 F900 X64 Y93.599 E380.30475
G0 F2400 X65.6 Y93.599
G1 F900 X65.6 Y6.4 E390.74565
G0 F2400 X67.2 Y6.4
G1 F900 X67.2 Y93.599 E401.18656
G0 F2400 X68.8 Y93.599
G1 F900 X68.8 Y6.4 E411.62746
G0 F2400 X70.4 Y6.4
G1 F900 X70.4 Y93.599 E422.06836
G0 F2400 X72 Y93.599
G1 F900 X72 Y6.4 E432.50926
G0 F2400 X73.6 Y6.4
G1 F900 X73.6 Y93.599 E442.95016
G0 F2400 X75.2 Y93.575
G1 F900 X75.2 Y6.422 E453.38556
G0 F2400 X76.8 Y6.829
G1 F900 X76.8 Y93.172 E463.72396
G0 F2400 X78.4 Y91.964
G1 F900 X78.4 Y8.036 E473.77321
G0 F2400 X11.2 Y9.888
G1 F900 X11.2 Y90.115 E483.37931
G0 F2400 X75.799 Y6.502
;TIME_ELAPSED:283.689586
;LAYER:-5
G0 X75.799 Y6.502 Z0.66
;TYPE:SUPPORT
G1 F900 X75.607 Y6.465 E483.39882
G1 X75.308 Y6.428 E483.42888
G1 X74.806 Y6.4 E483.47905
G1 X74.282 Y6.4 E483.53133
G1 X79.599 Y11.717 E484.28162
G1 X79.599 Y13.131 E484.42271
G1 X72.868 Y6.4 E485.37252
G1 X71.454 Y6.4 E485.51361
G1 X79.599 Y14.545 E486.66296
G1 X79.599 Y15.96 E486.80415
G1 X70.04 Y6.4 E488.1531
G1 X68.626 Y6.4 E488.29419
G1 X79.599 Y17.374 E489.84267
G1 X79.599 Y18.788 E489.98376
G1 X67.211 Y6.4 E491.73184
G1 X65.797 Y6.4 E491.87293
G1 X79.599 Y20.202 E493.82054
G1 X79.599 Y21.616 E493.96163
G1 X64.383 Y6.4 E496.10877
G1 X62.969 Y6.4 E496.24986
G1 X79.599 Y23.031 E498.5966
G1 X79.599 Y24.444 E498.73759
G1 X61.555 Y6.4 E501.2838
G1 X60.14 Y6.4 E501.42499
G1 X79.599 Y25.858 E504.17079
G1 X79.599 Y27.273 E504.31198
G1 X58.726 Y6.4 E507.25738
G1 X57.312 Y6.4 E507.39847
G1 X79.599 Y28.687 E510.54341
G1 X79.599 Y30.101 E510.6845
G1 X55.898 Y6.4 E514.02897
G1 X54.483 Y6.4 E514.17016
G1 X79.599 Y31.515 E517.71423
G1 X79.599 Y32.929 E517.85531
G1 X53.069 Y6.4 E521.59891
G1 X51.655 Y6.4 E521.74
G1 X79.599 Y34.344 E525.6832
G1 X79.599 Y35.758 E525.82429
G1 X50.241 Y6.4 E529.96702
G1 X48.827 Y6.4 E530.10811
G1 X79.598 Y37.171 E534.45023
G1 X79.598 Y38.586 E534.59142
G1 X47.412 Y6.4 E539.13322
G1 X45.998 Y6.4 E539.2743
G1 X79.598 Y40 E544.01563
G1 X79.598 Y41.414 E544.15672
G1 X44.585 Y6.401 E549.09743
G1 X43.17 Y6.401 E549.23862
G1 X79.598 Y42.828 E554.37893
G1 X79.598 Y44.242 E554.52002
G1 X41.756 Y6.401 E559.85987
G1 X40.342 Y6.401 E560.00096
G1 X79.598 Y45.657 E565.5404
G1 X79.598 Y47.071 E565.68149
G1 X38.928 Y6.401 E571.42047
G1 X37.514 Y6.401 E571.56156
G1 X79.598 Y48.485 E577.50006
G1 X79.598 Y49.899 E577.64115
G1 X36.099 Y6.401 E583.77926
G1 X34.685 Y6.401 E583.92035
G1 X79.597 Y51.313 E590.25792
G1 X79.597 Y52.727 E590.39901
G1 X33.271 Y6.401 E596.93611
G1 X31.857 Y6.401 E597.0772
G1 X79.597 Y54.141 E603.81383
G1 X79.597 Y55.555 E603.95492
G1 X30.443 Y6.401 E610.89108
G1 X29.028 Y6.401 E611.03227
G1 X79.597 Y56.97 E618.1681
G1 X79.597 Y58.384 E618.30919
G1 X27.614 Y6.401 E625.64455
G1 X26.2 Y6.401 E625.78564
G1 X79.597 Y59.798 E633.32053
G1 X79.597 Y61.212 E633.46162
G1 X24.786 Y6.401 E641.19605
G1 X23.372 Y6.401 E641.33714
G1 X79.597 Y62.627 E649.27116
G1 X79.596 Y64.04 E649.41215
G1 X21.957 Y6.401 E657.54564
G1 X20.543 Y6.401 E657.68673
G1 X79.596 Y65.454 E666.01974
G1 X79.596 Y66.868 E666.16083
G1 X19.129 Y6.401 E674.69338
G1 X17.715 Y6.401 E674.83447
G1 X79.596 Y68.283 E683.56662
G1 X79.596 Y69.697 E683.70771
G1 X16.34 Y6.441 E692.63381
G1 X16.279 Y6.448 E692.63994
G1 X15.706 Y6.536 E692.69778
G1 X15.551 Y6.566 E692.71354
G1 X15.252 Y6.645 E692.74439
G1 X15.16 Y6.675 E692.75405
G1 X79.596 Y71.111 E701.84667
G1 X79.596 Y72.525 E701.98775
G1 X14.142 Y7.071 E711.22402
G1 X13.751 Y7.265 E711.26757
G1 X13.604 Y7.348 E711.28442
G1 X13.364 Y7.502 E711.31287
G1 X13.245 Y7.588 E711.32752
G1 X79.596 Y73.94 E720.69043
G1 X79.596 Y75.354 E720.83152
G1 X12.466 Y8.223 E730.30436
G1 X12.152 Y8.533 E730.34839
G1 X11.962 Y8.744 E730.37672
G1 X11.795 Y8.966 E730.40444
G1 X79.596 Y76.767 E739.97189
G1 X79.596 Y78.181 E740.11298
G1 X11.234 Y9.82 E749.75953
G1 X11.014 Y10.239 E749.80675
G1 X10.933 Y10.414 E749.82599
G1 X10.836 Y10.663 E749.85266
G1 X10.793 Y10.793 E749.86632
G1 X79.596 Y79.596 E759.57517
G1 X79.596 Y81.01 E759.71625
G1 X10.505 Y11.919 E769.46574
G1 X10.434 Y12.383 E769.51258
G1 X10.421 Y12.534 E769.5277
G1 X10.4 Y13.034 E769.57763
G1 X10.4 Y13.228 E769.59699
G1 X79.596 Y82.424 E779.3613
G1 X79.596 Y83.838 E779.50238
G1 X10.4 Y14.642 E789.26669
G1 X10.4 Y16.056 E789.40778
G1 X79.596 Y85.253 E799.17215
G1 X79.596 Y86.667 E799.31324
G1 X10.4 Y17.471 E809.07754
G1 X10.4 Y18.885 E809.21863
G1 X79.596 Y88.081 E818.98294
G1 X79.595 Y88.932 E819.06785
G1 X79.572 Y89.309 E819.10554
G1 X79.554 Y89.453 E819.12002
G1 X10.4 Y20.299 E828.87839
G1 X10.4 Y21.713 E829.01948
G1 X79.265 Y90.578 E838.73708
G1 X79.208 Y90.718 E838.75216
G1 X79.087 Y90.977 E838.78068
G1 X78.944 Y91.235 E838.81012
G1 X78.801 Y91.46 E838.83672
G1 X78.772 Y91.5 E838.84165
G1 X10.4 Y23.128 E848.48968
G1 X10.4 Y24.542 E848.63077
G1 X78.119 Y92.261 E858.18665
G1 X77.798 Y92.546 E858.22948
G1 X77.58 Y92.715 E858.257
G1 X77.349 Y92.872 E858.28487
G1 X77.327 Y92.884 E858.28737
G1 X10.4 Y25.956 E867.73157
G1 X10.4 Y27.37 E867.87266
G1 X76.371 Y93.341 E877.18188
G1 X76.298 Y93.368 E877.18964
G1 X76.006 Y93.452 E877.21996
G1 X75.745 Y93.508 E877.2466
G1 X75.426 Y93.556 E877.27878
G1 X75.189 Y93.574 E877.3025
G1 X10.4 Y28.784 E886.445
G1 X10.4 Y30.199 E886.58619
G1 X73.799 Y93.598 E895.53247
G1 X72.385 Y93.598 E895.67356
G1 X10.4 Y31.613 E904.42031
G1 X10.4 Y33.027 E904.5614
G1 X70.97 Y93.598 E913.10856
G1 X69.556 Y93.598 E913.24964
G1 X10.4 Y34.441 E921.59727
G1 X10.4 Y35.855 E921.73836
G1 X68.142 Y93.598 E929.88645
G1 X66.728 Y93.598 E930.02754
G1 X10.4 Y37.27 E937.97602
G1 X10.4 Y38.685 E938.11721
G1 X65.314 Y93.598 E945.8661
G1 X63.899 Y93.597 E946.00729
G1 X10.4 Y40.099 E953.55651
G1 X10.4 Y41.513 E953.6976
G1 X62.484 Y93.597 E961.04721
G1 X61.07 Y93.597 E961.1883
G1 X10.4 Y42.927 E968.33839
G1 X10.4 Y44.341 E968.47948
G1 X59.656 Y93.597 E975.43003
G1 X58.242 Y93.597 E975.57112
G1 X10.4 Y45.756 E982.32207
G1 X10.4 Y47.17 E982.46316
G1 X56.828 Y93.597 E989.01458
G1 X55.413 Y93.596 E989.15577
G1 X10.4 Y48.584 E995.50752
G1 X10.4 Y49.998 E995.64861
G1 X53.998 Y93.596 E1001.80076
G1 X52.584 Y93.596 E1001.94185
G1 X10.4 Y51.413 E1007.8944
G1 X10.4 Y52.827 E1008.03549
G1 X51.17 Y93.596 E1013.7885
G1 X49.756 Y93.596 E1013.92959
G1 X10.4 Y54.241 E1019.48308
G1 X10.4 Y55.655 E1019.62417
G1 X48.342 Y93.596 E1024.97812
G1 X46.927 Y93.596 E1025.11931
G1 X10.4 Y57.069 E1030.27367
G1 X10.4 Y58.484 E1030.41486
G1 X45.512 Y93.596 E1035.36954
G1 X44.098 Y93.596 E1035.51063
G1 X10.4 Y59.898 E1040.26578
G1 X10.4 Y61.312 E1040.40687
G1 X42.684 Y93.596 E1044.96249
G1 X41.27 Y93.596 E1045.10358
G1 X10.401 Y62.727 E1049.45953
G1 X10.401 Y64.141 E1049.60062
G1 X39.856 Y93.596 E1053.75704
G1 X38.441 Y93.596 E1053.89823
G1 X10.401 Y65.555 E1057.85504
G1 X10.401 Y66.97 E1057.99623
G1 X37.027 Y93.596 E1061.75345
G1 X35.612 Y93.595 E1061.89464
G1 X10.401 Y68.384 E1065.45218
G1 X10.401 Y69.798 E1065.59327
G1 X34.198 Y93.595 E1068.95129
G1 X32.784 Y93.595 E1069.09238
G1 X10.401 Y71.212 E1072.25086
G1 X10.401 Y72.626 E1072.39195
G1 X31.37 Y93.595 E1075.3509
G1 X29.955 Y93.595 E1075.49209
G1 X10.401 Y74.041 E1078.25137
G1 X10.401 Y75.455 E1078.39246
G1 X28.541 Y93.595 E1080.95221
G1 X27.127 Y93.595 E1081.0933
G1 X10.401 Y76.869 E1083.45352
G1 X10.401 Y78.283 E1083.59461
G1 X25.712 Y93.594 E1085.75516
G1 X24.298 Y93.594 E1085.89625
G1 X10.401 Y79.698 E1087.85719
G1 X10.401 Y81.112 E1087.99828
G1 X22.884 Y93.594 E1089.7597
G1 X21.469 Y93.594 E1089.90089
G1 X10.401 Y82.526 E1091.4627
G1 X10.401 Y83.94 E1091.60379
G1 X20.055 Y93.594 E1092.96607
G1 X18.641 Y93.594 E1093.10716
G1 X10.401 Y85.354 E1094.26992
G1 X10.401 Y86.769 E1094.41111
G1 X17.227 Y93.594 E1095.37426
G1 X16.916 Y93.594 E1095.40529
G1 X16.561 Y93.579 E1095.44074
G1 X16.242 Y93.547 E1095.47273
G1 X15.673 Y93.455 E1095.53025
G1 X10.543 Y88.325 E1096.25414
G1 X10.594 Y88.567 E1096.27882
G1 X10.818 Y89.284 E1096.35377
G1 X10.926 Y89.566 E1096.3839
G1 X11.266 Y90.247 E1096.45985
G1 X11.34 Y90.382 E1096.47521
G1 X11.498 Y90.628 E1096.50439
G1 X11.672 Y90.868 E1096.53397
G1 X13.13 Y92.326 E1096.73971
G1 X12.862 Y92.13 E1096.77284
G1 X12.635 Y91.943 E1096.80218
G1 X12.122 Y91.43 E1096.87457
G1 X11.94 Y91.227 E1096.90178
G1 X11.827 Y91.082 E1096.92012
G0 F2400 X79.497 Y10.201
G1 F900 X75.799 Y6.502 E1097.44202
G1 X75.891 Y6.52 E1097.45137
G1 X76.182 Y6.595 E1097.48136
G1 X76.44 Y6.68 E1097.50846
G1 X76.719 Y6.791 E1097.53842
G1 X76.977 Y6.912 E1097.56685
G1 X77.235 Y7.056 E1097.59634
G1 X77.455 Y7.196 E1097.62236
G1 X77.721 Y7.394 E1097.65544
G1 X78.203 Y7.814 E1097.71923
G1 X78.549 Y8.203 E1097.77118
G1 X78.716 Y8.418 E1097.79835
G1 X78.872 Y8.65 E1097.82624
G1 X79.03 Y8.918 E1097.85728
G1 X79.164 Y9.183 E1097.88691
G1 X79.263 Y9.41 E1097.91162
G1 X79.371 Y9.711 E1097.94353
G1 X79.451 Y9.992 E1097.97269
G0 F2400 X14.221 Y6.802
;TIME_ELAPSED:698.730955
;LAYER:-4
G0 X14.221 Y6.802 Z0.86
;TYPE:SUPPORT-INTERFACE
G1 F1200 X13.669 Y7.083 E1097.99329
G1 X13.508 Y7.173 E1097.99942
G1 X13.467 Y7.2 E1098.00105
G1 X77.799 Y7.2 E1100.14075
G1 X77.847 Y7.236 E1100.14274
G1 X78.264 Y7.6 E1100.16115
G1 X12.889 Y7.6 E1102.33553
G1 X12.803 Y7.662 E1102.33906
G1 X12.639 Y7.791 E1102.346
G1 X12.423 Y7.984 E1102.35563
G1 X12.407 Y8 E1102.35639
G1 X78.638 Y8 E1104.55924
G1 X78.693 Y8.062 E1104.56199
G1 X78.877 Y8.298 E1104.57195
G1 X78.946 Y8.4 E1104.57604
G1 X12.004 Y8.4 E1106.80254
G1 X11.905 Y8.506 E1106.80737
G1 X11.71 Y8.741 E1106.81752
G1 X11.667 Y8.8 E1106.81995
G1 X79.195 Y8.8 E1109.06594
G1 X79.21 Y8.826 E1109.06694
G1 X79.339 Y9.081 E1109.07645
G1 X79.391 Y9.2 E1109.08076
G1 X11.374 Y9.2 E1111.34302
G1 X11.355 Y9.225 E1111.34406
G1 X11.189 Y9.48 E1111.35418
G1 X11.126 Y9.6 E1111.35869
G1 X79.546 Y9.6 E1113.63435
G1 X79.566 Y9.658 E1113.63639
G1 X79.645 Y9.933 E1113.64591
G1 X79.66 Y10 E1113.64819
G1 X10.916 Y10 E1115.93463
G1 X10.83 Y10.163 E1115.94076
G1 X10.756 Y10.321 E1115.94656
G1 X10.726 Y10.4 E1115.94937
G1 X79.734 Y10.4 E1118.24458
G1 X79.757 Y10.555 E1118.2498
G1 X79.776 Y10.8 E1118.25797
G1 X10.582 Y10.8 E1120.55937
G1 X10.464 Y11.158 E1120.57191
G1 X10.453 Y11.2 E1120.57335
G1 X79.8 Y11.2 E1122.87984
G1 X79.8 Y11.219 E1122.88047
G1 X79.799 Y11.6 E1122.89315
G1 X10.356 Y11.6 E1125.20283
G1 X10.349 Y11.629 E1125.20382
G1 X10.292 Y12 E1125.21631
G1 X79.799 Y12 E1127.52812
G1 X79.799 Y12.4 E1127.54142
G1 X10.233 Y12.4 E1129.8552
G1 X10.211 Y12.8 E1129.86852
G1 X79.799 Y12.8 E1132.18303
G1 X79.799 Y13.2 E1132.19633
G1 X10.201 Y13.2 E1134.51117
G1 X10.201 Y13.6 E1134.52448
G1 X79.799 Y13.6 E1136.83931
G1 X79.799 Y14 E1136.85262
G1 X10.201 Y14 E1139.16746
G1 X10.201 Y14.4 E1139.18076
G1 X79.799 Y14.4 E1141.4956
G1 X79.799 Y14.8 E1141.5089
G1 X10.201 Y14.8 E1143.82374
G1 X10.2 Y15.2 E1143.83705
G1 X79.799 Y15.2 E1146.15192
G1 X79.799 Y15.6 E1146.16522
G1 X10.2 Y15.6 E1148.4801
G1 X10.2 Y16 E1148.4934
G1 X79.799 Y16 E1150.80827
G1 X79.799 Y16.4 E1150.82158
G1 X10.2 Y16.4 E1153.13645
G1 X10.2 Y16.8 E1153.14975
G1 X79.799 Y16.8 E1155.46462
G1 X79.799 Y17.2 E1155.47793
G1 X10.2 Y17.2 E1157.7928
G1 X10.2 Y17.6 E1157.8061
G1 X79.799 Y17.6 E1160.12098
G1 X79.799 Y18 E1160.13428
G1 X10.2 Y18 E1162.44915
