;FLAVOR:Marlin
;TIME:13514
;Filament used: 9.91794m
;Layer height: 0.2
;Generated with Cura_SteamEngine 3.6.0
M104 S200
M105
M109 S200
M82 ;absolute extrusion mode
G28 ;Home
G1 Z15.0 F6000 ;Move the platform down 15mm
;Prime the extruder
G92 E0
G1 F200 E3
G92 E0
G92 E0
G1 F1500 E-6.5
;LAYER_COUNT:171
;LAYER:-6
M107
G0 F2400 X11.394 Y8.278 Z0.36
;TYPE:SUPPORT-INTERFACE
G1 F1500 E0
G1 F900 X11.815 Y7.796 E0.07663
G1 X12.204 Y7.45 E0.13896
G1 X12.419 Y7.283 E0.17156
G1 X12.65 Y7.127 E0.20494
G1 X12.918 Y6.969 E0.24219
G1 X13.175 Y6.839 E0.27667
G1 X13.445 Y6.723 E0.31186
G1 X13.701 Y6.631 E0.34443
G1 X13.993 Y6.547 E0.38081
G1 X14.254 Y6.491 E0.41277
G1 X14.574 Y6.443 E0.45152
G1 X15.042 Y6.407 E0.50772
G1 X15.234 Y6.4 E0.53073
G1 X73.038 Y6.402 E7.45197
G1 X73.569 Y6.43 E7.51564
G1 X74.293 Y6.537 E7.60327
G1 X74.556 Y6.592 E7.63544
G1 X75.29 Y6.82 E7.72747
G1 X75.567 Y6.926 E7.76299
G1 X76.248 Y7.266 E7.85412
G1 X76.477 Y7.398 E7.88577
G1 X76.635 Y7.503 E7.90849
G1 X77.087 Y7.83 E7.97529
G1 X77.306 Y8.008 E8.00908
G1 X77.431 Y8.122 E8.02934
G1 X77.944 Y8.636 E8.11629
G1 X78.133 Y8.865 E8.15184
G1 X78.479 Y9.337 E8.22191
G1 X78.641 Y9.586 E8.25748
G1 X78.712 Y9.711 E8.2747
G1 X78.985 Y10.24 E8.34597
G1 X79.104 Y10.506 E8.38087
G1 X79.163 Y10.664 E8.40106
G1 X79.341 Y11.205 E8.46925
G1 X79.423 Y11.512 E8.5073
G1 X79.452 Y11.653 E8.52454
G1 X79.542 Y12.206 E8.59162
G1 X79.585 Y12.635 E8.64325
G1 X79.599 Y12.971 E8.68351
G1 X79.6 Y86.965 E17.5433
G1 X79.579 Y87.465 E17.60322
G1 X79.566 Y87.603 E17.61981
G1 X79.455 Y88.331 E17.70799
G1 X79.399 Y88.59 E17.73972
G1 X79.347 Y88.774 E17.76261
G1 X79.163 Y89.336 E17.83342
G1 X79.066 Y89.586 E17.86553
G1 X78.987 Y89.756 E17.88797
G1 X78.641 Y90.414 E17.97699
G1 X78.479 Y90.663 E18.01256
G1 X78.037 Y91.256 E18.10111
G1 X77.847 Y91.467 E18.13511
G1 X77.432 Y91.877 E18.20496
G1 X77.226 Y92.06 E18.23796
G1 X77.087 Y92.17 E18.25918
G1 X76.639 Y92.494 E18.32538
G1 X76.395 Y92.652 E18.36019
G1 X76.248 Y92.734 E18.38034
G1 X75.567 Y93.074 E18.47148
G1 X75.29 Y93.18 E18.50699
G1 X74.747 Y93.354 E18.57527
G1 X74.448 Y93.433 E18.61229
G1 X74.293 Y93.463 E18.6312
G1 X73.72 Y93.552 E18.70063
G1 X73.569 Y93.57 E18.71884
G1 X73.038 Y93.598 E18.78251
G1 X15.193 Y93.6 E25.70866
G1 X14.69 Y93.572 E25.76898
G1 X14.392 Y93.535 E25.80494
G1 X14.108 Y93.48 E25.83958
G1 X13.817 Y93.404 E25.87559
G1 X13.557 Y93.319 E25.90834
G1 X13.28 Y93.209 E25.94403
G1 X13.021 Y93.086 E25.97836
G1 X12.763 Y92.943 E26.01368
G1 X12.544 Y92.804 E26.04474
G1 X12.278 Y92.606 E26.08444
G1 X11.802 Y92.191 E26.16006
G1 X11.45 Y91.796 E26.22341
G1 X11.283 Y91.581 E26.256
G1 X11.126 Y91.348 E26.28965
G1 X10.969 Y91.082 E26.32663
G1 X10.839 Y90.825 E26.36111
G1 X10.723 Y90.555 E26.3963
G1 X10.631 Y90.299 E26.42887
G1 X10.547 Y90.007 E26.46525
G1 X10.49 Y89.745 E26.49736
G1 X10.443 Y89.426 E26.53597
G1 X10.406 Y88.948 E26.59337
G1 X10.4 Y88.78 E26.6135
G1 X10.404 Y11.067 E35.91858
G1 X10.428 Y10.69 E35.96381
G1 X10.465 Y10.392 E35.99977
G1 X10.52 Y10.108 E36.03441
G1 X10.596 Y9.817 E36.07042
G1 X10.68 Y9.559 E36.10291
G1 X10.791 Y9.28 E36.13886
G1 X10.913 Y9.022 E36.17303
G1 X11.059 Y8.759 E36.20905
G1 X11.197 Y8.543 E36.23974
G1 X11.394 Y8.278 E36.27928
G0 F2400 X11.2 Y8.538
G1 F900 X11.2 Y91.457 E46.20771
G0 F2400 X12.8 Y92.963
G1 F900 X12.8 Y7.038 E56.49606
G0 F2400 X14.4 Y6.469
G1 F900 X14.4 Y93.535 E66.92104
G0 F2400 X16 Y93.6
G1 F900 X16 Y6.401 E77.36194
G0 F2400 X17.6 Y6.401
G1 F900 X17.6 Y93.6 E87.80285
G0 F2400 X19.2 Y93.6
G1 F900 X19.2 Y6.401 E98.24375
G0 F2400 X20.8 Y6.401
G1 F900 X20.8 Y93.6 E108.68465
G0 F2400 X22.4 Y93.6
G1 F900 X22.4 Y6.401 E119.12555
G0 F2400 X24 Y6.401
G1 F900 X24 Y93.6 E129.56645
G0 F2400 X25.6 Y93.6
G1 F900 X25.6 Y6.401 E140.00735
G0 F2400 X27.2 Y6.401
G1 F900 X27.2 Y93.6 E150.44826
G0 F2400 X28.8 Y93.6
G1 F900 X28.8 Y6.401 E160.88916
G0 F2400 X30.4 Y6.401
G1 F900 X30.4 Y93.6 E171.33006
G0 F2400 X32 Y93.6
G1 F900 X32 Y6.401 E181.77096
G0 F2400 X33.6 Y6.401
G1 F900 X33.6 Y93.6 E192.21186
G0 F2400 X35.2 Y93.6
G1 F900 X35.2 Y6.401 E202.65277
G0 F2400 X36.8 Y6.401
G1 F900 X36.8 Y93.6 E213.09367
G0 F2400 X38.4 Y93.6
G1 F900 X38.4 Y6.401 E223.53457
G0 F2400 X40 Y6.401
G1 F900 X40 Y93.6 E233.97547
G0 F2400 X41.6 Y93.6
G1 F900 X41.6 Y6.401 E244.41637
G0 F2400 X43.2 Y6.401
G1 F900 X43.2 Y93.6 E254.85727
G0 F2400 X44.8 Y93.599
G1 F900 X44.8 Y6.402 E265.29794
G0 F2400 X46.4 Y6.402
G1 F900 X46.4 Y93.599 E275.7386
G0 F2400 X48 Y93.599
G1 F900 X48 Y6.402 E286.17926
G0 F2400 X49.6 Y6.402
G1 F900 X49.6 Y93.599 E296.61992
G0 F2400 X51.2 Y93.599
G1 F900 X51.2 Y6.402 E307.06059
G0 F2400 X52.8 Y6.402
G1 F900 X52.8 Y93.599 E317.50125
G0 F2400 X54.4 Y93.599
G1 F900 X54.4 Y6.402 E327.94191
G0 F2400 X56 Y6.402
G1 F900 X56 Y93.599 E338.38257
G0 F2400 X57.6 Y93.599
G1 F900 X57.6 Y6.402 E348.82324
G0 F2400 X59.2 Y6.402
G1 F900 X59.2 Y93.599 E359.2639
G0 F2400 X60.8 Y93.599
G1 F900 X60.8 Y6.402 E369.70456
G0 F2400 X62.4 Y6.402
G1 F900 X62.4 Y93.599 E380.14522
G0 F2400 X64 Y93.599
G1 F900 X64 Y6.402 E390.58589
G0 F2400 X65.6 Y6.402
G1 F900 X65.6 Y93.599 E401.02655
G0 F2400 X67.2 Y93.599
G1 F900 X67.2 Y6.402 E411.46721
G0 F2400 X68.8 Y6.402
G1 F900 X68.8 Y93.599 E421.90787
G0 F2400 X70.4 Y93.599
G1 F900 X70.4 Y6.402 E432.34854
G0 F2400 X72 Y6.402
G1 F900 X72 Y93.599 E442.7892
G0 F2400 X73.6 Y93.567
G1 F900 X73.6 Y6.435 E453.22208
G0 F2400 X75.2 Y6.793
G1 F900 X75.2 Y93.209 E463.56923
G0 F2400 X76.8 Y92.378
G1 F900 X76.8 Y7.623 E473.71749
G0 F2400 X78.4 Y9.23
G1 F900 X78.4 Y90.769 E483.48068
G0 F2400 X77.298 Y8.002
;TIME_ELAPSED:281.529583
;LAYER:-5
G0 X77.298 Y8.002 Z0.66
;TYPE:SUPPORT
G1 F900 X77.086 Y7.829 E483.50799
G1 X76.634 Y7.503 E483.56359
G1 X76.476 Y7.397 E483.58258
G1 X76.247 Y7.266 E483.6089
G1 X75.566 Y6.926 E483.68485
G1 X75.289 Y6.82 E483.71445
G1 X74.555 Y6.592 E483.79114
G1 X74.453 Y6.571 E483.80153
G1 X79.43 Y11.547 E484.50377
G1 X79.451 Y11.652 E484.51445
G1 X79.541 Y12.206 E484.57045
G1 X79.584 Y12.635 E484.61347
G1 X79.598 Y12.97 E484.64693
G1 X79.599 Y13.13 E484.66289
G1 X72.87 Y6.402 E485.61236
G1 X71.455 Y6.402 E485.75355
G1 X79.599 Y14.545 E486.90268
G1 X79.599 Y15.959 E487.04377
G1 X70.041 Y6.402 E488.39244
G1 X68.627 Y6.402 E488.53353
G1 X79.599 Y17.373 E490.08173
G1 X79.599 Y18.787 E490.22282
G1 X67.213 Y6.402 E491.97054
G1 X65.799 Y6.402 E492.11163
G1 X79.599 Y20.202 E494.05896
G1 X79.599 Y21.616 E494.20005
G1 X64.384 Y6.402 E496.34698
G1 X62.97 Y6.402 E496.48807
G1 X79.599 Y23.03 E498.83453
G1 X79.599 Y24.444 E498.97562
G1 X61.556 Y6.402 E501.52161
G1 X60.142 Y6.402 E501.6627
G1 X79.599 Y25.858 E504.40823
G1 X79.599 Y27.273 E504.54941
G1 X58.728 Y6.402 E507.49454
G1 X57.313 Y6.402 E507.63573
G1 X79.599 Y28.687 E510.78045
G1 X79.599 Y30.101 E510.92154
G1 X55.899 Y6.402 E514.2658
G1 X54.485 Y6.402 E514.40689
G1 X79.599 Y31.515 E517.95067
G1 X79.599 Y32.929 E518.09176
G1 X53.07 Y6.401 E521.83522
G1 X51.656 Y6.401 E521.97631
G1 X79.599 Y34.344 E525.91937
G1 X79.599 Y35.758 E526.06046
G1 X50.242 Y6.401 E530.20305
G1 X48.827 Y6.401 E530.34424
G1 X79.599 Y37.172 E534.68643
G1 X79.599 Y38.587 E534.82762
G1 X47.413 Y6.401 E539.36941
G1 X45.999 Y6.401 E539.5105
G1 X79.599 Y40.001 E544.25182
G1 X79.599 Y41.415 E544.39291
G1 X44.585 Y6.401 E549.33377
G1 X43.17 Y6.401 E549.47495
G1 X79.599 Y42.83 E554.61548
G1 X79.599 Y44.244 E554.75657
G1 X41.756 Y6.401 E560.09663
G1 X40.342 Y6.401 E560.23772
G1 X79.599 Y45.658 E565.7773
G1 X79.599 Y47.072 E565.91839
G1 X38.928 Y6.401 E571.65751
G1 X37.514 Y6.401 E571.7986
G1 X79.599 Y48.487 E577.73732
G1 X79.599 Y49.901 E577.87841
G1 X36.099 Y6.401 E584.01673
G1 X34.685 Y6.401 E584.15782
G1 X79.599 Y51.315 E590.49567
G1 X79.599 Y52.729 E590.63676
G1 X33.27 Y6.4 E597.17428
G1 X31.856 Y6.4 E597.31537
G1 X79.599 Y54.143 E604.05242
G1 X79.599 Y55.558 E604.19361
G1 X30.442 Y6.4 E611.13026
G1 X29.028 Y6.4 E611.27135
G1 X79.599 Y56.972 E618.40754
G1 X79.599 Y58.386 E618.54863
G1 X27.613 Y6.4 E625.88441
G1 X26.199 Y6.4 E626.0255
G1 X79.599 Y59.8 E633.56082
G1 X79.599 Y61.214 E633.70191
G1 X24.785 Y6.4 E641.43676
G1 X23.371 Y6.4 E641.57785
G1 X79.6 Y62.629 E649.51237
G1 X79.6 Y64.044 E649.65356
G1 X21.957 Y6.4 E657.78768
G1 X20.542 Y6.4 E657.92887
G1 X79.6 Y65.458 E666.26259
G1 X79.6 Y66.872 E666.40368
G1 X19.128 Y6.4 E674.93693
G1 X17.714 Y6.4 E675.07802
G1 X79.6 Y68.286 E683.8108
G1 X79.6 Y69.7 E683.95189
G1 X16.3 Y6.4 E692.88421
G1 X15.233 Y6.4 E692.99067
G1 X15.04 Y6.407 E693.00994
G1 X14.903 Y6.418 E693.02366
G1 X79.6 Y71.115 E702.1531
G1 X79.6 Y72.529 E702.29419
G1 X13.701 Y6.63 E711.59325
G0 F2400 X13.7 Y6.63
G1 F900 X13.444 Y6.722 E711.62039
G1 X13.174 Y6.839 E711.64976
G1 X12.917 Y6.969 E711.67849
G1 X12.734 Y7.077 E711.6997
G1 X79.6 Y73.943 E721.13521
G1 X79.6 Y75.357 E721.2763
G1 X11.933 Y7.691 E730.82477
G1 X11.814 Y7.796 E730.84061
G1 X11.393 Y8.278 E730.90447
G1 X11.27 Y8.442 E730.92492
G1 X79.6 Y76.771 E740.56695
G1 X79.6 Y78.186 E740.70814
G1 X10.762 Y9.348 E750.42193
G1 X10.679 Y9.559 E750.44455
G1 X10.595 Y9.817 E750.47162
G1 X10.519 Y10.108 E750.50163
G1 X10.464 Y10.392 E750.5305
G1 X10.455 Y10.455 E750.53685
G1 X79.6 Y79.6 E760.29395
G1 X79.6 Y81.014 E760.43504
G1 X10.403 Y11.817 E770.19949
G1 X10.403 Y13.232 E770.34068
G1 X79.6 Y82.428 E780.10505
G1 X79.6 Y83.843 E780.24624
G1 X10.403 Y14.646 E790.01068
G1 X10.403 Y16.06 E790.15177
G1 X79.6 Y85.257 E799.91622
G1 X79.6 Y86.671 E800.05731
G1 X10.403 Y17.474 E809.82175
G1 X10.403 Y18.888 E809.96284
G1 X79.507 Y87.992 E819.71416
G1 X79.454 Y88.33 E819.7483
G1 X79.398 Y88.589 E819.77474
G1 X79.347 Y88.773 E819.79379
G1 X79.23 Y89.13 E819.83128
G1 X10.403 Y20.303 E829.54351
G1 X10.403 Y21.717 E829.6846
G1 X78.799 Y90.112 E839.33594
G1 X78.64 Y90.412 E839.36982
G1 X78.478 Y90.662 E839.39955
G1 X78.247 Y90.974 E839.43828
G1 X10.402 Y23.13 E849.01187
G1 X10.402 Y24.545 E849.15306
G1 X77.583 Y91.725 E858.63296
G1 X77.431 Y91.876 E858.65434
G1 X77.225 Y92.059 E858.68183
G1 X77.086 Y92.169 E858.69952
G1 X76.811 Y92.367 E858.73333
G1 X10.402 Y25.959 E868.10429
G1 X10.402 Y27.373 E868.24538
G1 X75.924 Y92.894 E877.49117
G1 X75.567 Y93.073 E877.53102
G1 X75.289 Y93.179 E877.5607
G1 X74.914 Y93.299 E877.59999
G1 X10.402 Y28.787 E886.70333
G1 X10.402 Y30.201 E886.84442
G1 X73.747 Y93.546 E895.78308
G1 X73.72 Y93.551 E895.78582
G1 X73.569 Y93.569 E895.801
G1 X73.037 Y93.597 E895.85415
G1 X72.384 Y93.597 E895.91931
G1 X10.402 Y31.616 E904.66557
G1 X10.402 Y33.03 E904.80666
G1 X70.97 Y93.597 E913.35339
G1 X69.555 Y93.597 E913.49458
G1 X10.402 Y34.443 E921.84177
G1 X10.402 Y35.858 E921.98296
G1 X68.141 Y93.597 E930.13056
G1 X66.727 Y93.597 E930.27165
G1 X10.402 Y37.272 E938.21972
G1 X10.402 Y38.686 E938.3608
G1 X65.313 Y93.597 E946.10934
G1 X63.899 Y93.597 E946.25043
G1 X10.402 Y40.1 E953.79943
G1 X10.402 Y41.514 E953.94052
G1 X62.484 Y93.597 E961.28993
G1 X61.07 Y93.597 E961.43102
G1 X10.402 Y42.929 E968.58082
G1 X10.402 Y44.343 E968.72191
G1 X59.656 Y93.597 E975.67218
G1 X58.242 Y93.597 E975.81327
G1 X10.401 Y45.756 E982.56415
G1 X10.401 Y47.171 E982.70534
G1 X56.828 Y93.597 E989.25662
G1 X55.413 Y93.597 E989.39781
G1 X10.401 Y48.585 E995.74949
G1 X10.401 Y49.999 E995.89058
G1 X53.999 Y93.597 E1002.04273
G1 X52.586 Y93.598 E1002.18372
G1 X10.401 Y51.413 E1008.13648
G1 X10.401 Y52.827 E1008.27757
G1 X51.171 Y93.598 E1014.03072
G1 X49.757 Y93.598 E1014.17181
G1 X10.401 Y54.242 E1019.72537
G1 X10.4 Y55.655 E1019.86636
G1 X48.343 Y93.598 E1025.22053
G1 X46.929 Y93.598 E1025.36162
G1 X10.4 Y57.069 E1030.51625
G1 X10.4 Y58.484 E1030.65744
G1 X45.515 Y93.598 E1035.61248
G1 X44.1 Y93.598 E1035.75367
G1 X10.4 Y59.898 E1040.5091
G1 X10.4 Y61.312 E1040.65019
G1 X42.686 Y93.598 E1045.20609
G1 X41.272 Y93.598 E1045.34718
G1 X10.4 Y62.726 E1049.70356
G1 X10.4 Y64.14 E1049.84465
G1 X39.858 Y93.598 E1054.00149
G1 X38.443 Y93.598 E1054.14268
G1 X10.4 Y65.555 E1058.09985
G1 X10.4 Y66.968 E1058.24084
G1 X37.029 Y93.598 E1061.99855
G1 X35.615 Y93.598 E1062.13964
G1 X10.4 Y68.382 E1065.69782
G1 X10.4 Y69.797 E1065.83901
G1 X34.202 Y93.599 E1069.19772
G1 X32.787 Y93.599 E1069.33891
G1 X10.4 Y71.211 E1072.49803
G1 X10.4 Y72.625 E1072.63912
G1 X31.373 Y93.599 E1075.59871
G1 X29.959 Y93.599 E1075.7398
G1 X10.4 Y74.039 E1078.49986
G1 X10.4 Y75.453 E1078.64094
G1 X28.545 Y93.599 E1081.20147
G1 X27.13 Y93.599 E1081.34266
G1 X10.4 Y76.868 E1083.70351
G1 X10.399 Y78.281 E1083.8445
G1 X25.716 Y93.599 E1086.00597
G1 X24.302 Y93.599 E1086.14706
G1 X10.399 Y79.695 E1088.10899
G1 X10.399 Y81.11 E1088.25018
G1 X22.888 Y93.599 E1090.01251
G1 X21.474 Y93.599 E1090.1536
G1 X10.399 Y82.524 E1091.71641
G1 X10.399 Y83.938 E1091.8575
G1 X20.059 Y93.599 E1093.2207
G1 X18.645 Y93.599 E1093.36179
G1 X10.399 Y85.352 E1094.52546
G1 X10.399 Y86.766 E1094.66655
G1 X17.231 Y93.599 E1095.63069
G1 X15.817 Y93.599 E1095.77177
G1 X10.399 Y88.181 E1096.53631
G1 X10.399 Y88.779 E1096.59598
G1 X10.405 Y88.946 E1096.61266
G1 X10.443 Y89.425 E1096.6606
G1 X10.479 Y89.675 E1096.6858
G1 X14.324 Y93.52 E1097.22837
G1 X14.108 Y93.479 E1097.25031
G1 X13.816 Y93.403 E1097.28042
G1 X13.556 Y93.318 E1097.30771
G1 X13.28 Y93.208 E1097.33736
G1 X13.02 Y93.084 E1097.3661
G1 X12.763 Y92.942 E1097.3954
G1 X12.544 Y92.803 E1097.42128
G1 X12.278 Y92.605 E1097.45437
G1 X11.802 Y92.19 E1097.51738
G1 X11.449 Y91.795 E1097.57024
G1 X11.282 Y91.58 E1097.5974
G1 X11.126 Y91.347 E1097.62538
G1 X10.968 Y91.081 E1097.65625
G1 X10.839 Y90.824 E1097.68494
G1 X10.723 Y90.554 E1097.71427
G1 X10.631 Y90.298 E1097.74141
G1 X10.547 Y90.006 E1097.77173
G1 X10.489 Y89.743 E1097.7986
G0 F2400 X77.995 Y8.699
G1 F900 X77.298 Y8.002 E1097.89695
G1 X77.43 Y8.122 E1097.91475
G1 X77.943 Y8.635 E1097.98714
G0 F2400 X74.338 Y6.341
;TIME_ELAPSED:694.987864
;LAYER:-4
G0 X74.338 Y6.341 Z0.86
;TYPE:SUPPORT-INTERFACE
G1 F1200 X73.578 Y6.229 E1098.01269
G1 X73.046 Y6.201 E1098.03041
G1 X15.227 Y6.199 E1099.95348
G1 X15.028 Y6.206 E1099.9601
G1 X14.556 Y6.242 E1099.97585
G1 X14.214 Y6.293 E1099.98735
G1 X13.94 Y6.353 E1099.99668
G1 X13.775 Y6.4 E1100.00238
G1 X74.615 Y6.4 E1102.02593
G1 X74.795 Y6.45 E1102.03214
G1 X75.354 Y6.629 E1102.05167
G1 X75.634 Y6.735 E1102.06162
G1 X75.765 Y6.8 E1102.06649
G1 X12.809 Y6.8 E1104.16041
G1 X12.559 Y6.947 E1104.17006
G1 X12.299 Y7.122 E1104.18048
G1 X12.199 Y7.2 E1104.1847
G1 X76.534 Y7.2 E1106.32449
G1 X76.752 Y7.341 E1106.33313
G1 X77.112 Y7.6 E1106.34788
G1 X11.733 Y7.6 E1108.52239
G1 X11.673 Y7.653 E1108.52506
G1 X11.37 Y8 E1108.54038
G1 X77.594 Y8 E1110.743
G1 X77.982 Y8.384 E1110.76115
G1 X77.997 Y8.4 E1110.76188
G1 X11.055 Y8.4 E1112.98838
G1 X11.04 Y8.419 E1112.98919
G1 X10.878 Y8.673 E1112.99921
G1 X10.808 Y8.8 E1113.00403
G1 X78.335 Y8.8 E1115.24999
G1 X78.628 Y9.2 E1115.26648
G1 X10.609 Y9.2 E1117.5288
G1 X10.6 Y9.218 E1117.52947
G1 X10.494 Y9.485 E1117.53902
G1 X10.457 Y9.6 E1117.54304
G1 X78.879 Y9.6 E1119.81877
G1 X78.889 Y9.618 E1119.81945
G1 X79.087 Y10 E1119.83376
G1 X10.341 Y10 E1122.12026
G1 X10.325 Y10.059 E1122.1223
G1 X10.266 Y10.366 E1122.1327
G1 X10.262 Y10.4 E1122.13383
G1 X79.276 Y10.4 E1124.42925
G1 X79.348 Y10.585 E1124.43585
G1 X79.419 Y10.8 E1124.44338
G1 X10.222 Y10.8 E1126.74488
G1 X10.204 Y11.067 E1126.75378
G1 X10.204 Y11.2 E1126.75821
G1 X79.548 Y11.2 E1129.0646
G1 X79.619 Y11.471 E1129.07392
G1 X79.646 Y11.6 E1129.0783
G1 X10.204 Y11.6 E1131.38795
G1 X10.204 Y12 E1131.40125
G1 X79.712 Y12 E1133.7131
G1 X79.741 Y12.179 E1133.71913
G1 X79.766 Y12.4 E1133.72653
G1 X10.204 Y12.4 E1136.04017
G1 X10.204 Y12.8 E1136.05347
G1 X79.791 Y12.8 E1138.36795
G1 X79.8 Y13.029 E1138.37557
G1 X79.799 Y13.2 E1138.38126
G1 X10.204 Y13.2 E1140.696
G1 X10.204 Y13.6 E1140.7093
G1 X79.799 Y13.6 E1143.02404
G1 X79.799 Y14 E1143.03734
G1 X10.204 Y14 E1145.35208
G1 X10.204 Y14.4 E1145.36539
G1 X79.799 Y14.4 E1147.68013
G1 X79.799 Y14.8 E1147.69343
G1 X10.204 Y14.8 E1150.00817
G1 X10.203 Y15.2 E1150.02147
G1 X79.799 Y15.2 E1152.33625
G1 X79.799 Y15.6 E1152.34955
G1 X10.203 Y15.6 E1154.66432
G1 X10.203 Y16 E1154.67763
G1 X79.799 Y16 E1156.9924
G1 X79.799 Y16.4 E1157.0057
G1 X10.203 Y16.4 E1159.32047
G1 X10.203 Y16.8 E1159.33378
G1 X79.799 Y16.8 E1161.64855
