;FLAVOR:Marlin
;TIME:22090
;Filament used: 15.8226m
;Layer height: 0.2
;Generated with Cura_SteamEngine 3.6.0
M104 S200
M105
M109 S200
M82 ;absolute extrusion mode
G28 ;Home
G1 Z15.0 F6000 ;Move the platform down 15mm
;Prime the extruder
G92 E0
G1 F200 E3
G92 E0
G92 E0
G1 F1500 E-6.5
;LAYER_COUNT:316
;LAYER:-6
M107
G0 F2400 X9.504 Y7.121 Z0.36
;TYPE:SUPPORT-INTERFACE
G1 F1500 E0
G1 F900 X9.694 Y6.865 E0.03817
G1 X10.116 Y6.382 E0.11497
G1 X10.326 Y6.179 E0.14994
G1 X10.621 Y5.92 E0.19695
G1 X10.836 Y5.753 E0.22954
G1 X11.067 Y5.597 E0.26292
G1 X11.335 Y5.439 E0.30017
G1 X11.592 Y5.309 E0.33465
G1 X11.862 Y5.193 E0.36984
G1 X12.118 Y5.101 E0.40241
G1 X12.41 Y5.017 E0.43879
G1 X12.667 Y4.961 E0.47029
G1 X13.002 Y4.912 E0.51083
G1 X13.446 Y4.878 E0.56415
G1 X13.641 Y4.87 E0.58751
G1 X16.69 Y4.867 E0.95259
G1 X17.359 Y4.824 E1.03286
G1 X18.029 Y4.695 E1.11456
G1 X18.68 Y4.48 E1.19665
G1 X18.75 Y4.446 E1.20596
G1 X18.755 Y4.455 E1.2072
G1 X19.531 Y4.074 E1.31071
G1 X19.794 Y3.964 E1.34484
G1 X20.07 Y3.87 E1.37975
G1 X20.34 Y3.796 E1.41327
G1 X20.633 Y3.736 E1.44908
G1 X20.918 Y3.695 E1.48356
G1 X21.221 Y3.672 E1.51994
G1 X21.49 Y3.667 E1.55216
G1 X21.869 Y3.691 E1.59763
G1 X22.533 Y3.722 E1.67722
G1 X22.923 Y3.703 E1.72397
G1 X23.338 Y3.666 E1.77386
G1 X23.642 Y3.659 E1.81027
G1 X23.941 Y3.672 E1.84611
G1 X24.21 Y3.7 E1.87849
G1 X24.517 Y3.75 E1.91573
G1 X24.778 Y3.812 E1.94785
G1 X25.06 Y3.897 E1.98312
G1 X25.356 Y4.007 E2.02093
G1 X25.592 Y4.113 E2.05191
G1 X25.868 Y4.257 E2.08918
G1 X26.481 Y4.528 E2.16943
G1 X27.135 Y4.724 E2.25118
G1 X27.806 Y4.835 E2.33262
G1 X28.344 Y4.863 E2.39712
G1 X69.422 Y4.869 E7.31566
G1 X70.403 Y4.776 E7.43365
G1 X70.828 Y4.695 E7.48545
G1 X71.092 Y4.662 E7.51731
G1 X71.641 Y4.633 E7.58313
G1 X74.665 Y4.633 E7.94522
G1 X75.168 Y4.661 E8.00554
G1 X75.463 Y4.698 E8.04114
G1 X76.312 Y4.861 E8.14465
G1 X76.317 Y4.832 E8.14817
G1 X76.611 Y4.879 E8.18382
G1 X76.893 Y4.897 E8.21766
G1 X77.193 Y4.935 E8.25387
G1 X77.475 Y4.989 E8.28824
G1 X77.766 Y5.065 E8.32426
G1 X78.024 Y5.149 E8.35674
G1 X78.303 Y5.26 E8.3927
G1 X78.561 Y5.382 E8.42687
G1 X78.82 Y5.526 E8.46235
G1 X79.039 Y5.665 E8.49341
G1 X79.305 Y5.863 E8.53312
G1 X79.788 Y6.285 E8.60991
G1 X79.991 Y6.495 E8.64488
G1 X80.25 Y6.79 E8.69189
G1 X80.417 Y7.005 E8.72449
G1 X80.573 Y7.236 E8.75786
G1 X80.731 Y7.504 E8.79511
G1 X80.863 Y7.763 E8.82992
G1 X80.966 Y8.002 E8.86108
G1 X81.071 Y8.295 E8.89835
G1 X81.153 Y8.579 E8.93374
G1 X81.209 Y8.839 E8.96559
G1 X81.257 Y9.16 E9.00445
G1 X81.293 Y9.621 E9.05982
G1 X81.3 Y9.806 E9.08198
G1 X81.296 Y11.149 E9.24279
G1 X81.273 Y11.521 E9.28742
G1 X81.233 Y11.836 E9.32544
G1 X81.193 Y12.051 E9.35162
G1 X81.1 Y13.028 E9.46913
G1 X81.1 Y86.968 E18.32245
G1 X81.142 Y87.632 E18.40211
G1 X81.226 Y88.119 E18.46129
G1 X81.27 Y88.432 E18.49913
G1 X81.289 Y88.641 E18.52426
G1 X81.3 Y88.944 E18.56057
G1 X81.296 Y90.346 E18.72844
G1 X81.272 Y90.723 E18.77367
G1 X81.235 Y91.021 E18.80962
G1 X81.18 Y91.305 E18.84426
G1 X81.104 Y91.596 E18.88027
G1 X81.02 Y91.854 E18.91276
G1 X80.912 Y92.126 E18.9478
G1 X80.787 Y92.391 E18.98289
G1 X80.643 Y92.65 E19.01837
G1 X80.504 Y92.869 E19.04943
G1 X80.306 Y93.135 E19.08913
G1 X79.884 Y93.618 E19.16593
G1 X79.674 Y93.821 E19.2009
G1 X79.381 Y94.078 E19.24757
G1 X79.164 Y94.247 E19.2805
G1 X78.933 Y94.403 E19.31388
G1 X78.665 Y94.561 E19.35113
G1 X78.408 Y94.691 E19.38561
G1 X78.14 Y94.806 E19.42053
G1 X77.874 Y94.901 E19.45435
G1 X77.6 Y94.981 E19.48853
G1 X77.329 Y95.039 E19.52171
G1 X77.009 Y95.087 E19.56046
G1 X76.541 Y95.123 E19.61666
G1 X76.349 Y95.13 E19.63966
G1 X28.291 Y95.132 E25.39396
G1 X27.623 Y95.174 E25.4741
G1 X26.952 Y95.303 E25.55592
G1 X26.302 Y95.516 E25.63782
G1 X25.407 Y95.943 E25.75655
G1 X25.145 Y96.048 E25.79035
G1 X24.859 Y96.141 E25.82636
G1 X24.599 Y96.208 E25.85851
G1 X24.301 Y96.266 E25.89486
G1 X23.999 Y96.304 E25.9313
G1 X23.723 Y96.322 E25.96442
G1 X23.427 Y96.322 E25.99986
G1 X22.545 Y96.266 E26.10568
G1 X22.04 Y96.291 E26.16622
G1 X21.687 Y96.324 E26.20868
G1 X21.396 Y96.333 E26.24354
G1 X21.091 Y96.321 E26.28008
G1 X20.827 Y96.296 E26.31183
G1 X20.524 Y96.247 E26.34859
G1 X20.254 Y96.185 E26.38176
G1 X19.957 Y96.097 E26.41885
G1 X19.689 Y95.999 E26.45301
G1 X19.281 Y95.819 E26.50641
G1 X18.651 Y95.588 E26.58675
G1 X17.982 Y95.435 E26.66893
G1 X17.129 Y95.366 E26.7714
G1 X15.703 Y95.367 E26.94214
G1 X15.173 Y95.339 E27.00569
G1 X14.865 Y95.301 E27.04285
G1 X14.457 Y95.222 E27.09261
G1 X13.63 Y95.131 E27.19223
G1 X13.108 Y95.103 E27.25482
G1 X12.809 Y95.066 E27.29089
G1 X12.525 Y95.011 E27.32553
G1 X12.234 Y94.935 E27.36154
G1 X11.974 Y94.85 E27.39429
G1 X11.697 Y94.74 E27.42998
G1 X11.438 Y94.617 E27.46431
G1 X11.18 Y94.474 E27.49963
G1 X10.961 Y94.335 E27.53069
G1 X10.695 Y94.137 E27.5704
G1 X10.212 Y93.715 E27.64719
G1 X10.001 Y93.496 E27.68361
G1 X9.75 Y93.21 E27.72917
G1 X9.583 Y92.995 E27.76176
G1 X9.423 Y92.758 E27.796
G1 X9.269 Y92.496 E27.83239
G1 X9.139 Y92.239 E27.86688
G1 X9.023 Y91.969 E27.90206
G1 X8.931 Y91.713 E27.93464
G1 X8.847 Y91.421 E27.97102
G1 X8.791 Y91.16 E28.00298
G1 X8.743 Y90.84 E28.04172
G1 X8.706 Y90.362 E28.09913
G1 X8.7 Y90.194 E28.11926
G1 X8.704 Y88.847 E28.28054
G1 X8.727 Y88.48 E28.32457
G1 X8.767 Y88.165 E28.36259
G1 X8.807 Y87.95 E28.38878
G1 X8.9 Y86.973 E28.50629
G1 X8.9 Y13.032 E37.35972
G1 X8.858 Y12.368 E37.43939
G1 X8.774 Y11.881 E37.49856
G1 X8.731 Y11.573 E37.5358
G1 X8.711 Y11.359 E37.56153
G1 X8.7 Y11.056 E37.59784
G1 X8.704 Y9.654 E37.76571
G1 X8.728 Y9.277 E37.81094
G1 X8.765 Y8.982 E37.84654
G1 X8.822 Y8.684 E37.88287
G1 X8.896 Y8.404 E37.91754
G1 X8.98 Y8.146 E37.95003
G1 X9.091 Y7.867 E37.98599
G1 X9.213 Y7.609 E38.02016
G1 X9.352 Y7.359 E38.05441
G1 X9.504 Y7.121 E38.08822
G0 F2400 X9.6 Y6.991
G1 F900 X9.6 Y93.016 E48.38855
G0 F2400 X11.2 Y94.485
G1 F900 X11.2 Y5.518 E59.04115
G0 F2400 X12.8 Y4.941
G1 F900 X12.8 Y95.064 E69.83216
G0 F2400 X14.4 Y95.215
G1 F900 X14.4 Y4.869 E80.64987
G0 F2400 X16 Y4.867
G1 F900 X16 Y95.367 E91.48602
G0 F2400 X17.6 Y95.404
G1 F900 X17.6 Y4.777 E102.33738
G0 F2400 X19.2 Y4.236
G1 F900 X19.2 Y95.789 E113.29962
G0 F2400 X20.8 Y96.291
G1 F900 X20.8 Y3.711 E124.38482
G0 F2400 X22.4 Y3.716
G1 F900 X22.4 Y96.274 E135.46739
G0 F2400 X24 Y96.304
G1 F900 X24 Y3.679 E146.55798
G0 F2400 X25.6 Y4.118
G1 F900 X25.6 Y95.851 E157.54177
G0 F2400 X27.2 Y95.256
G1 F900 X27.2 Y4.735 E168.38044
G0 F2400 X28.8 Y4.864
G1 F900 X28.8 Y95.132 E179.18881
G0 F2400 X30.4 Y95.132
G1 F900 X30.4 Y4.864 E189.99718
G0 F2400 X32 Y4.864
G1 F900 X32 Y95.132 E200.80556
G0 F2400 X33.6 Y95.132
G1 F900 X33.6 Y4.864 E211.61393
G0 F2400 X35.2 Y4.865
G1 F900 X35.2 Y95.132 E222.42218
G0 F2400 X36.8 Y95.132
G1 F900 X36.8 Y4.865 E233.23044
G0 F2400 X38.4 Y4.865
G1 F900 X38.4 Y95.132 E244.03869
G0 F2400 X40 Y95.132
G1 F900 X40 Y4.865 E254.84694
G0 F2400 X41.6 Y4.865
G1 F900 X41.6 Y95.132 E265.6552
G0 F2400 X43.2 Y95.132
G1 F900 X43.2 Y4.866 E276.46333
G0 F2400 X44.8 Y4.866
G1 F900 X44.8 Y95.132 E287.27146
G0 F2400 X46.4 Y95.132
G1 F900 X46.4 Y4.866 E298.0796
G0 F2400 X48 Y4.866
G1 F900 X48 Y95.132 E308.88773
G0 F2400 X49.6 Y95.132
G1 F900 X49.6 Y4.867 E319.69574
G0 F2400 X51.2 Y4.867
G1 F900 X51.2 Y95.132 E330.50376
G0 F2400 X52.8 Y95.131
G1 F900 X52.8 Y4.867 E341.31165
G0 F2400 X54.4 Y4.867
G1 F900 X54.4 Y95.131 E352.11955
G0 F2400 X56 Y95.131
G1 F900 X56 Y4.868 E362.92732
G0 F2400 X57.6 Y4.868
G1 F900 X57.6 Y95.131 E373.7351
G0 F2400 X59.2 Y95.131
G1 F900 X59.2 Y4.868 E384.54287
G0 F2400 X60.8 Y4.868
G1 F900 X60.8 Y95.131 E395.35064
G0 F2400 X62.4 Y95.131
G1 F900 X62.4 Y4.868 E406.15842
G0 F2400 X64 Y4.869
G1 F900 X64 Y95.131 E416.96607
G0 F2400 X65.6 Y95.131
G1 F900 X65.6 Y4.869 E427.77373
G0 F2400 X67.2 Y4.869
G1 F900 X67.2 Y95.131 E438.58138
G0 F2400 X68.8 Y95.131
G1 F900 X68.8 Y4.869 E449.38904
G0 F2400 X70.4 Y4.776
G1 F900 X70.4 Y95.131 E460.20783
G0 F2400 X72 Y95.131
G1 F900 X72 Y4.633 E471.04374
G0 F2400 X73.6 Y4.633
G1 F900 X73.6 Y95.131 E481.87965
G0 F2400 X75.2 Y95.131
G1 F900 X75.2 Y4.666 E492.71161
G0 F2400 X76.8 Y4.892
G1 F900 X76.8 Y95.104 E503.51328
G0 F2400 X78.4 Y94.695
G1 F900 X78.4 Y5.306 E514.21641
G0 F2400 X80 Y6.506
G1 F900 X80 Y93.486 E524.63109
G0 F2400 X77.041 Y4.916
;TIME_ELAPSED:304.670301
;LAYER:-5
G0 X77.041 Y4.916 Z0.66
;TYPE:SUPPORT
G1 F900 X76.892 Y4.897 E524.64607
G1 X76.61 Y4.879 E524.67427
G1 X76.316 Y4.832 E524.70398
G1 X76.31 Y4.86 E524.70683
G1 X75.462 Y4.698 E524.79298
G1 X75.401 Y4.69 E524.79912
G1 X81.297 Y10.586 E525.63111
G1 X81.295 Y11.148 E525.68718
G1 X81.272 Y11.52 E525.72437
G1 X81.232 Y11.835 E525.75606
G1 X81.216 Y11.92 E525.76469
G1 X73.929 Y4.632 E526.79303
G1 X72.515 Y4.632 E526.93412
G1 X81.1 Y13.217 E528.14556
G1 X81.1 Y14.632 E528.28675
G1 X71.128 Y4.66 E529.6939
G1 X71.091 Y4.661 E529.6976
G1 X70.827 Y4.694 E529.72414
G1 X70.402 Y4.775 E529.76731
G1 X69.879 Y4.826 E529.81975
G1 X81.1 Y16.046 E531.40308
G1 X81.1 Y17.46 E531.54417
G1 X68.508 Y4.869 E533.32097
G1 X67.094 Y4.869 E533.46206
G1 X81.1 Y18.874 E535.43838
G1 X81.1 Y20.289 E535.57957
G1 X65.68 Y4.869 E537.7555
G1 X64.265 Y4.868 E537.89669
G1 X81.1 Y21.703 E540.27229
G1 X81.1 Y23.117 E540.41338
G1 X62.851 Y4.868 E542.98851
G1 X61.436 Y4.868 E543.1297
G1 X81.1 Y24.531 E545.90443
G1 X81.1 Y25.945 E546.04552
G1 X60.022 Y4.867 E549.01986
G1 X58.607 Y4.867 E549.16104
G1 X81.1 Y27.36 E552.33505
G1 X81.1 Y28.774 E552.47614
G1 X57.193 Y4.867 E555.84968
G1 X55.779 Y4.867 E555.99076
G1 X81.1 Y30.188 E559.56383
G1 X81.1 Y31.602 E559.70492
G1 X54.364 Y4.867 E563.47759
G1 X52.95 Y4.867 E563.61868
G1 X81.1 Y33.016 E567.59088
G1 X81.1 Y34.431 E567.73207
G1 X51.536 Y4.867 E571.90387
G1 X50.121 Y4.866 E572.04506
G1 X81.1 Y35.845 E576.41653
G1 X81.1 Y37.259 E576.55762
G1 X48.706 Y4.866 E581.12869
G1 X47.292 Y4.866 E581.26978
G1 X81.1 Y38.673 E586.04038
G1 X81.1 Y40.088 E586.18157
G1 X45.877 Y4.865 E591.15192
G1 X44.463 Y4.865 E591.29301
G1 X81.1 Y41.502 E596.46288
G1 X81.1 Y42.916 E596.60397
G1 X43.049 Y4.865 E601.97338
G1 X41.634 Y4.864 E602.11457
G1 X81.1 Y44.33 E607.68365
G1 X81.1 Y45.744 E607.82474
G1 X40.22 Y4.864 E613.59335
G1 X38.806 Y4.864 E613.73444
G1 X81.1 Y47.159 E619.70265
G1 X81.1 Y48.573 E619.84374
G1 X37.391 Y4.864 E626.01155
G1 X35.976 Y4.864 E626.15274
G1 X81.1 Y49.987 E632.52015
G1 X81.1 Y51.401 E632.66124
G1 X34.562 Y4.864 E639.22818
G1 X33.148 Y4.864 E639.36927
G1 X81.1 Y52.815 E646.13575
G1 X81.1 Y54.23 E646.27694
G1 X31.733 Y4.863 E653.24316
G1 X30.319 Y4.863 E653.38424
G1 X81.1 Y55.644 E660.54999
G1 X81.1 Y57.058 E660.69108
G1 X28.905 Y4.863 E668.05636
G1 X28.342 Y4.862 E668.11254
G1 X27.804 Y4.835 E668.16629
G1 X27.395 Y4.768 E668.20764
G1 X81.1 Y58.472 E675.78593
G1 X81.1 Y59.886 E675.92701
G1 X25.14 Y3.927 E683.8235
G1 X25.059 Y3.896 E683.83216
G1 X24.777 Y3.812 E683.86152
G1 X24.516 Y3.749 E683.88831
G1 X24.209 Y3.7 E683.91933
G1 X23.94 Y3.672 E683.94632
G1 X23.641 Y3.658 E683.97618
G1 X23.461 Y3.662 E683.99415
G1 X81.1 Y61.301 E692.12763
G1 X81.1 Y62.715 E692.26872
G1 X22.086 Y3.701 E700.59623
G1 X21.867 Y3.691 E700.61811
G1 X21.488 Y3.667 E700.656
G1 X21.22 Y3.672 E700.68275
G1 X20.917 Y3.695 E700.71307
G1 X20.697 Y3.727 E700.73525
G1 X81.1 Y64.129 E709.2587
G1 X81.1 Y65.543 E709.39979
G1 X19.601 Y4.045 E718.07789
G1 X19.53 Y4.074 E718.08554
G1 X18.749 Y4.446 E718.17186
G1 X18.678 Y4.48 E718.17971
G1 X18.636 Y4.494 E718.18413
G1 X81.1 Y66.958 E726.99848
G1 X81.1 Y68.372 E727.13956
G1 X17.52 Y4.792 E736.11139
G1 X17.358 Y4.823 E736.12785
G1 X16.689 Y4.867 E736.19474
G1 X16.181 Y4.867 E736.24543
G1 X81.1 Y69.786 E745.40621
G1 X81.1 Y71.2 E745.54729
G1 X14.768 Y4.869 E754.90739
G1 X13.64 Y4.869 E755.01994
G1 X13.445 Y4.878 E755.03942
G1 X13.369 Y4.884 E755.04702
G1 X81.1 Y72.614 E764.60453
G1 X81.1 Y74.029 E764.74572
G1 X12.16 Y5.089 E774.4739
G1 X12.116 Y5.101 E774.47845
G1 X11.861 Y5.192 E774.50546
G1 X11.59 Y5.308 E774.53488
G1 X11.334 Y5.439 E774.56357
G1 X11.185 Y5.528 E774.58089
G1 X81.1 Y75.443 E784.44665
G1 X81.1 Y76.857 E784.58774
G1 X10.376 Y6.134 E794.56759
G1 X10.325 Y6.178 E794.57431
G1 X10.115 Y6.381 E794.60345
G1 X9.693 Y6.864 E794.66745
G1 X81.1 Y78.271 E804.74375
G1 X81.1 Y79.685 E804.88484
G1 X9.151 Y7.737 E815.03755
G1 X9.09 Y7.867 E815.05188
G1 X8.978 Y8.145 E815.08178
G1 X8.894 Y8.403 E815.10886
G1 X8.821 Y8.683 E815.13773
G1 X8.799 Y8.799 E815.14951
G1 X81.1 Y81.1 E825.35196
G1 X81.1 Y82.514 E825.49305
G1 X8.703 Y10.117 E835.70905
G1 X8.7 Y11.054 E835.80255
G1 X8.71 Y11.358 E835.8329
G1 X8.729 Y11.558 E835.85294
G1 X81.1 Y83.928 E846.0652
G1 X81.1 Y85.342 E846.20629
G1 X8.9 Y13.142 E856.39449
G1 X8.9 Y14.557 E856.53568
G1 X81.1 Y86.757 E866.72388
G1 X81.1 Y86.967 E866.74483
G1 X81.141 Y87.631 E866.81121
G1 X81.225 Y88.118 E866.86052
G1 X81.255 Y88.326 E866.88149
G1 X8.9 Y15.971 E877.09157
G1 X8.9 Y17.385 E877.23265
G1 X81.298 Y89.783 E887.44879
G1 X81.296 Y90.345 E887.50487
G1 X81.272 Y90.721 E887.54247
G1 X81.235 Y91.02 E887.57253
G1 X81.216 Y91.116 E887.58229
G1 X8.9 Y18.799 E897.78693
G1 X8.9 Y20.214 E897.92812
G1 X80.88 Y92.193 E908.08521
G1 X80.786 Y92.39 E908.10699
G1 X80.642 Y92.649 E908.13655
G1 X80.504 Y92.868 E908.16238
G1 X80.349 Y93.077 E908.18835
G1 X8.9 Y21.628 E918.27057
G1 X8.9 Y23.042 E918.41166
G1 X79.676 Y93.818 E928.39892
G1 X79.381 Y94.077 E928.43809
G1 X79.164 Y94.246 E928.46553
G1 X78.933 Y94.402 E928.49335
G1 X78.877 Y94.434 E928.49978
G1 X8.9 Y24.456 E938.37436
G1 X8.9 Y25.87 E938.51545
G1 X77.914 Y94.885 E948.25414
G1 X77.874 Y94.9 E948.25841
G1 X77.6 Y94.98 E948.28689
G1 X77.329 Y95.037 E948.31452
G1 X77.008 Y95.086 E948.34692
G1 X76.723 Y95.107 E948.37544
G1 X8.9 Y27.285 E957.94592
G1 X8.9 Y28.699 E958.08701
G1 X75.33 Y95.129 E967.461
G1 X73.915 Y95.129 E967.60219
G1 X8.9 Y30.113 E976.77658
G1 X8.9 Y31.527 E976.91767
G1 X72.501 Y95.129 E985.89253
G1 X71.087 Y95.129 E986.03362
G1 X8.9 Y32.941 E994.80895
G1 X8.9 Y34.356 E994.95014
G1 X69.673 Y95.129 E1003.52586
G1 X68.259 Y95.129 E1003.66695
G1 X8.9 Y35.77 E1012.04315
G1 X8.9 Y37.184 E1012.18424
G1 X66.844 Y95.129 E1020.36083
G1 X65.43 Y95.129 E1020.50192
G1 X8.9 Y38.598 E1028.47899
G1 X8.9 Y40.013 E1028.62018
G1 X64.016 Y95.129 E1036.39764
G1 X62.602 Y95.129 E1036.53873
G1 X8.9 Y41.427 E1044.11666
G1 X8.9 Y42.841 E1044.25775
G1 X61.188 Y95.129 E1051.63615
G1 X59.774 Y95.129 E1051.77724
G1 X8.9 Y44.255 E1058.95611
G1 X8.9 Y45.669 E1059.0972
G1 X58.36 Y95.129 E1066.07654
G1 X56.946 Y95.129 E1066.21763
G1 X8.9 Y47.084 E1072.99737
G1 X8.9 Y48.498 E1073.13846
G1 X55.531 Y95.129 E1079.7186
G1 X54.117 Y95.129 E1079.85969
G1 X8.9 Y49.912 E1086.24029
G1 X8.9 Y51.326 E1086.38138
G1 X52.703 Y95.129 E1092.56246
G1 X51.289 Y95.129 E1092.70355
G1 X8.9 Y52.74 E1098.6851
G1 X8.9 Y54.155 E1098.82629
G1 X49.875 Y95.129 E1104.60823
G1 X48.46 Y95.129 E1104.74942
G1 X8.9 Y55.569 E1110.33176
G1 X8.9 Y56.983 E1110.47285
G1 X47.046 Y95.129 E1115.85566
G1 X45.632 Y95.129 E1115.99675
G1 X8.9 Y58.397 E1121.18004
G1 X8.9 Y59.812 E1121.32123
G1 X44.218 Y95.13 E1126.30498
G1 X42.804 Y95.13 E1126.44607
G1 X8.9 Y61.226 E1131.23029
G1 X8.9 Y62.64 E1131.37138
G1 X41.39 Y95.13 E1135.95607
G1 X39.976 Y95.13 E1136.09716
G1 X8.9 Y64.054 E1140.48232
G1 X8.9 Y65.468 E1140.6234
G1 X38.562 Y95.13 E1144.80903
G1 X37.147 Y95.13 E1144.95022
G1 X8.9 Y66.883 E1148.93618
G1 X8.9 Y68.297 E1149.07727
G1 X35.733 Y95.13 E1152.86369
G1 X34.319 Y95.13 E1153.00478
G1 X8.9 Y69.711 E1156.59168
G1 X8.9 Y71.125 E1156.73277
G1 X32.905 Y95.13 E1160.12013
G1 X31.491 Y95.13 E1160.26122
G1 X8.9 Y72.539 E1163.44906
G1 X8.9 Y73.954 E1163.59025
G1 X30.076 Y95.13 E1166.57841
G1 X28.662 Y95.13 E1166.7195
G1 X8.9 Y75.368 E1169.50813
G1 X8.9 Y76.782 E1169.64922
G1 X27.343 Y95.226 E1172.2518
G1 X26.952 Y95.302 E1172.29154
G1 X26.302 Y95.515 E1172.35979
G1 X26.245 Y95.542 E1172.36609
G1 X8.9 Y78.196 E1174.81372
G1 X8.9 Y79.611 E1174.95491
G1 X25.281 Y95.991 E1177.26638
G1 X25.145 Y96.047 E1177.28105
G1 X24.859 Y96.139 E1177.31103
G1 X24.598 Y96.207 E1177.33794
G1 X24.301 Y96.264 E1177.36812
G1 X24.158 Y96.283 E1177.38251
G1 X8.9 Y81.025 E1179.53558
G1 X8.9 Y82.439 E1179.67667
G1 X22.738 Y96.277 E1181.62936
