;FLAVOR:Marlin
;TIME:21952
;Filament used: 15.7905m
;Layer height: 0.2
;Generated with Cura_SteamEngine 3.6.0
M104 S200
M105
M109 S200
M82 ;absolute extrusion mode
G28 ;Home
G1 Z15.0 F6000 ;Move the platform down 15mm
;Prime the extruder
G92 E0
G1 F200 E3
G92 E0
G92 E0
G1 F1500 E-6.5
;LAYER_COUNT:316
;LAYER:-6
M107
G0 F2400 X9.504 Y7.121 Z0.36
;TYPE:SUPPORT-INTERFACE
G1 F1500 E0
G1 F900 X9.694 Y6.865 E0.03817
G1 X10.116 Y6.382 E0.11497
G1 X10.326 Y6.179 E0.14994
G1 X10.621 Y5.92 E0.19695
G1 X10.836 Y5.753 E0.22954
G1 X11.067 Y5.597 E0.26292
G1 X11.335 Y5.439 E0.30017
G1 X11.592 Y5.309 E0.33465
G1 X11.862 Y5.193 E0.36984
G1 X12.118 Y5.101 E0.40241
G1 X12.41 Y5.017 E0.43879
G1 X12.671 Y4.961 E0.47076
G1 X12.991 Y4.913 E0.5095
G1 X13.459 Y4.877 E0.5657
G1 X13.651 Y4.87 E0.58871
G1 X61.701 Y4.868 E6.34205
G1 X62.369 Y4.826 E6.42219
G1 X63.04 Y4.697 E6.504
G1 X63.69 Y4.484 E6.5859
G1 X64.59 Y4.054 E6.70533
G1 X64.843 Y3.952 E6.738
G1 X65.116 Y3.863 E6.77238
G1 X65.415 Y3.785 E6.80938
G1 X65.679 Y3.734 E6.84157
G1 X66.002 Y3.692 E6.88057
G1 X66.26 Y3.675 E6.91153
G1 X66.572 Y3.674 E6.94889
G1 X67.446 Y3.729 E7.05375
G1 X67.978 Y3.703 E7.11752
G1 X68.286 Y3.673 E7.15457
G1 X68.562 Y3.664 E7.18764
G1 X68.867 Y3.673 E7.22418
G1 X69.148 Y3.699 E7.25796
G1 X69.441 Y3.745 E7.29348
G1 X69.716 Y3.807 E7.32723
G1 X70.009 Y3.892 E7.36376
G1 X70.256 Y3.981 E7.3952
G1 X71.063 Y4.332 E7.50057
G1 X71.07 Y4.316 E7.50266
G1 X71.586 Y4.479 E7.56745
G1 X72.257 Y4.599 E7.64907
G1 X72.867 Y4.634 E7.72223
G1 X74.632 Y4.633 E7.93357
G1 X75.166 Y4.661 E7.99759
G1 X75.462 Y4.698 E8.03331
G1 X76.287 Y4.856 E8.13389
G1 X76.289 Y4.847 E8.13499
G1 X76.623 Y4.88 E8.17518
G1 X76.893 Y4.897 E8.20757
G1 X77.191 Y4.934 E8.24353
G1 X77.475 Y4.989 E8.27816
G1 X77.766 Y5.065 E8.31418
G1 X78.024 Y5.149 E8.34666
G1 X78.303 Y5.26 E8.38262
G1 X78.561 Y5.382 E8.41679
G1 X78.82 Y5.526 E8.45227
G1 X79.039 Y5.665 E8.48333
G1 X79.305 Y5.863 E8.52303
G1 X79.788 Y6.285 E8.59983
G1 X79.991 Y6.495 E8.6348
G1 X80.25 Y6.79 E8.68181
G1 X80.417 Y7.005 E8.71441
G1 X80.573 Y7.236 E8.74778
G1 X80.731 Y7.504 E8.78503
G1 X80.863 Y7.763 E8.81984
G1 X80.966 Y8.002 E8.851
G1 X81.071 Y8.295 E8.88827
G1 X81.153 Y8.579 E8.92366
G1 X81.209 Y8.839 E8.95551
G1 X81.257 Y9.16 E8.99437
G1 X81.293 Y9.621 E9.04974
G1 X81.3 Y9.806 E9.0719
G1 X81.296 Y11.149 E9.23271
G1 X81.273 Y11.52 E9.27722
G1 X81.233 Y11.835 E9.31524
G1 X81.193 Y12.05 E9.34142
G1 X81.1 Y13.027 E9.45893
G1 X81.1 Y86.968 E18.31237
G1 X81.142 Y87.632 E18.39203
G1 X81.226 Y88.119 E18.45121
G1 X81.27 Y88.432 E18.48905
G1 X81.289 Y88.641 E18.51418
G1 X81.3 Y88.944 E18.55048
G1 X81.296 Y90.346 E18.71836
G1 X81.272 Y90.723 E18.76359
G1 X81.235 Y91.021 E18.79954
G1 X81.18 Y91.305 E18.83418
G1 X81.104 Y91.596 E18.87019
G1 X81.02 Y91.854 E18.90268
G1 X80.912 Y92.126 E18.93772
G1 X80.787 Y92.391 E18.97281
G1 X80.643 Y92.65 E19.00829
G1 X80.504 Y92.869 E19.03935
G1 X80.306 Y93.135 E19.07905
G1 X79.884 Y93.618 E19.15585
G1 X79.674 Y93.821 E19.19082
G1 X79.381 Y94.078 E19.23749
G1 X79.164 Y94.247 E19.27042
G1 X78.933 Y94.403 E19.30379
G1 X78.665 Y94.561 E19.34105
G1 X78.408 Y94.691 E19.37553
G1 X78.14 Y94.806 E19.41045
G1 X77.874 Y94.901 E19.44427
G1 X77.6 Y94.981 E19.47845
G1 X77.333 Y95.039 E19.51116
G1 X76.998 Y95.088 E19.5517
G1 X76.554 Y95.122 E19.60502
G1 X76.359 Y95.13 E19.62839
G1 X73.312 Y95.133 E19.99323
G1 X72.643 Y95.176 E20.07349
G1 X71.973 Y95.305 E20.15519
G1 X71.322 Y95.52 E20.23728
G1 X71.25 Y95.555 E20.24687
G1 X71.245 Y95.545 E20.24821
G1 X70.477 Y95.923 E20.3507
G1 X70.192 Y96.042 E20.38768
G1 X69.944 Y96.127 E20.41907
G1 X69.646 Y96.209 E20.45608
G1 X69.371 Y96.266 E20.4897
G1 X69.082 Y96.307 E20.52465
G1 X68.779 Y96.33 E20.56104
G1 X68.511 Y96.335 E20.59313
G1 X68.115 Y96.309 E20.64065
G1 X67.452 Y96.278 E20.72012
G1 X67.059 Y96.297 E20.76723
G1 X66.656 Y96.333 E20.81568
G1 X66.354 Y96.34 E20.85185
G1 X66.055 Y96.327 E20.88769
G1 X65.778 Y96.299 E20.92102
G1 X65.481 Y96.249 E20.95708
G1 X65.215 Y96.186 E20.98981
G1 X64.932 Y96.101 E21.0252
G1 X64.657 Y95.999 E21.06032
G1 X64.385 Y95.877 E21.09601
G1 X64.136 Y95.747 E21.12964
G1 X63.523 Y95.474 E21.20999
G1 X62.87 Y95.278 E21.29162
G1 X62.2 Y95.165 E21.37298
G1 X61.655 Y95.137 E21.43832
G1 X20.578 Y95.131 E26.35674
G1 X19.597 Y95.224 E26.47473
G1 X19.172 Y95.305 E26.52653
G1 X18.908 Y95.338 E26.55839
G1 X18.359 Y95.367 E26.62422
G1 X15.671 Y95.367 E26.94607
G1 X15.171 Y95.339 E27.00603
G1 X14.863 Y95.301 E27.04319
G1 X14.455 Y95.222 E27.09295
G1 X13.629 Y95.131 E27.19245
G1 X13.108 Y95.103 E27.25492
G1 X12.809 Y95.066 E27.29099
G1 X12.525 Y95.011 E27.32563
G1 X12.234 Y94.935 E27.36164
G1 X11.974 Y94.85 E27.3944
G1 X11.697 Y94.74 E27.43008
G1 X11.438 Y94.617 E27.46441
G1 X11.18 Y94.474 E27.49973
G1 X10.961 Y94.335 E27.53079
G1 X10.695 Y94.137 E27.5705
G1 X10.212 Y93.715 E27.64729
G1 X10.001 Y93.496 E27.68371
G1 X9.75 Y93.21 E27.72927
G1 X9.583 Y92.995 E27.76187
G1 X9.423 Y92.758 E27.79611
G1 X9.269 Y92.496 E27.83249
G1 X9.139 Y92.239 E27.86698
G1 X9.023 Y91.969 E27.90217
G1 X8.931 Y91.713 E27.93474
G1 X8.847 Y91.421 E27.97112
G1 X8.791 Y91.16 E28.00308
G1 X8.743 Y90.84 E28.04183
G1 X8.706 Y90.362 E28.09923
G1 X8.7 Y90.194 E28.11936
G1 X8.704 Y88.847 E28.28064
G1 X8.727 Y88.48 E28.32467
G1 X8.767 Y88.165 E28.36269
G1 X8.807 Y87.95 E28.38888
G1 X8.9 Y86.973 E28.50639
G1 X8.9 Y13.032 E37.35983
G1 X8.858 Y12.368 E37.43949
G1 X8.774 Y11.881 E37.49866
G1 X8.73 Y11.568 E37.53651
G1 X8.711 Y11.359 E37.56164
G1 X8.7 Y11.056 E37.59794
G1 X8.704 Y9.654 E37.76581
G1 X8.728 Y9.277 E37.81104
G1 X8.765 Y8.982 E37.84664
G1 X8.822 Y8.684 E37.88297
G1 X8.896 Y8.404 E37.91765
G1 X8.98 Y8.146 E37.95014
G1 X9.091 Y7.867 E37.98609
G1 X9.213 Y7.609 E38.02026
G1 X9.352 Y7.359 E38.05451
G1 X9.504 Y7.121 E38.08833
G0 F2400 X9.6 Y6.991
G1 F900 X9.6 Y93.016 E48.38866
G0 F2400 X11.2 Y94.485
G1 F900 X11.2 Y5.518 E59.04125
G0 F2400 X12.8 Y4.941
G1 F900 X12.8 Y95.064 E69.83226
G0 F2400 X14.4 Y95.215
G1 F900 X14.4 Y4.869 E80.64998
G0 F2400 X16 Y4.869
G1 F900 X16 Y95.367 E91.48589
G0 F2400 X17.6 Y95.367
G1 F900 X17.6 Y4.869 E102.3218
G0 F2400 X19.2 Y4.869
G1 F900 X19.2 Y95.3 E113.14969
G0 F2400 X20.8 Y95.131
G1 F900 X20.8 Y4.869 E123.95735
G0 F2400 X22.4 Y4.869
G1 F900 X22.4 Y95.131 E134.765
G0 F2400 X24 Y95.131
G1 F900 X24 Y4.869 E145.57266
G0 F2400 X25.6 Y4.869
G1 F900 X25.6 Y95.131 E156.38031
G0 F2400 X27.2 Y95.131
G1 F900 X27.2 Y4.869 E167.18797
G0 F2400 X28.8 Y4.869
G1 F900 X28.8 Y95.132 E177.99574
G0 F2400 X30.4 Y95.132
G1 F900 X30.4 Y4.869 E188.80351
G0 F2400 X32 Y4.869
G1 F900 X32 Y95.132 E199.61129
G0 F2400 X33.6 Y95.132
G1 F900 X33.6 Y4.869 E210.41906
G0 F2400 X35.2 Y4.869
G1 F900 X35.2 Y95.133 E221.22696
G0 F2400 X36.8 Y95.133
G1 F900 X36.8 Y4.869 E232.03485
G0 F2400 X38.4 Y4.868
G1 F900 X38.4 Y95.133 E242.84287
G0 F2400 X40 Y95.133
G1 F900 X40 Y4.868 E253.65088
G0 F2400 X41.6 Y4.868
G1 F900 X41.6 Y95.134 E264.45901
G0 F2400 X43.2 Y95.134
G1 F900 X43.2 Y4.868 E275.26715
G0 F2400 X44.8 Y4.868
G1 F900 X44.8 Y95.134 E286.07528
G0 F2400 X46.4 Y95.134
G1 F900 X46.4 Y4.868 E296.88341
G0 F2400 X48 Y4.868
G1 F900 X48 Y95.135 E307.69167
G0 F2400 X49.6 Y95.135
G1 F900 X49.6 Y4.868 E318.49992
G0 F2400 X51.2 Y4.868
G1 F900 X51.2 Y95.135 E329.30817
G0 F2400 X52.8 Y95.135
G1 F900 X52.8 Y4.868 E340.11643
G0 F2400 X54.4 Y4.868
G1 F900 X54.4 Y95.135 E350.92468
G0 F2400 X56 Y95.136
G1 F900 X56 Y4.868 E361.73305
G0 F2400 X57.6 Y4.868
G1 F900 X57.6 Y95.136 E372.54143
G0 F2400 X59.2 Y95.136
G1 F900 X59.2 Y4.868 E383.3498
G0 F2400 X60.8 Y4.868
G1 F900 X60.8 Y95.136 E394.15817
G0 F2400 X62.4 Y95.198
G1 F900 X62.4 Y4.82 E404.97972
G0 F2400 X64 Y4.335
G1 F900 X64 Y95.686 E415.91777
G0 F2400 X65.6 Y96.269
G1 F900 X65.6 Y3.749 E426.99578
G0 F2400 X67.2 Y3.714
G1 F900 X67.2 Y96.291 E438.08063
G0 F2400 X68.8 Y96.329
G1 F900 X68.8 Y3.672 E449.17505
G0 F2400 X70.4 Y4.044
G1 F900 X70.4 Y95.956 E460.18027
G0 F2400 X72 Y95.3
G1 F900 X72 Y4.554 E471.04588
G0 F2400 X73.6 Y4.633
G1 F900 X73.6 Y95.133 E481.88203
G0 F2400 X75.2 Y95.132
G1 F900 X75.2 Y4.666 E492.71411
G0 F2400 X76.8 Y4.892
G1 F900 X76.8 Y95.104 E503.51578
G0 F2400 X78.4 Y94.695
G1 F900 X78.4 Y5.306 E514.21891
G0 F2400 X80 Y6.506
G1 F900 X80 Y93.486 E524.63359
G0 F2400 X77.04 Y4.915
;TIME_ELAPSED:304.672140
;LAYER:-5
G0 X77.04 Y4.915 Z0.66
;TYPE:SUPPORT
G1 F900 X76.892 Y4.897 E524.64846
G1 X76.622 Y4.88 E524.67546
G1 X76.286 Y4.855 E524.70907
G1 X75.461 Y4.698 E524.79287
G1 X75.401 Y4.69 E524.79891
G1 X81.297 Y10.586 E525.6309
G1 X81.295 Y11.148 E525.68698
G1 X81.272 Y11.52 E525.72417
G1 X81.232 Y11.835 E525.75585
G1 X81.216 Y11.92 E525.76448
G1 X73.93 Y4.633 E526.79268
G1 X72.866 Y4.633 E526.89885
G1 X72.495 Y4.613 E526.93592
G1 X81.099 Y13.217 E528.15004
G1 X81.099 Y14.631 E528.29113
G1 X70.598 Y4.13 E529.77293
G1 X70.255 Y3.981 E529.81025
G1 X70.007 Y3.891 E529.83657
G1 X69.715 Y3.807 E529.86689
G1 X69.44 Y3.744 E529.89504
G1 X69.147 Y3.698 E529.92463
G1 X68.866 Y3.672 E529.95279
G1 X68.723 Y3.669 E529.96706
G1 X81.099 Y16.045 E531.71345
G1 X81.099 Y17.459 E531.85454
G1 X67.363 Y3.724 E533.79277
G1 X66.571 Y3.674 E533.87195
G1 X66.259 Y3.674 E533.90308
G1 X66.001 Y3.692 E533.92889
G1 X65.927 Y3.702 E533.93634
G1 X81.099 Y18.874 E536.07727
G1 X81.099 Y20.288 E536.21836
G1 X64.786 Y3.975 E538.5203
G1 X64.589 Y4.053 E538.54144
G1 X63.819 Y4.422 E538.62664
G1 X81.099 Y21.702 E541.06504
G1 X81.099 Y23.116 E541.20613
G1 X62.738 Y4.755 E543.79706
G1 X62.368 Y4.826 E543.83465
G1 X61.7 Y4.868 E543.90144
G1 X61.437 Y4.869 E543.92768
G1 X81.099 Y24.53 E546.70213
G1 X81.099 Y25.945 E546.84332
G1 X60.023 Y4.869 E549.81737
G1 X58.609 Y4.869 E549.95846
G1 X81.099 Y27.359 E553.13204
G1 X81.099 Y28.773 E553.27313
G1 X57.195 Y4.869 E556.64625
G1 X55.78 Y4.869 E556.78743
G1 X81.099 Y30.187 E560.36015
G1 X81.099 Y31.602 E560.50134
G1 X54.366 Y4.869 E564.27365
G1 X52.952 Y4.869 E564.41474
G1 X81.099 Y33.016 E568.38659
G1 X81.099 Y34.43 E568.52768
G1 X51.538 Y4.869 E572.69905
G1 X50.123 Y4.869 E572.84024
G1 X81.099 Y35.844 E577.21122
G1 X81.099 Y37.258 E577.35231
G1 X48.709 Y4.869 E581.92282
G1 X47.295 Y4.869 E582.06391
G1 X81.099 Y38.673 E586.83402
G1 X81.099 Y40.087 E586.97511
G1 X45.881 Y4.869 E591.94475
G1 X44.467 Y4.869 E592.08584
G1 X81.099 Y41.501 E597.25501
G1 X81.099 Y42.915 E597.3961
G1 X43.052 Y4.869 E602.76487
G1 X41.638 Y4.869 E602.90596
G1 X81.099 Y44.329 E608.47426
G1 X81.099 Y45.744 E608.61545
G1 X40.224 Y4.869 E614.38336
G1 X38.81 Y4.869 E614.52444
G1 X81.099 Y47.158 E620.49188
G1 X81.099 Y48.572 E620.63297
G1 X37.396 Y4.869 E626.79993
G1 X35.982 Y4.869 E626.94102
G1 X81.099 Y49.986 E633.30752
G1 X81.1 Y51.401 E633.44871
G1 X34.568 Y4.869 E640.01488
G1 X33.154 Y4.869 E640.15597
G1 X81.1 Y52.815 E646.92166
G1 X81.1 Y54.23 E647.06285
G1 X31.739 Y4.869 E654.02822
G1 X30.325 Y4.869 E654.16931
G1 X81.1 Y55.644 E661.33421
G1 X81.1 Y57.058 E661.4753
G1 X28.911 Y4.869 E668.83974
G1 X27.497 Y4.869 E668.98083
G1 X81.1 Y58.472 E676.54479
G1 X81.1 Y59.886 E676.68588
G1 X26.083 Y4.869 E684.44937
G1 X24.668 Y4.869 E684.59056
G1 X81.1 Y61.301 E692.55372
G1 X81.1 Y62.715 E692.69481
G1 X23.254 Y4.869 E700.85751
G1 X21.84 Y4.869 E700.9986
G1 X81.1 Y64.129 E709.36083
G1 X81.1 Y65.543 E709.50191
G1 X20.426 Y4.869 E718.06367
G1 X19.011 Y4.869 E718.20486
G1 X81.1 Y66.958 E726.96629
G1 X81.1 Y68.372 E727.10738
G1 X17.597 Y4.869 E736.06834
G1 X16.183 Y4.869 E736.20943
G1 X81.1 Y69.786 E745.36992
G1 X81.1 Y71.2 E745.51101
G1 X14.769 Y4.869 E754.87103
G1 X13.65 Y4.869 E754.98268
G1 X13.458 Y4.876 E755.00185
G1 X13.369 Y4.883 E755.01076
G1 X81.1 Y72.614 E764.56834
G1 X81.1 Y74.029 E764.70953
G1 X12.16 Y5.089 E774.4377
G1 X12.116 Y5.101 E774.44225
G1 X11.861 Y5.192 E774.46927
G1 X11.59 Y5.308 E774.49868
G1 X11.334 Y5.439 E774.52738
G1 X11.185 Y5.528 E774.5447
G1 X81.1 Y75.443 E784.41046
G1 X81.1 Y76.857 E784.55155
G1 X10.376 Y6.134 E794.5314
G1 X10.325 Y6.178 E794.53812
G1 X10.115 Y6.381 E794.56726
G1 X9.693 Y6.864 E794.63126
G1 X81.1 Y78.271 E804.70756
G1 X81.1 Y79.685 E804.84865
G1 X9.151 Y7.737 E815.00136
G1 X9.09 Y7.867 E815.01569
G1 X8.978 Y8.145 E815.04559
G1 X8.894 Y8.403 E815.07267
G1 X8.821 Y8.683 E815.10154
G1 X8.799 Y8.799 E815.11332
G1 X81.1 Y81.1 E825.31577
G1 X81.1 Y82.514 E825.45686
G1 X8.703 Y10.117 E835.67286
G1 X8.7 Y11.054 E835.76635
G1 X8.71 Y11.358 E835.7967
G1 X8.728 Y11.556 E835.81654
G1 X81.1 Y83.928 E846.02901
G1 X81.1 Y85.342 E846.1701
G1 X8.9 Y13.142 E856.3583
G1 X8.9 Y14.557 E856.49949
G1 X81.1 Y86.757 E866.68769
G1 X81.1 Y86.967 E866.70864
G1 X81.141 Y87.631 E866.77502
G1 X81.225 Y88.118 E866.82434
G1 X81.255 Y88.326 E866.8453
G1 X8.9 Y15.971 E877.05538
G1 X8.9 Y17.385 E877.19647
G1 X81.298 Y89.783 E887.41261
G1 X81.296 Y90.345 E887.46868
G1 X81.272 Y90.721 E887.50628
G1 X81.235 Y91.02 E887.53634
G1 X81.216 Y91.116 E887.5461
G1 X8.9 Y18.799 E897.75074
G1 X8.9 Y20.214 E897.89193
G1 X80.88 Y92.193 E908.04902
G1 X80.786 Y92.39 E908.0708
G1 X80.642 Y92.649 E908.10037
G1 X80.504 Y92.868 E908.12619
G1 X80.349 Y93.077 E908.15216
G1 X8.9 Y21.628 E918.23438
G1 X8.9 Y23.042 E918.37547
G1 X79.676 Y93.818 E928.36273
G1 X79.381 Y94.077 E928.4019
G1 X79.164 Y94.246 E928.42934
G1 X78.933 Y94.402 E928.45716
G1 X78.877 Y94.434 E928.46359
G1 X8.9 Y24.456 E938.33817
G1 X8.9 Y25.87 E938.47926
G1 X77.914 Y94.885 E948.21796
G1 X77.874 Y94.9 E948.22222
G1 X77.6 Y94.98 E948.2507
G1 X77.332 Y95.038 E948.27806
G1 X76.998 Y95.087 E948.31174
G1 X76.723 Y95.107 E948.33926
G1 X8.9 Y27.285 E957.90974
G1 X8.9 Y28.699 E958.05083
G1 X75.331 Y95.13 E967.42496
G1 X73.918 Y95.131 E967.56595
G1 X8.9 Y30.113 E976.7407
G1 X8.9 Y31.527 E976.88179
G1 X72.562 Y95.19 E985.86525
G1 X71.972 Y95.304 E985.92521
G1 X71.438 Y95.48 E985.98131
G1 X8.9 Y32.941 E994.80617
G1 X8.9 Y34.356 E994.94736
G1 X70.469 Y95.925 E1003.63541
G1 X70.192 Y96.041 E1003.66538
G1 X69.943 Y96.126 E1003.69163
G1 X69.646 Y96.208 E1003.72237
G1 X69.391 Y96.261 E1003.74836
G1 X8.9 Y35.77 E1012.28429
G1 X8.9 Y37.184 E1012.42538
G1 X68.019 Y96.303 E1020.76771
G1 X67.451 Y96.277 E1020.82445
G1 X67.059 Y96.296 E1020.86361
G1 X66.656 Y96.331 E1020.90397
G1 X66.633 Y96.331 E1020.90627
G1 X8.9 Y38.598 E1029.05302
G1 X8.9 Y40.013 E1029.1942
G1 X65.01 Y96.123 E1037.11193
G1 X64.932 Y96.1 E1037.12005
G1 X64.656 Y95.998 E1037.14941
G1 X64.384 Y95.876 E1037.17915
G1 X64.135 Y95.746 E1037.20718
G1 X63.522 Y95.472 E1037.27418
G1 X62.87 Y95.276 E1037.34211
G1 X62.725 Y95.252 E1037.35677
G1 X8.9 Y41.427 E1044.95206
G1 X8.9 Y42.841 E1045.09315
G1 X61.194 Y95.135 E1052.4724
G1 X59.78 Y95.135 E1052.61349
G1 X8.9 Y44.255 E1059.79321
G1 X8.9 Y45.669 E1059.9343
G1 X58.366 Y95.135 E1066.91448
G1 X56.951 Y95.134 E1067.05567
G1 X8.9 Y47.084 E1073.83612
G1 X8.9 Y48.498 E1073.97721
G1 X55.536 Y95.134 E1080.55805
G1 X54.122 Y95.134 E1080.69914
G1 X8.9 Y49.912 E1087.08045
G1 X8.9 Y51.326 E1087.22154
G1 X52.708 Y95.134 E1093.40332
G1 X51.293 Y95.134 E1093.54451
G1 X8.9 Y52.74 E1099.52669
G1 X8.9 Y54.155 E1099.66788
G1 X49.879 Y95.134 E1105.45046
G1 X48.465 Y95.134 E1105.59155
G1 X8.9 Y55.569 E1111.1746
G1 X8.9 Y56.983 E1111.31569
G1 X47.05 Y95.133 E1116.69907
G1 X45.635 Y95.133 E1116.84026
G1 X8.9 Y58.397 E1122.02403
G1 X8.9 Y59.812 E1122.16522
G1 X44.221 Y95.133 E1127.1494
G1 X42.806 Y95.132 E1127.29059
G1 X8.9 Y61.226 E1132.07509
G1 X8.9 Y62.64 E1132.21618
G1 X41.392 Y95.132 E1136.80115
G1 X39.978 Y95.132 E1136.94224
G1 X8.9 Y64.054 E1141.32768
G1 X8.9 Y65.468 E1141.46877
G1 X38.563 Y95.132 E1145.65461
G1 X37.149 Y95.132 E1145.7957
G1 X8.9 Y66.883 E1149.78194
G1 X8.9 Y68.297 E1149.92303
G1 X35.735 Y95.132 E1153.70974
G1 X34.32 Y95.132 E1153.85093
G1 X8.9 Y69.711 E1157.43804
G1 X8.9 Y71.125 E1157.57912
G1 X32.905 Y95.131 E1160.96656
G1 X31.491 Y95.131 E1161.10765
G1 X8.9 Y72.539 E1164.29555
G1 X8.9 Y73.954 E1164.43674
G1 X30.077 Y95.131 E1167.42505
G1 X28.662 Y95.13 E1167.56624
G1 X8.9 Y75.368 E1170.35487
G1 X8.9 Y76.782 E1170.49596
G1 X27.248 Y95.13 E1173.08506
G1 X25.834 Y95.13 E1173.22615
G1 X8.9 Y78.196 E1175.61572
G1 X8.9 Y79.611 E1175.75691
G1 X24.419 Y95.129 E1177.94674
G1 X23.005 Y95.129 E1178.08782
G1 X8.9 Y81.025 E1180.07812
