;FLAVOR:Marlin
;TIME:1356
;Filament used: 1.00187m
;Layer height: 0.2
;Generated with Cura_SteamEngine 3.6.0
M104 S200
M105
M109 S200
M82 ;absolute extrusion mode
G28 ;Home
G1 Z15.0 F6000 ;Move the platform down 15mm
;Prime the extruder
G92 E0
G1 F200 E3
G92 E0
G92 E0
G1 F1500 E-6.5
;LAYER_COUNT:30
;LAYER:-6
M107
G0 F2400 X34.475 Y35.058 Z0.36
;TYPE:SUPPORT-INTERFACE
G1 F1500 E0
G1 F900 X34.681 Y34.874 E0.03307
G1 X34.937 Y34.674 E0.07197
G1 X35.444 Y34.338 E0.1448
G1 X36.377 Y33.807 E0.27334
G1 X36.711 Y33.642 E0.31794
G1 X36.986 Y33.529 E0.35354
G1 X37.239 Y33.442 E0.38558
G1 X37.528 Y33.362 E0.42148
G1 X37.82 Y33.301 E0.4572
G1 X38.104 Y33.261 E0.49154
G1 X38.681 Y33.225 E0.56076
G1 X39.268 Y33.244 E0.63109
G1 X39.268 Y33.224 E0.63348
G1 X39.462 Y33.222 E0.65671
G1 X40.14 Y33.129 E0.73865
G1 X40.799 Y32.951 E0.82039
G1 X41.429 Y32.691 E0.90199
G1 X41.565 Y32.614 E0.9207
G1 X41.572 Y32.629 E0.92269
G1 X42.113 Y32.298 E0.99863
G1 X42.55 Y32.079 E1.05715
G1 X42.845 Y31.957 E1.09538
G1 X43.1 Y31.87 E1.12764
G1 X43.379 Y31.794 E1.16226
G1 X43.684 Y31.732 E1.19953
G1 X43.938 Y31.697 E1.23023
G1 X44.307 Y31.668 E1.27455
G1 X45.184 Y31.651 E1.37958
G1 X45.63 Y31.661 E1.43299
G1 X46.132 Y31.705 E1.49333
G1 X46.409 Y31.748 E1.52689
G1 X46.709 Y31.817 E1.56375
G1 X46.97 Y31.892 E1.59627
G1 X47.285 Y32.007 E1.63642
G1 X47.498 Y32.099 E1.6642
G1 X47.876 Y32.291 E1.71497
G1 X48.314 Y32.557 E1.77633
G1 X48.321 Y32.55 E1.77751
G1 X48.574 Y32.693 E1.81231
G1 X49.205 Y32.953 E1.89402
G1 X49.865 Y33.13 E1.97584
G1 X50.541 Y33.223 E2.05755
G1 X50.74 Y33.224 E2.08138
G1 X50.74 Y33.243 E2.08365
G1 X51.348 Y33.225 E2.15648
G1 X51.815 Y33.252 E2.21249
G1 X52.113 Y33.289 E2.24845
G1 X52.397 Y33.344 E2.28308
G1 X52.688 Y33.42 E2.3191
G1 X52.961 Y33.509 E2.35348
G1 X53.211 Y33.608 E2.38567
G1 X53.615 Y33.799 E2.43918
G1 X54.051 Y34.037 E2.49866
G1 X54.742 Y34.452 E2.59517
G1 X55.058 Y34.668 E2.641
G1 X55.286 Y34.845 E2.67556
G1 X55.492 Y35.027 E2.70848
G1 X55.701 Y35.238 E2.74404
G1 X55.916 Y35.483 E2.78307
G1 X56.061 Y35.67 E2.8114
G1 X56.322 Y36.059 E2.86749
G1 X56.429 Y36.258 E2.89454
G1 X56.773 Y36.833 E2.97477
G1 X57.194 Y37.37 E3.05647
G1 X57.68 Y37.85 E3.13826
G1 X58.223 Y38.264 E3.22002
G1 X58.33 Y38.326 E3.23483
G1 X58.321 Y38.34 E3.23682
G1 X58.866 Y38.635 E3.31102
G1 X59.274 Y38.9 E3.36928
G1 X59.536 Y39.099 E3.40867
G1 X59.734 Y39.271 E3.44008
G1 X59.942 Y39.475 E3.47496
G1 X60.126 Y39.681 E3.50803
G1 X60.323 Y39.933 E3.54633
G1 X60.662 Y40.444 E3.61976
G1 X61.187 Y41.365 E3.74669
G1 X61.358 Y41.711 E3.7929
G1 X61.473 Y41.991 E3.82915
G1 X61.558 Y42.239 E3.86054
G1 X61.638 Y42.528 E3.89644
G1 X61.7 Y42.825 E3.93277
G1 X61.739 Y43.104 E3.9665
G1 X61.775 Y43.68 E4.03561
G1 X61.756 Y44.268 E4.10605
G1 X61.776 Y44.268 E4.10844
G1 X61.778 Y44.462 E4.13167
G1 X61.871 Y45.14 E4.21361
G1 X62.049 Y45.799 E4.29535
G1 X62.309 Y46.429 E4.37695
G1 X62.386 Y46.565 E4.39567
G1 X62.371 Y46.572 E4.39765
G1 X62.702 Y47.113 E4.47359
G1 X62.921 Y47.55 E4.53212
G1 X63.043 Y47.845 E4.57034
G1 X63.13 Y48.1 E4.6026
G1 X63.206 Y48.379 E4.63723
G1 X63.268 Y48.684 E4.67449
G1 X63.303 Y48.933 E4.7046
G1 X63.332 Y49.304 E4.74916
G1 X63.346 Y49.892 E4.81958
G1 X63.348 Y50.345 E4.87382
G1 X63.332 Y50.751 E4.92247
G1 X63.295 Y51.132 E4.96831
G1 X63.252 Y51.409 E5.00187
G1 X63.183 Y51.709 E5.03873
G1 X63.11 Y51.964 E5.07049
G1 X62.993 Y52.284 E5.11129
G1 X62.901 Y52.498 E5.13918
G1 X62.713 Y52.868 E5.18887
G1 X62.441 Y53.312 E5.25122
G1 X62.45 Y53.321 E5.25274
G1 X62.307 Y53.574 E5.28754
G1 X62.047 Y54.205 E5.36925
G1 X61.87 Y54.865 E5.45107
G1 X61.777 Y55.542 E5.5329
G1 X61.776 Y55.73 E5.55541
G1 X61.758 Y55.73 E5.55756
G1 X61.773 Y56.423 E5.64056
G1 X61.748 Y56.814 E5.68747
G1 X61.711 Y57.112 E5.72343
G1 X61.656 Y57.396 E5.75806
G1 X61.58 Y57.687 E5.79408
G1 X61.488 Y57.968 E5.82948
G1 X61.399 Y58.196 E5.85879
G1 X61.196 Y58.625 E5.91561
G1 X61.058 Y58.882 E5.95054
G1 X60.624 Y59.622 E6.05326
G1 X60.331 Y60.059 E6.11626
G1 X60.155 Y60.286 E6.15065
G1 X59.973 Y60.492 E6.18356
G1 X59.762 Y60.701 E6.21912
G1 X59.52 Y60.914 E6.25773
G1 X59.325 Y61.065 E6.28726
G1 X58.928 Y61.329 E6.34434
G1 X58.754 Y61.422 E6.36797
G1 X58.179 Y61.764 E6.44807
G1 X57.641 Y62.184 E6.5298
G1 X57.16 Y62.669 E6.61158
G1 X56.744 Y63.212 E6.69349
G1 X56.654 Y63.365 E6.71474
G1 X56.64 Y63.358 E6.71662
G1 X56.356 Y63.881 E6.78788
G1 X56.1 Y64.274 E6.84404
G1 X55.903 Y64.533 E6.883
G1 X55.729 Y64.734 E6.91483
G1 X55.525 Y64.942 E6.94971
G1 X55.319 Y65.126 E6.98279
G1 X55.063 Y65.326 E7.02168
G1 X54.556 Y65.662 E7.09451
G1 X53.625 Y66.192 E7.22278
G1 X53.289 Y66.358 E7.26766
G1 X53.015 Y66.47 E7.3031
G1 X52.761 Y66.558 E7.33529
G1 X52.472 Y66.638 E7.37119
G1 X52.18 Y66.699 E7.40691
G1 X51.896 Y66.739 E7.44125
G1 X51.319 Y66.775 E7.51047
G1 X50.732 Y66.756 E7.5808
G1 X50.732 Y66.776 E7.58319
G1 X50.538 Y66.778 E7.60642
G1 X49.86 Y66.871 E7.68836
G1 X49.201 Y67.049 E7.7701
G1 X48.571 Y67.309 E7.8517
G1 X48.435 Y67.386 E7.87041
G1 X48.428 Y67.371 E7.8724
G1 X47.887 Y67.702 E7.94834
G1 X47.45 Y67.921 E8.00686
G1 X47.157 Y68.042 E8.04482
G1 X46.9 Y68.13 E8.07735
G1 X46.621 Y68.206 E8.11197
G1 X46.316 Y68.268 E8.14924
G1 X46.062 Y68.303 E8.17994
G1 X45.693 Y68.332 E8.22426
G1 X44.816 Y68.349 E8.32929
G1 X44.37 Y68.339 E8.3827
G1 X43.868 Y68.295 E8.44304
G1 X43.591 Y68.252 E8.4766
G1 X43.291 Y68.183 E8.51346
G1 X43.03 Y68.108 E8.54598
G1 X42.715 Y67.993 E8.58613
G1 X42.503 Y67.901 E8.6138
G1 X42.124 Y67.709 E8.66467
G1 X41.686 Y67.443 E8.72603
G1 X41.679 Y67.45 E8.72722
G1 X41.426 Y67.307 E8.76201
G1 X40.795 Y67.047 E8.84373
G1 X40.135 Y66.87 E8.92555
G1 X39.459 Y66.777 E9.00725
G1 X39.26 Y66.776 E9.03108
G1 X39.26 Y66.757 E9.03336
G1 X38.652 Y66.775 E9.10619
G1 X38.185 Y66.748 E9.1622
G1 X37.887 Y66.711 E9.19815
G1 X37.603 Y66.656 E9.23279
G1 X37.312 Y66.58 E9.2688
G1 X37.039 Y66.491 E9.30318
G1 X36.789 Y66.392 E9.33538
G1 X36.377 Y66.197 E9.38996
G1 X35.942 Y65.959 E9.44933
G1 X35.376 Y65.622 E9.5282
G1 X34.941 Y65.331 E9.59087
G1 X34.714 Y65.155 E9.62526
G1 X34.507 Y64.972 E9.65834
G1 X34.299 Y64.762 E9.69373
G1 X34.084 Y64.517 E9.73276
G1 X33.935 Y64.325 E9.76186
G1 X33.671 Y63.929 E9.81885
G1 X33.572 Y63.742 E9.84419
G1 X33.227 Y63.167 E9.92448
G1 X32.806 Y62.63 E10.00618
G1 X32.32 Y62.15 E10.08797
G1 X31.777 Y61.736 E10.16973
G1 X31.661 Y61.669 E10.18577
G1 X31.671 Y61.654 E10.18793
G1 X31.126 Y61.361 E10.26201
G1 X30.718 Y61.095 E10.32033
G1 X30.47 Y60.905 E10.35774
G1 X30.269 Y60.731 E10.38957
G1 X30.046 Y60.511 E10.42708
G1 X29.853 Y60.293 E10.46194
G1 X29.677 Y60.069 E10.49605
G1 X29.385 Y59.636 E10.55859
G1 X28.919 Y58.844 E10.66861
G1 X28.731 Y58.479 E10.71777
G1 X28.591 Y58.171 E10.75828
G1 X28.485 Y57.892 E10.79402
G1 X28.396 Y57.609 E10.82954
G1 X28.33 Y57.333 E10.86352
G1 X28.274 Y57.018 E10.90183
G1 X28.245 Y56.765 E10.93232
G1 X28.225 Y56.348 E10.98231
G1 X28.243 Y55.732 E11.0561
G1 X28.224 Y55.732 E11.05837
G1 X28.222 Y55.529 E11.08268
G1 X28.128 Y54.853 E11.1644
G1 X27.948 Y54.194 E11.2462
G1 X27.688 Y53.563 E11.32791
G1 X27.614 Y53.433 E11.34582
G1 X27.629 Y53.426 E11.34781
G1 X27.287 Y52.868 E11.42617
G1 X27.078 Y52.447 E11.48245
G1 X26.957 Y52.155 E11.5203
G1 X26.87 Y51.9 E11.55256
G1 X26.794 Y51.621 E11.58718
G1 X26.732 Y51.316 E11.62445
G1 X26.696 Y51.061 E11.65528
G1 X26.667 Y50.67 E11.70223
G1 X26.654 Y50.094 E11.77121
G1 X26.652 Y49.656 E11.82366
G1 X26.669 Y49.243 E11.87315
G1 X26.705 Y48.868 E11.91826
G1 X26.749 Y48.589 E11.95208
G1 X26.818 Y48.285 E11.9894
G1 X26.89 Y48.036 E12.02044
G1 X27.007 Y47.715 E12.06135
G1 X27.099 Y47.502 E12.08913
G1 X27.289 Y47.128 E12.13936
G1 X27.559 Y46.688 E12.20117
G1 X27.55 Y46.679 E12.2027
G1 X27.693 Y46.426 E12.23749
G1 X27.953 Y45.795 E12.31921
G1 X28.13 Y45.135 E12.40103
G1 X28.223 Y44.458 E12.48285
G1 X28.224 Y44.27 E12.50536
G1 X28.242 Y44.27 E12.50752
G1 X28.225 Y43.656 E12.58106
G1 X28.252 Y43.186 E12.63743
G1 X28.289 Y42.888 E12.67339
G1 X28.344 Y42.604 E12.70802
G1 X28.42 Y42.313 E12.74404
G1 X28.512 Y42.032 E12.77944
G1 X28.601 Y41.804 E12.80875
G1 X28.798 Y41.387 E12.86397
G1 X28.914 Y41.17 E12.89343
G1 X29.378 Y40.373 E13.00385
G1 X29.669 Y39.941 E13.06622
G1 X29.845 Y39.714 E13.10061
G1 X30.027 Y39.508 E13.13353
G1 X30.238 Y39.299 E13.16909
G1 X30.483 Y39.084 E13.20812
G1 X30.675 Y38.935 E13.23722
G1 X31.066 Y38.674 E13.29351
G1 X31.246 Y38.578 E13.31793
G1 X31.821 Y38.236 E13.39804
G1 X32.359 Y37.816 E13.47976
G1 X32.84 Y37.331 E13.56155
G1 X33.256 Y36.788 E13.64345
G1 X33.346 Y36.635 E13.66471
G1 X33.36 Y36.642 E13.66658
G1 X33.647 Y36.114 E13.73854
G1 X33.9 Y35.726 E13.794
G1 X34.099 Y35.464 E13.8334
G1 X34.271 Y35.266 E13.8648
G1 X34.475 Y35.058 E13.89968
G0 F2400 X35.2 Y34.499
G1 F900 X35.2 Y65.504 E17.61211
G0 F2400 X36.8 Y66.396
G1 F900 X36.8 Y33.605 E21.53839
G0 F2400 X38.4 Y33.242
G1 F900 X38.4 Y66.76 E25.55172
G0 F2400 X40 Y66.851
G1 F900 X40 Y33.148 E29.5872
G0 F2400 X41.6 Y32.611
G1 F900 X41.6 Y67.405 E33.75331
G0 F2400 X43.2 Y68.156
G1 F900 X43.2 Y31.842 E38.10142
G0 F2400 X44.8 Y31.658
G1 F900 X44.8 Y68.348 E42.49455
G0 F2400 X46.4 Y68.251
G1 F900 X46.4 Y31.747 E46.86541
G0 F2400 X48 Y32.367
G1 F900 X48 Y67.633 E51.08804
G0 F2400 X49.6 Y66.942
G1 F900 X49.6 Y33.059 E55.14507
G0 F2400 X51.2 Y33.229
G1 F900 X51.2 Y66.771 E59.16127
G0 F2400 X52.8 Y66.545
G1 F900 X52.8 Y33.457 E63.12311
G0 F2400 X54.4 Y34.247
G1 F900 X54.4 Y65.751 E66.89529
G0 F2400 X56 Y64.406
G1 F900 X56 Y35.592 E70.34538
G0 F2400 X57.6 Y37.771
G1 F900 X57.6 Y62.226 E73.27353
G0 F2400 X59.2 Y61.149
G1 F900 X59.2 Y38.852 E75.9433
G0 F2400 X60.8 Y40.687
G1 F900 X60.8 Y59.322 E78.17459
G0 F2400 X62.4 Y53.41
G1 F900 X62.4 Y46.62 E78.9876
G0 F2400 X33.6 Y36.2
G1 F900 X33.6 Y63.794 E82.29161
G0 F2400 X32 Y61.906
G1 F900 X32 Y38.096 E85.14253
G0 F2400 X30.4 Y39.156
G1 F900 X30.4 Y60.844 E87.73938
G0 F2400 X28.8 Y58.612
G1 F900 X28.8 Y41.383 E89.80232
G0 F2400 X27.2 Y47.303
G1 F900 X27.2 Y52.692 E90.44758
G0 F2400 X28.688 Y58.387
;TIME_ELAPSED:60.997356
;LAYER:-5
G0 X28.688 Y58.387 Z0.66
;TYPE:SUPPORT
G1 F900 X36.605 Y66.303 E91.56468
G1 X36.377 Y66.195 E91.58985
G1 X35.941 Y65.958 E91.63937
G1 X35.375 Y65.621 E91.7051
G1 X34.941 Y65.33 E91.75724
G1 X34.713 Y65.154 E91.78598
G1 X34.506 Y64.971 E91.81355
G1 X34.298 Y64.761 E91.84304
G1 X34.083 Y64.516 E91.87556
G1 X33.935 Y64.324 E91.89975
G1 X33.671 Y63.928 E91.94724
G1 X33.572 Y63.741 E91.96835
G1 X33.226 Y63.165 E92.0354
G1 X32.806 Y62.629 E92.10334
G1 X32.32 Y62.149 E92.1715
G1 X31.776 Y61.735 E92.23971
G1 X31.661 Y61.668 E92.25299
G1 X31.67 Y61.653 E92.25474
G1 X31.126 Y61.36 E92.31639
G1 X30.718 Y61.094 E92.36499
G1 X30.469 Y60.903 E92.3963
G1 X30.269 Y60.729 E92.42275
G1 X30.045 Y60.51 E92.45401
G1 X29.852 Y60.292 E92.48306
G1 X29.677 Y60.068 E92.51143
G1 X29.385 Y59.635 E92.56354
G1 X28.918 Y58.843 E92.65528
G1 X28.73 Y58.478 E92.69625
G0 F2400 X36.605 Y66.303
G1 F900 X36.788 Y66.39 E92.71647
G1 X37.038 Y66.489 E92.7433
G1 X37.311 Y66.579 E92.77198
G1 X37.603 Y66.655 E92.80208
G1 X37.886 Y66.709 E92.83083
G1 X38.184 Y66.747 E92.86081
G1 X38.479 Y66.763 E92.89028
G1 X28.233 Y56.517 E94.33611
G1 X28.225 Y56.347 E94.35309
G1 X28.243 Y55.731 E94.41458
G1 X28.223 Y55.731 E94.41657
G1 X28.222 Y55.527 E94.43693
G1 X28.151 Y55.021 E94.48791
G1 X39.976 Y66.847 E96.15662
G1 X40.134 Y66.868 E96.17252
G1 X40.795 Y67.045 E96.2408
G1 X41.425 Y67.305 E96.30881
G1 X41.678 Y67.448 E96.3378
G1 X41.686 Y67.441 E96.33886
G1 X42.123 Y67.708 E96.38996
G1 X42.384 Y67.84 E96.41915
G1 X27.164 Y52.62 E98.56685
G1 X27.077 Y52.446 E98.58626
G1 X26.957 Y52.154 E98.61776
G1 X26.87 Y51.898 E98.64474
G1 X26.793 Y51.62 E98.67353
G1 X26.732 Y51.315 E98.70456
G1 X26.696 Y51.06 E98.73026
G1 X26.669 Y50.711 E98.76519
G1 X44.289 Y68.331 E101.25156
G1 X44.37 Y68.338 E101.25967
G1 X44.815 Y68.348 E101.30408
G1 X45.692 Y68.331 E101.39161
G1 X45.702 Y68.329 E101.39263
G1 X26.666 Y49.293 E104.07881
G1 X26.668 Y49.242 E104.0839
G1 X26.705 Y48.867 E104.1215
G1 X26.749 Y48.588 E104.14969
G1 X26.817 Y48.284 E104.18077
G1 X26.874 Y48.087 E104.20123
G1 X46.911 Y68.124 E107.02867
G1 X47.156 Y68.04 E107.05451
G1 X47.449 Y67.92 E107.0861
G1 X47.886 Y67.701 E107.13488
G1 X47.895 Y67.694 E107.13602
G1 X27.303 Y47.102 E110.04177
G1 X27.558 Y46.687 E110.09037
G1 X27.549 Y46.678 E110.09164
G1 X27.693 Y46.425 E110.12069
G1 X27.794 Y46.179 E110.14722
G1 X48.82 Y67.204 E113.11415
G1 X49.201 Y67.048 E113.15523
G1 X49.86 Y66.87 E113.22334
G1 X49.894 Y66.865 E113.22677
G1 X28.133 Y45.104 E116.29748
G1 X28.223 Y44.457 E116.36266
G1 X28.223 Y44.269 E116.38142
G1 X28.241 Y44.269 E116.38321
G1 X28.228 Y43.784 E116.43162
G1 X51.215 Y66.771 E119.67534
G1 X51.318 Y66.774 E119.68562
G1 X51.895 Y66.738 E119.74331
G1 X52.18 Y66.698 E119.77202
G1 X52.472 Y66.637 E119.80179
G1 X52.489 Y66.632 E119.80355
G1 X28.367 Y42.509 E123.2075
G1 X28.42 Y42.311 E123.22795
G1 X28.511 Y42.031 E123.25733
G1 X28.601 Y41.802 E123.28188
G1 X28.753 Y41.481 E123.31732
G1 X53.516 Y66.244 E126.81165
G1 X53.624 Y66.191 E126.82365
G1 X54.422 Y65.736 E126.91531
G1 X29.26 Y40.573 E130.46601
G1 X29.378 Y40.372 E130.48927
G1 X29.668 Y39.94 E130.54118
G1 X29.83 Y39.73 E130.56765
G1 X55.266 Y65.165 E134.15687
G1 X55.319 Y65.125 E134.1635
G1 X55.525 Y64.941 E134.19106
G1 X55.729 Y64.733 E134.22013
G1 X55.903 Y64.532 E134.24665
G1 X55.966 Y64.451 E134.25689
G1 X30.548 Y39.033 E137.84365
G1 X30.674 Y38.934 E137.85964
G1 X31.066 Y38.673 E137.90663
G1 X31.246 Y38.577 E137.92698
G1 X31.409 Y38.48 E137.94591
G1 X56.516 Y63.587 E141.48878
G1 X56.639 Y63.357 E141.5148
G1 X56.654 Y63.364 E141.51645
G1 X56.743 Y63.211 E141.53411
G1 X57.095 Y62.752 E141.59183
G1 X32.246 Y37.903 E145.09829
G1 X32.359 Y37.815 E145.11258
G1 X32.84 Y37.33 E145.18074
G1 X32.946 Y37.189 E145.19834
G1 X57.808 Y62.051 E148.70664
G1 X58.179 Y61.762 E148.75356
G1 X58.652 Y61.48 E148.80851
G1 X33.518 Y36.347 E152.35512
G1 X33.646 Y36.113 E152.38173
G1 X33.9 Y35.725 E152.42801
G1 X34.076 Y35.491 E152.45722
G1 X59.507 Y60.922 E156.04581
G1 X59.52 Y60.913 E156.04739
G1 X59.762 Y60.7 E156.07956
G1 X59.973 Y60.49 E156.10926
G1 X60.154 Y60.285 E156.13655
G1 X60.212 Y60.212 E156.14585
G1 X34.788 Y34.788 E159.73345
G1 X34.936 Y34.674 E159.75209
G1 X35.443 Y34.337 E159.81284
G1 X35.64 Y34.226 E159.8354
G1 X60.776 Y59.362 E163.38236
G1 X61.057 Y58.882 E163.43786
G1 X61.195 Y58.625 E163.46696
G1 X61.278 Y58.45 E163.48629
G1 X36.55 Y33.721 E166.97575
G1 X36.71 Y33.642 E166.99355
G1 X36.985 Y33.528 E167.02326
G1 X37.238 Y33.442 E167.04992
G1 X37.526 Y33.362 E167.07975
G1 X37.591 Y33.349 E167.08636
G1 X61.652 Y57.409 E170.48156
G1 X61.655 Y57.395 E170.48298
G1 X61.709 Y57.112 E170.51173
G1 X61.746 Y56.813 E170.54179
G1 X61.772 Y56.422 E170.58089
G1 X61.766 Y56.109 E170.61213
G1 X38.889 Y33.232 E173.84032
G1 X39.267 Y33.243 E173.87806
G1 X39.267 Y33.224 E173.87995
G1 X39.461 Y33.221 E173.89931
G1 X40.139 Y33.129 E173.96758
G1 X40.187 Y33.116 E173.97254
G1 X61.883 Y54.812 E177.03408
G1 X62.046 Y54.204 E177.09689
G1 X62.234 Y53.749 E177.14602
G1 X41.25 Y32.765 E180.10709
G1 X41.427 Y32.69 E180.12627
G1 X41.564 Y32.613 E180.14195
G1 X41.571 Y32.629 E180.14369
G1 X42.112 Y32.297 E180.20703
G1 X42.169 Y32.269 E180.21336
G1 X62.731 Y52.832 E183.11495
G1 X62.9 Y52.497 E183.15239
G1 X62.992 Y52.284 E183.17554
G1 X63.109 Y51.963 E183.20963
G1 X63.146 Y51.833 E183.22312
G1 X43.166 Y31.852 E186.04258
G1 X43.378 Y31.794 E186.06452
G1 X43.683 Y31.732 E186.09557
G1 X43.937 Y31.697 E186.12115
G1 X44.306 Y31.667 E186.1581
G1 X44.394 Y31.666 E186.16688
G1 X63.337 Y50.609 E188.83994
G1 X63.347 Y50.345 E188.8663
G1 X63.345 Y49.892 E188.9115
G1 X63.331 Y49.303 E188.97029
G1 X63.322 Y49.179 E188.98269
G1 X45.819 Y31.677 E191.45248
G1 X46.131 Y31.705 E191.48374
G1 X46.408 Y31.748 E191.51171
G1 X46.708 Y31.816 E191.5424
G1 X46.968 Y31.891 E191.56941
G1 X47.284 Y32.006 E191.60296
G1 X47.497 Y32.099 E191.62615
G1 X47.818 Y32.261 E191.66203
G1 X62.733 Y47.177 E193.76677
G1 X62.701 Y47.112 E193.77399
G1 X62.37 Y46.572 E193.83719
G1 X62.385 Y46.564 E193.83889
G1 X62.308 Y46.429 E193.8544
G1 X62.048 Y45.799 E193.9224
G1 X61.87 Y45.14 E193.99051
