;FLAVOR:Marlin
;TIME:3142
;Filament used: 2.39502m
;Layer height: 0.2
;Generated with Cura_SteamEngine 3.6.0
M104 S200
M105
M109 S200
M82 ;absolute extrusion mode
G28 ;Home
G1 Z15.0 F6000 ;Move the platform down 15mm
;Prime the extruder
G92 E0
G1 F200 E3
G92 E0
G92 E0
G1 F1500 E-6.5
;LAYER_COUNT:88
;LAYER:-6
M107
G0 F2400 X26.982 Y39.734 Z0.36
;TYPE:SUPPORT-INTERFACE
G1 F1500 E0
G1 F900 X27.486 Y39.396 E0.07266
G1 X40.834 Y31.602 E1.92342
G1 X41.177 Y31.429 E1.96941
G1 X41.447 Y31.315 E2.00451
G1 X41.84 Y31.177 E2.05438
G1 X42.003 Y31.133 E2.07459
G1 X42.365 Y31.058 E2.11886
G1 X42.669 Y31.016 E2.15561
G1 X43.069 Y30.988 E2.20362
G1 X43.279 Y30.98 E2.22878
G1 X50.331 Y30.984 E3.07316
G1 X50.708 Y31.008 E3.11839
G1 X51.007 Y31.045 E3.15447
G1 X51.272 Y31.096 E3.18678
G1 X51.588 Y31.181 E3.22596
G1 X52.082 Y31.355 E3.28867
G1 X52.288 Y31.443 E3.3155
G1 X52.622 Y31.619 E3.3607
G1 X52.883 Y31.779 E3.39736
G1 X53.085 Y31.921 E3.42692
G1 X53.357 Y32.143 E3.46896
G1 X53.761 Y32.527 E3.5357
G1 X53.876 Y32.647 E3.5556
G1 X63.903 Y43.967 E5.36629
G1 X64.233 Y44.383 E5.42987
G1 X64.393 Y44.617 E5.46381
G1 X64.552 Y44.884 E5.50102
G1 X64.674 Y45.121 E5.53294
G1 X64.826 Y45.469 E5.5784
G1 X64.973 Y45.928 E5.63611
G1 X65.042 Y46.212 E5.67111
G1 X65.094 Y46.504 E5.70662
G1 X65.128 Y46.797 E5.74194
G1 X65.148 Y47.232 E5.79408
G1 X65.144 Y56.354 E6.88632
G1 X65.12 Y56.731 E6.93155
G1 X65.083 Y57.026 E6.96715
G1 X65.028 Y57.314 E7.00225
G1 X64.951 Y57.606 E7.03841
G1 X64.824 Y57.989 E7.08673
G1 X64.782 Y58.102 E7.10116
G1 X64.58 Y58.519 E7.15664
G1 X64.437 Y58.772 E7.19144
G1 X64.285 Y59.004 E7.22465
G1 X64.097 Y59.252 E7.26191
G1 X63.708 Y59.692 E7.33223
G1 X50.681 Y72.718 E9.53805
G1 X50.282 Y73.076 E9.60223
G1 X50.071 Y73.239 E9.63416
G1 X49.836 Y73.398 E9.66813
G1 X49.561 Y73.559 E9.70629
G1 X49.065 Y73.8 E9.77232
G1 X48.63 Y73.95 E9.82741
G1 X48.346 Y74.027 E9.86265
G1 X48.073 Y74.082 E9.89599
G1 X47.777 Y74.122 E9.93175
G1 X47.372 Y74.15 E9.98036
G1 X47.192 Y74.156 E10.00193
G1 X42 Y74.151 E10.6236
G1 X41.647 Y74.129 E10.66595
G1 X41.316 Y74.082 E10.70598
G1 X40.751 Y73.96 E10.77519
G1 X40.575 Y73.908 E10.79716
G1 X40.25 Y73.784 E10.83881
G1 X39.947 Y73.642 E10.87888
G1 X39.476 Y73.377 E10.94359
G1 X39.313 Y73.275 E10.96661
G1 X27.196 Y65.041 E12.72075
G1 X26.784 Y64.729 E12.78263
G1 X26.557 Y64.528 E12.81893
G1 X26.355 Y64.326 E12.85313
G1 X26.159 Y64.102 E12.88877
G1 X25.974 Y63.863 E12.92496
G1 X25.828 Y63.649 E12.95598
G1 X25.617 Y63.292 E13.00564
G1 X25.409 Y62.838 E13.06543
G1 X25.319 Y62.598 E13.09612
G1 X25.224 Y62.288 E13.13494
G1 X25.161 Y62.021 E13.16779
G1 X25.11 Y61.722 E13.20411
G1 X25.08 Y61.453 E13.23652
G1 X25.06 Y61.038 E13.28626
G1 X25.064 Y43.466 E15.39027
G1 X25.088 Y43.089 E15.43551
G1 X25.125 Y42.791 E15.47146
G1 X25.18 Y42.507 E15.5061
G1 X25.256 Y42.216 E15.54211
G1 X25.338 Y41.964 E15.57384
G1 X25.451 Y41.683 E15.61011
G1 X25.688 Y41.198 E15.67474
G1 X25.952 Y40.789 E15.73303
G1 X26.134 Y40.546 E15.76938
G1 X26.32 Y40.329 E15.8036
G1 X26.526 Y40.117 E15.839
G1 X26.717 Y39.944 E15.86985
G1 X26.982 Y39.734 E15.91034
G0 F2400 X27.2 Y39.587
G1 F900 X27.2 Y65.043 E18.95835
G0 F2400 X28.8 Y66.13
G1 F900 X28.8 Y38.628 E22.25134
G0 F2400 X30.4 Y37.694
G1 F900 X30.4 Y67.218 E25.78644
G0 F2400 X32 Y68.305
G1 F900 X32 Y36.76 E29.56353
G0 F2400 X33.6 Y35.825
G1 F900 X33.6 Y69.392 E33.58273
G0 F2400 X35.2 Y70.48
G1 F900 X35.2 Y34.891 E37.84403
G0 F2400 X36.8 Y33.957
G1 F900 X36.8 Y71.567 E42.34732
G0 F2400 X38.4 Y72.654
G1 F900 X38.4 Y33.023 E47.09259
G0 F2400 X40 Y32.088
G1 F900 X40 Y73.666 E52.071
G0 F2400 X41.6 Y74.122
G1 F900 X41.6 Y31.261 E57.20302
G0 F2400 X43.2 Y30.983
G1 F900 X43.2 Y74.152 E62.37193
G0 F2400 X44.8 Y74.153
G1 F900 X44.8 Y30.981 E67.54119
G0 F2400 X46.4 Y30.982
G1 F900 X46.4 Y74.155 E72.71057
G0 F2400 X48 Y74.092
G1 F900 X48 Y30.983 E77.87229
G0 F2400 X49.6 Y30.984
G1 F900 X49.6 Y73.537 E82.96744
G0 F2400 X51.2 Y72.2
G1 F900 X51.2 Y31.083 E87.89065
G0 F2400 X52.8 Y31.729
G1 F900 X52.8 Y70.6 E92.54492
G0 F2400 X54.4 Y69
G1 F900 X54.4 Y33.239 E96.82682
G0 F2400 X56 Y35.045
G1 F900 X56 Y67.4 E100.70089
G0 F2400 X57.6 Y65.8
G1 F900 X57.6 Y36.852 E104.16702
G0 F2400 X59.2 Y38.658
G1 F900 X59.2 Y64.2 E107.22533
G0 F2400 X60.8 Y62.6
G1 F900 X60.8 Y40.464 E109.87582
G0 F2400 X62.4 Y42.271
G1 F900 X62.4 Y61 E112.11837
G0 F2400 X64 Y59.362
G1 F900 X64 Y44.09 E113.94698
G0 F2400 X25.6 Y41.378
G1 F900 X25.6 Y63.254 E116.56634
G0 F2400 X53.356 Y32.142
;TIME_ELAPSED:76.533075
;LAYER:-5
G0 X53.356 Y32.142 Z0.66
;TYPE:SUPPORT
G1 F900 X53.084 Y31.92 E116.60137
G1 X52.882 Y31.779 E116.62595
G1 X52.621 Y31.618 E116.65655
G1 X52.287 Y31.442 E116.69422
G1 X52.081 Y31.354 E116.71657
G1 X51.586 Y31.181 E116.76889
G1 X51.27 Y31.095 E116.80157
G1 X51.006 Y31.044 E116.8284
G1 X50.821 Y31.022 E116.84699
G1 X64.341 Y44.542 E118.75481
G1 X64.391 Y44.617 E118.7638
G1 X64.551 Y44.883 E118.79477
G1 X64.673 Y45.12 E118.82137
G1 X64.825 Y45.469 E118.85935
G1 X64.971 Y45.927 E118.90732
G1 X65.041 Y46.212 E118.9366
G1 X65.093 Y46.503 E118.9661
G1 X65.12 Y46.735 E118.9894
G1 X49.368 Y30.984 E121.21211
G1 X47.953 Y30.983 E121.3533
G1 X65.147 Y48.176 E123.77949
G1 X65.146 Y49.59 E123.92058
G1 X46.538 Y30.982 E126.54637
G1 X45.124 Y30.981 E126.68746
G1 X65.145 Y51.003 E129.51271
G1 X65.145 Y52.417 E129.65379
G1 X43.709 Y30.981 E132.67865
G1 X43.278 Y30.98 E132.72165
G1 X43.068 Y30.988 E132.74262
G1 X42.668 Y31.016 E132.78263
G1 X42.37 Y31.056 E132.81263
G1 X65.145 Y53.831 E136.02643
G1 X65.144 Y55.244 E136.16742
G1 X41.283 Y31.384 E139.53439
G1 X41.176 Y31.429 E139.54598
G1 X40.833 Y31.601 E139.58426
G1 X40.362 Y31.877 E139.63873
G1 X65.125 Y56.639 E143.13299
G1 X65.118 Y56.731 E143.1422
G1 X65.082 Y57.026 E143.17185
G1 X65.026 Y57.313 E143.20103
G1 X64.949 Y57.605 E143.23116
G1 X64.882 Y57.811 E143.25277
G1 X39.469 Y32.398 E146.83882
G1 X38.576 Y32.919 E146.94198
G1 X64.433 Y58.776 E150.59068
G1 X64.284 Y59.003 E150.61778
G1 X64.095 Y59.252 E150.64897
G1 X63.814 Y59.571 E150.69139
G1 X37.683 Y33.441 E154.37868
G1 X36.79 Y33.962 E154.48184
G1 X63.113 Y60.285 E158.1963
G1 X62.406 Y60.992 E158.29607
G1 X35.897 Y34.483 E162.03678
G1 X35.005 Y35.005 E162.1399
G1 X61.699 Y61.699 E165.90671
G1 X60.992 Y62.406 E166.00648
G1 X34.112 Y35.526 E169.79954
G1 X33.219 Y36.047 E169.9027
G1 X60.285 Y63.113 E173.722
G1 X59.577 Y63.82 E173.82184
G1 X32.326 Y36.569 E177.66725
G1 X31.433 Y37.09 E177.77041
G1 X58.87 Y64.527 E181.64206
G1 X58.163 Y65.234 E181.74183
G1 X30.54 Y37.611 E185.63973
G1 X29.647 Y38.132 E185.74289
G1 X57.456 Y65.941 E189.66704
G1 X56.749 Y66.649 E189.76688
G1 X28.755 Y38.654 E193.71721
G1 X27.862 Y39.175 E193.82037
G1 X56.042 Y67.356 E197.79694
G1 X55.335 Y68.063 E197.8967
G1 X26.996 Y39.724 E201.89564
G1 X26.981 Y39.733 E201.89739
G1 X26.717 Y39.943 E201.93105
G1 X26.525 Y40.116 E201.95684
G1 X26.319 Y40.327 E201.98626
G1 X26.257 Y40.399 E201.99574
G1 X54.628 Y68.77 E205.99919
G1 X53.921 Y69.477 E206.09896
G1 X25.672 Y41.228 E210.0852
G1 X25.45 Y41.681 E210.13554
G1 X25.337 Y41.963 E210.16585
G1 X25.252 Y42.223 E210.19314
G1 X53.214 Y70.184 E214.13881
G1 X52.506 Y70.891 E214.23865
G1 X25.064 Y43.449 E218.11101
G1 X25.064 Y43.465 E218.11261
G1 X25.063 Y44.862 E218.252
G1 X51.799 Y71.598 E222.02474
G1 X51.092 Y72.305 E222.1245
G1 X25.063 Y46.276 E225.79748
G1 X25.062 Y47.69 E225.93857
G1 X50.369 Y72.996 E229.50959
G1 X50.282 Y73.075 E229.52131
G1 X50.07 Y73.238 E229.548
G1 X49.836 Y73.396 E229.57617
G1 X49.56 Y73.558 E229.6081
G1 X49.53 Y73.572 E229.61141
G1 X25.062 Y49.104 E233.0641
G1 X25.061 Y50.517 E233.20509
G1 X48.522 Y73.978 E236.51569
G1 X48.345 Y74.026 E236.53399
G1 X48.072 Y74.081 E236.56178
G1 X47.777 Y74.121 E236.59149
G1 X47.372 Y74.149 E236.63199
G1 X47.282 Y74.152 E236.64098
G1 X25.061 Y51.932 E239.77653
G1 X25.061 Y53.345 E239.91752
G1 X45.869 Y74.153 E242.85375
G1 X44.453 Y74.152 E242.99504
G1 X25.061 Y54.759 E245.73153
G1 X25.06 Y56.173 E245.87262
G1 X43.038 Y74.151 E248.40951
G1 X42 Y74.15 E248.51309
G1 X41.646 Y74.128 E248.54848
G1 X41.593 Y74.12 E248.55382
G1 X25.06 Y57.587 E250.88681
G1 X25.059 Y59 E251.0278
G1 X39.366 Y73.307 E253.04667
G1 X39.313 Y73.273 E253.05295
G1 X34.962 Y70.317 E253.57781
G1 X25.059 Y60.415 E254.97516
G1 X25.059 Y61.037 E255.03723
G1 X25.08 Y61.452 E255.07869
G1 X25.11 Y61.721 E255.1057
G1 X25.142 Y61.912 E255.12502
G1 X30.549 Y67.318 E255.88794
G1 X27.196 Y65.04 E256.29241
G1 X26.783 Y64.728 E256.34406
G1 X26.556 Y64.527 E256.37431
G1 X26.355 Y64.325 E256.40274
G1 X26.159 Y64.101 E256.43244
G1 X25.974 Y63.862 E256.4626
G1 X25.827 Y63.648 E256.4885
G1 X25.617 Y63.291 E256.52983
G1 X25.409 Y62.837 E256.57966
G1 X25.318 Y62.597 E256.60527
G1 X25.223 Y62.287 E256.63762
G1 X25.16 Y62.019 E256.66509
G0 F2400 X53.996 Y32.783
G1 F900 X53.356 Y32.142 E256.75547
G1 X53.759 Y32.526 E256.81102
G1 X53.875 Y32.647 E256.82774
G0 F2400 X42.885 Y30.8
;TIME_ELAPSED:171.671277
;LAYER:-4
G0 X42.885 Y30.8 Z0.86
;TYPE:SUPPORT-INTERFACE
G1 F1200 X42.644 Y30.817 E256.83578
G1 X42.327 Y30.861 E256.84642
G1 X41.876 Y30.956 E256.86175
G1 X41.372 Y31.128 E256.87946
G1 X41.202 Y31.2 E256.88561
G1 X52.23 Y31.2 E257.2524
G1 X52.296 Y31.224 E257.25473
G1 X52.731 Y31.449 E257.27102
G1 X52.977 Y31.6 E257.28062
G1 X40.433 Y31.6 E257.69784
G1 X39.749 Y32 E257.72419
G1 X53.498 Y32 E258.18149
G1 X53.892 Y32.375 E258.19958
G1 X53.917 Y32.4 E258.20075
G1 X39.064 Y32.4 E258.69477
G1 X38.38 Y32.8 E258.72112
G1 X54.279 Y32.8 E259.24992
G1 X54.633 Y33.2 E259.26769
G1 X37.695 Y33.2 E259.83105
G1 X37.011 Y33.6 E259.8574
G1 X54.987 Y33.6 E260.45529
G1 X55.342 Y34 E260.47308
G1 X36.326 Y34 E261.10555
G1 X35.641 Y34.4 E261.13193
G1 X55.696 Y34.4 E261.79897
G1 X56.05 Y34.8 E261.81673
G1 X34.957 Y34.8 E262.51829
G1 X34.272 Y35.2 E262.54467
G1 X56.405 Y35.2 E263.28082
G1 X56.759 Y35.6 E263.29858
G1 X33.588 Y35.6 E264.06925
G1 X32.903 Y36 E264.09564
G1 X57.113 Y36 E264.90087
G1 X57.468 Y36.4 E264.91865
G1 X32.218 Y36.4 E265.75847
G1 X31.533 Y36.8 E265.78485
G1 X57.822 Y36.8 E266.65923
G1 X58.177 Y37.2 E266.67702
G1 X30.848 Y37.2 E267.58598
G1 X30.164 Y37.6 E267.61234
G1 X58.531 Y37.6 E268.55583
G1 X58.885 Y38 E268.5736
G1 X29.479 Y38 E269.55164
G1 X28.795 Y38.4 E269.578
G1 X59.24 Y38.4 E270.5906
G1 X59.594 Y38.8 E270.60837
G1 X28.11 Y38.8 E271.65553
G1 X27.426 Y39.2 E271.68188
G1 X59.948 Y39.2 E272.76357
G1 X60.303 Y39.6 E272.78136
G1 X26.828 Y39.6 E273.89474
G1 X26.583 Y39.794 E273.90514
G1 X26.378 Y39.98 E273.91434
G1 X26.359 Y40 E273.91526
G1 X60.657 Y40 E275.05602
G1 X61.012 Y40.4 E275.0738
G1 X25.995 Y40.4 E276.23847
G1 X25.977 Y40.42 E276.23937
G1 X25.784 Y40.678 E276.25009
G1 X25.706 Y40.8 E276.2549
G1 X61.366 Y40.8 E277.44096
G1 X61.72 Y41.2 E277.45872
G1 X25.464 Y41.2 E278.6646
G1 X25.275 Y41.585 E278.67887
G1 X25.269 Y41.6 E278.67941
G1 X62.075 Y41.6 E279.90358
G1 X62.429 Y42 E279.92134
G1 X25.116 Y42 E281.16238
G1 X25.06 Y42.169 E281.1683
G1 X25 Y42.4 E281.17624
G1 X62.783 Y42.4 E282.43291
G1 X63.138 Y42.8 E282.45069
G1 X24.921 Y42.8 E283.7218
G1 X24.889 Y43.062 E283.73058
G1 X24.881 Y43.2 E283.73517
G1 X63.492 Y43.2 E285.01938
G1 X63.846 Y43.6 E285.03715
G1 X24.863 Y43.6 E286.33373
G1 X24.863 Y44 E286.34703
G1 X64.186 Y44 E287.65492
G1 X64.401 Y44.273 E287.66648
G1 X64.488 Y44.4 E287.6716
G1 X24.863 Y44.4 E288.98953
G1 X24.863 Y44.8 E289.00283
G1 X64.734 Y44.8 E290.32895
G1 X64.856 Y45.037 E290.33781
G1 X64.928 Y45.2 E290.34374
G1 X24.863 Y45.2 E291.67631
G1 X24.863 Y45.6 E291.68961
G1 X65.078 Y45.6 E293.02717
G1 X65.168 Y45.881 E293.03698
G1 X65.197 Y46 E293.04106
G1 X24.863 Y46 E294.38257
G1 X24.863 Y46.4 E294.39587
G1 X65.28 Y46.4 E295.74015
G1 X65.289 Y46.455 E295.742
G1 X65.326 Y46.772 E295.75262
G1 X65.328 Y46.8 E295.75355
G1 X24.863 Y46.8 E297.09942
G1 X24.863 Y47.2 E297.11273
G1 X65.347 Y47.2 E298.45923
G1 X65.348 Y47.231 E298.46026
G1 X65.347 Y47.6 E298.47254
G1 X24.863 Y47.6 E299.81904
G1 X24.862 Y48 E299.83234
G1 X65.347 Y48 E301.17888
G1 X65.347 Y48.4 E301.19218
G1 X24.862 Y48.4 E302.53872
G1 X24.862 Y48.8 E302.55202
G1 X65.347 Y48.8 E303.89856
G1 X65.347 Y49.2 E303.91186
G1 X24.862 Y49.2 E305.2584
G1 X24.862 Y49.6 E305.27171
G1 X65.346 Y49.6 E306.61821
G1 X65.346 Y50 E306.63151
G1 X24.862 Y50 E307.97802
G1 X24.862 Y50.4 E307.99132
G1 X65.346 Y50.4 E309.33782
G1 X65.346 Y50.8 E309.35113
G1 X24.862 Y50.8 E310.69763
G1 X24.862 Y51.2 E310.71093
G1 X65.346 Y51.2 E312.05744
G1 X65.346 Y51.6 E312.07074
G1 X24.862 Y51.6 E313.41725
G1 X24.862 Y52 E313.43055
G1 X65.345 Y52 E314.77702
G1 X65.345 Y52.4 E314.79032
G1 X24.861 Y52.4 E316.13683
G1 X24.861 Y52.8 E316.15013
G1 X65.345 Y52.8 E317.49663
G1 X65.345 Y53.2 E317.50994
G1 X24.861 Y53.2 E318.85644
G1 X24.861 Y53.6 E318.86975
G1 X65.345 Y53.6 E320.21625
G1 X65.345 Y54 E320.22955
G1 X24.861 Y54 E321.57606
G1 X24.861 Y54.4 E321.58936
G1 X65.344 Y54.4 E322.93583
G1 X65.344 Y54.8 E322.94913
G1 X24.861 Y54.8 E324.2956
G1 X24.861 Y55.2 E324.30891
G1 X65.344 Y55.2 E325.65538
G1 X65.344 Y55.6 E325.66868
G1 X24.861 Y55.6 E327.01515
G1 X24.861 Y56 E327.02846
G1 X65.344 Y56 E328.37493
G1 X65.344 Y56.353 E328.38667
G1 X65.34 Y56.4 E328.38824
G1 X24.861 Y56.4 E329.73457
G1 X24.86 Y56.8 E329.74788
G1 X65.312 Y56.8 E331.09332
G1 X65.282 Y57.054 E331.10182
G1 X65.253 Y57.2 E331.10677
G1 X24.86 Y57.2 E332.45025
G1 X24.86 Y57.6 E332.46355
G1 X65.158 Y57.6 E333.80387
G1 X65.143 Y57.66 E333.80593
G1 X65.029 Y58 E333.81786
G1 X24.86 Y58 E335.15388
G1 X24.86 Y58.4 E335.16719
G1 X64.859 Y58.4 E336.49756
G1 X64.755 Y58.615 E336.5055
G1 X64.65 Y58.8 E336.51258
G1 X24.86 Y58.8 E337.836
G1 X24.86 Y59.2 E337.8493
G1 X64.385 Y59.2 E339.16391
G1 X64.248 Y59.382 E339.17149
G1 X64.053 Y59.6 E339.18121
G1 X24.86 Y59.6 E340.48478
G1 X24.86 Y60 E340.49808
G1 X63.681 Y60 E341.78927
G1 X63.281 Y60.4 E341.80809
G1 X24.86 Y60.4 E343.08598
G1 X24.86 Y60.8 E343.09928
G1 X62.881 Y60.8 E344.36386
G1 X62.481 Y61.2 E344.38268
G1 X24.866 Y61.2 E345.63376
G1 X24.88 Y61.475 E345.64292
G1 X24.893 Y61.6 E345.6471
G1 X62.081 Y61.6 E346.88397
G1 X61.681 Y62 E346.90279
G1 X24.953 Y62 E348.12437
G1 X24.963 Y62.053 E348.12616
G1 X25.035 Y62.359 E348.13662
G1 X25.047 Y62.4 E348.13804
G1 X61.281 Y62.4 E349.34319
G1 X60.881 Y62.8 E349.362
G1 X25.18 Y62.8 E350.54942
G1 X25.23 Y62.931 E350.55408
G1 X25.354 Y63.2 E350.56394
G1 X60.481 Y63.2 E351.73227
G1 X60.081 Y63.6 E351.75108
G1 X25.565 Y63.6 E352.89909
G1 X25.654 Y63.75 E352.90489
G1 X25.818 Y63.99 E352.91456
G1 X25.825 Y64 E352.91496
G1 X59.681 Y64 E354.04102
G1 X59.281 Y64.4 E354.05983
G1 X26.152 Y64.4 E355.16171
G1 X26.21 Y64.466 E355.16463
G1 X26.414 Y64.67 E355.17422
G1 X26.561 Y64.8 E355.18075
G1 X58.881 Y64.8 E356.25572
G1 X58.481 Y65.2 E356.27453
G1 X27.073 Y65.2 E357.31917
G1 X27.087 Y65.21 E357.31974
G1 X27.66 Y65.6 E357.34279
G1 X58.081 Y65.6 E358.3546
G1 X57.681 Y66 E358.37342
G1 X28.249 Y66 E359.35233
G1 X28.838 Y66.4 E359.37601
G1 X57.281 Y66.4 E360.32203
G1 X56.881 Y66.8 E360.34084
G1 X29.426 Y66.8 E361.254
G1 X30.015 Y67.2 E361.27768
G1 X56.481 Y67.2 E362.15794
G1 X56.081 Y67.6 E362.17676
G1 X30.603 Y67.6 E363.02416
G1 X31.192 Y68 E363.04784
G1 X55.681 Y68 E363.86235
G1 X55.281 Y68.4 E363.88116
G1 X31.78 Y68.4 E364.66281
G1 X32.369 Y68.8 E364.68649
G1 X54.881 Y68.8 E365.43524
G1 X54.481 Y69.2 E365.45406
G1 X32.958 Y69.2 E366.16991
G1 X33.546 Y69.6 E366.19357
G1 X54.081 Y69.6 E366.87656
G1 X53.681 Y70 E366.89538
G1 X34.135 Y70 E367.54548
G1 X34.723 Y70.4 E367.56913
G1 X53.281 Y70.4 E368.18638
G1 X52.881 Y70.8 E368.20519
G1 X35.312 Y70.8 E368.78954
G1 X35.9 Y71.2 E368.81319
G1 X52.481 Y71.2 E369.36468
G1 X52.081 Y71.6 E369.38349
G1 X36.489 Y71.6 E369.90208
G1 X37.078 Y72 E369.92576
G1 X51.681 Y72 E370.41146
G1 X51.281 Y72.4 E370.43028
G1 X37.666 Y72.4 E370.88311
G1 X38.255 Y72.8 E370.90679
G1 X50.881 Y72.8 E371.32674
G1 X50.826 Y72.856 E371.32935
G1 X50.442 Y73.2 E371.34649
G1 X38.843 Y73.2 E371.73228
G1 X39.197 Y73.44 E371.7465
G1 X39.378 Y73.552 E371.75358
G1 X39.462 Y73.6 E371.7568
G1 X49.884 Y73.6 E372.10344
G1 X49.651 Y73.737 E372.11243
G1 X49.154 Y73.98 E372.13083
G1 X49.096 Y74 E372.13287
G1 X40.255 Y74 E372.42692
