;FLAVOR:Marlin
;TIME:17161
;Filament used: 11.8856m
;Layer height: 0.2
;Generated with Cura_SteamEngine 3.6.0
M104 S200
M105
M109 S200
M82 ;absolute extrusion mode
G28 ;Home
G1 Z15.0 F6000 ;Move the platform down 15mm
;Prime the extruder
G92 E0
G1 F200 E3
G92 E0
G92 E0
G1 F1500 E-6.5
;LAYER_COUNT:221
;LAYER:-6
M107
G0 F2400 X6.404 Y6.885 Z0.36
;TYPE:SUPPORT-INTERFACE
G1 F1500 E0
G1 F900 X7.473 Y5.814 E0.18119
G1 X7.613 Y5.686 E0.2039
G1 X8.117 Y5.262 E0.28276
G1 X8.256 Y5.154 E0.30384
G1 X9.492 Y4.287 E0.48461
G1 X9.665 Y4.177 E0.50916
G1 X10.229 Y3.85 E0.58722
G1 X10.388 Y3.768 E0.60864
G1 X11.753 Y3.128 E0.78915
G1 X11.951 Y3.046 E0.81481
G1 X12.559 Y2.825 E0.89227
G1 X12.729 Y2.771 E0.91363
G1 X14.193 Y2.378 E1.09513
G1 X14.384 Y2.336 E1.11855
G1 X15.024 Y2.222 E1.19639
G1 X15.207 Y2.197 E1.2185
G1 X16.713 Y2.064 E1.39953
G1 X16.909 Y2.056 E1.42301
G1 X17.539 Y2.056 E1.49845
G1 X17.748 Y2.066 E1.5235
G1 X19.252 Y2.196 E1.70426
G1 X19.448 Y2.221 E1.72792
G1 X20.067 Y2.329 E1.80315
G1 X20.27 Y2.375 E1.82807
G1 X21.739 Y2.766 E2.01009
G1 X21.909 Y2.819 E2.03141
G1 X22.517 Y3.04 E2.10887
G1 X22.69 Y3.112 E2.13131
G1 X24.069 Y3.754 E2.31344
G1 X24.241 Y3.843 E2.33663
G1 X24.784 Y4.156 E2.41168
G1 X24.964 Y4.27 E2.43719
G1 X26.194 Y5.13 E2.61689
G1 X26.355 Y5.253 E2.64115
G1 X27.263 Y6.013 E2.78293
G1 X27.271 Y6.003 E2.78446
G1 X27.342 Y6.06 E2.79537
G1 X27.924 Y6.417 E2.87712
G1 X28.548 Y6.698 E2.95906
G1 X29.2 Y6.898 E3.04072
G1 X29.873 Y7.013 E3.12247
G1 X30.555 Y7.044 E3.20421
G1 X31.235 Y6.988 E3.28591
G1 X31.906 Y6.846 E3.36803
G1 X32.649 Y6.577 E3.46265
G1 X32.994 Y6.422 E3.50794
G1 X33.265 Y6.321 E3.54256
G1 X33.515 Y6.244 E3.57389
G1 X33.839 Y6.171 E3.61365
G1 X34.303 Y6.098 E3.66989
G1 X35.146 Y6.025 E3.77121
G1 X35.531 Y5.98 E3.81762
G1 X54.15 Y3.091 E6.07367
G1 X54.332 Y3.07 E6.09561
G1 X54.902 Y3.027 E6.16405
G1 X55.09 Y3.02 E6.18658
G1 X56.654 Y3.023 E6.37385
G1 X56.83 Y3.03 E6.39494
G1 X57.386 Y3.073 E6.46171
G1 X57.569 Y3.094 E6.48377
G1 X76.157 Y5.981 E8.73611
G1 X76.526 Y6.025 E8.78061
G1 X76.882 Y6.055 E8.82339
G1 X77.619 Y6.167 E8.91264
G1 X78.143 Y6.287 E8.97701
G1 X78.635 Y6.433 E9.03846
G1 X78.914 Y6.54 E9.07424
G1 X79.359 Y6.747 E9.133
G1 X81.442 Y7.851 E9.41528
G1 X81.787 Y8.061 E9.46364
G1 X82.002 Y8.211 E9.49503
G1 X82.376 Y8.512 E9.55251
G1 X83.429 Y9.455 E9.72176
G1 X83.717 Y9.747 E9.77087
G1 X83.878 Y9.932 E9.80024
G1 X84.103 Y10.222 E9.84419
G1 X84.897 Y11.379 E10.0122
G1 X85.168 Y11.826 E10.07479
G1 X85.307 Y12.096 E10.11116
G1 X85.486 Y12.514 E10.1656
G1 X85.98 Y13.842 E10.33526
G1 X86.082 Y14.18 E10.37753
G1 X86.155 Y14.48 E10.4145
G1 X86.23 Y14.931 E10.46924
G1 X86.381 Y16.219 E10.62452
G1 X86.413 Y16.724 E10.68511
G1 X86.41 Y17.024 E10.72103
G1 X86.372 Y17.502 E10.77845
G1 X86.192 Y18.898 E10.94698
G1 X86.121 Y19.273 E10.99268
G1 X86.049 Y19.555 E11.02753
G1 X85.902 Y20.002 E11.08387
G1 X85.396 Y21.308 E11.25157
G1 X85.233 Y21.661 E11.29813
G1 X85.112 Y21.889 E11.32904
G1 X84.864 Y22.287 E11.38519
G1 X84.131 Y23.341 E11.53891
G1 X83.807 Y23.758 E11.60214
G1 X83.621 Y23.965 E11.63546
G1 X83.267 Y24.308 E11.69448
G1 X82.208 Y25.23 E11.8626
G1 X81.886 Y25.478 E11.91127
G1 X81.661 Y25.631 E11.94385
G1 X81.298 Y25.844 E11.99424
G1 X79.178 Y26.954 E12.28077
G1 X78.954 Y27.054 E12.31014
G1 X78.361 Y27.366 E12.39038
G1 X77.802 Y27.758 E12.47213
G1 X77.297 Y28.217 E12.55384
G1 X76.853 Y28.737 E12.63571
G1 X76.479 Y29.308 E12.71744
G1 X76.18 Y29.922 E12.79921
G1 X75.961 Y30.569 E12.881
G1 X75.825 Y31.237 E12.96262
G1 X75.774 Y31.919 E13.04451
G1 X75.811 Y32.603 E13.12653
G1 X75.958 Y33.371 E13.22016
G1 X76.058 Y33.742 E13.26616
G1 X76.273 Y34.376 E13.34632
G1 X76.574 Y34.99 E13.4282
G1 X76.947 Y35.561 E13.50986
G1 X77.391 Y36.08 E13.59165
G1 X77.897 Y36.539 E13.67345
G1 X78.455 Y36.931 E13.7551
G1 X79.063 Y37.25 E13.83731
G1 X79.326 Y37.344 E13.87075
G1 X79.323 Y37.356 E13.87223
G1 X80.247 Y37.671 E13.98912
G1 X81.571 Y38.202 E14.15993
G1 X81.916 Y38.365 E14.20561
G1 X82.157 Y38.497 E14.23852
G1 X82.534 Y38.736 E14.29196
G1 X83.703 Y39.578 E14.46446
G1 X84.01 Y39.829 E14.51194
G1 X84.212 Y40.015 E14.54482
G1 X84.529 Y40.35 E14.60005
G1 X85.45 Y41.432 E14.77018
G1 X85.688 Y41.749 E14.81764
G1 X85.836 Y41.973 E14.84979
G1 X86.016 Y42.284 E14.89282
G1 X86.649 Y43.542 E15.06144
G1 X86.857 Y44.018 E15.12364
G1 X86.947 Y44.271 E15.15579
G1 X87.067 Y44.693 E15.20832
G1 X87.584 Y46.96 E15.48673
G1 X87.653 Y47.383 E15.53805
G1 X87.676 Y47.608 E15.56513
G1 X87.694 Y48.035 E15.61631
G1 X87.691 Y48.506 E15.6727
G1 X87.682 Y48.675 E15.69297
G1 X87.613 Y49.372 E15.77683
G1 X87.478 Y50.21 E15.87846
G1 X85.45 Y68.944 E18.13471
G1 X85.319 Y69.676 E18.22375
G1 X85.283 Y69.833 E18.24304
G1 X84.88 Y71.337 E18.42947
G1 X84.82 Y71.53 E18.45367
G1 X84.646 Y72.023 E18.51627
G1 X84.571 Y72.212 E18.54062
G1 X76.979 Y89.414 E20.79201
G1 X76.835 Y89.775 E20.83854
G1 X76.552 Y90.561 E20.93857
G1 X76.399 Y90.919 E20.98519
G1 X76.27 Y91.176 E21.01962
G1 X76.136 Y91.405 E21.05139
G1 X75.95 Y91.676 E21.09074
G1 X75.656 Y92.047 E21.14742
G1 X75.534 Y92.189 E21.16984
G1 X73.769 Y94.082 E21.47974
G1 X73.495 Y94.341 E21.52488
G1 X73.283 Y94.521 E21.55818
G1 X72.915 Y94.789 E21.61269
G1 X71.722 Y95.567 E21.78323
G1 X71.384 Y95.76 E21.82983
G1 X71.139 Y95.881 E21.86255
G1 X70.723 Y96.053 E21.91645
G1 X69.377 Y96.523 E22.08716
G1 X69.002 Y96.63 E22.13385
G1 X68.72 Y96.692 E22.16843
G1 X68.26 Y96.759 E22.22409
G1 X66.995 Y96.883 E22.37628
G1 X66.449 Y96.908 E22.44172
G1 X66.171 Y96.9 E22.47502
G1 X65.72 Y96.857 E22.52927
G1 X64.3 Y96.644 E22.7012
G1 X63.925 Y96.565 E22.74708
G1 X63.662 Y96.492 E22.77977
G1 X63.213 Y96.333 E22.8368
G1 X61.901 Y95.796 E23.00654
G1 X61.55 Y95.627 E23.05319
G1 X61.319 Y95.499 E23.08481
G1 X60.932 Y95.247 E23.14011
G1 X60.356 Y94.904 E23.22038
G1 X59.731 Y94.631 E23.30204
G1 X59.075 Y94.44 E23.38385
G1 X58.401 Y94.332 E23.46558
G1 X57.718 Y94.311 E23.5474
G1 X57.039 Y94.376 E23.62907
G1 X56.373 Y94.526 E23.71081
G1 X55.731 Y94.759 E23.79259
G1 X55.123 Y95.071 E23.87442
G1 X54.56 Y95.458 E23.95622
G1 X54.054 Y95.907 E24.03722
G1 X53.793 Y96.191 E24.0834
G1 X53.509 Y96.513 E24.13481
G1 X53.123 Y96.856 E24.19664
G1 X52.906 Y97.025 E24.22957
G1 X52.675 Y97.181 E24.26295
G1 X52.407 Y97.339 E24.3002
G1 X52.15 Y97.469 E24.33468
G1 X51.881 Y97.584 E24.36971
G1 X51.624 Y97.677 E24.40244
G1 X51.332 Y97.761 E24.43882
G1 X51.071 Y97.817 E24.47078
G1 X50.751 Y97.865 E24.50953
G1 X50.283 Y97.901 E24.56573
G1 X50.091 Y97.908 E24.58873
G1 X30.392 Y97.904 E26.94742
G1 X30.015 Y97.88 E26.99265
G1 X29.719 Y97.843 E27.02837
G1 X29.321 Y97.767 E27.07689
G1 X28.656 Y97.683 E27.15715
G1 X27.971 Y97.683 E27.23916
G1 X27.174 Y97.796 E27.33555
G1 X27.079 Y97.816 E27.34717
G1 X26.751 Y97.865 E27.38688
G1 X26.283 Y97.901 E27.44309
G1 X26.091 Y97.908 E27.46609
G1 X6.392 Y97.904 E29.82478
G1 X6.015 Y97.88 E29.87001
G1 X5.717 Y97.843 E29.90597
G1 X5.433 Y97.788 E29.9406
G1 X5.142 Y97.712 E29.97662
G1 X4.882 Y97.627 E30.00937
G1 X4.605 Y97.517 E30.04505
G1 X4.346 Y97.394 E30.07939
G1 X4.088 Y97.251 E30.11471
G1 X3.869 Y97.112 E30.14576
G1 X3.603 Y96.914 E30.18547
G1 X3.121 Y96.493 E30.2621
G1 X2.775 Y96.104 E30.32443
G1 X2.608 Y95.889 E30.35703
G1 X2.451 Y95.656 E30.39067
G1 X2.294 Y95.39 E30.42766
G1 X2.164 Y95.133 E30.46214
G1 X2.055 Y94.879 E30.49524
G1 X1.947 Y94.577 E30.53364
G1 X1.874 Y94.325 E30.56505
G1 X1.816 Y94.054 E30.59824
G1 X1.768 Y93.734 E30.63698
G1 X1.731 Y93.256 E30.69439
G1 X1.725 Y93.088 E30.71451
G1 X1.729 Y28.375 E38.46302
G1 X1.753 Y27.998 E38.50825
G1 X1.79 Y27.7 E38.54421
G1 X1.845 Y27.416 E38.57885
G1 X1.921 Y27.125 E38.61486
G1 X2.005 Y26.867 E38.64735
G1 X2.116 Y26.588 E38.6833
G1 X2.238 Y26.33 E38.71747
G1 X2.384 Y26.067 E38.75349
G1 X2.902 Y25.265 E38.86781
G1 X3.198 Y24.649 E38.94964
G1 X3.413 Y24.001 E39.03139
G1 X3.544 Y23.331 E39.11313
G1 X3.591 Y22.651 E39.19474
G1 X3.551 Y21.967 E39.27678
G1 X3.409 Y21.24 E39.36548
G1 X2.99 Y19.679 E39.559
G1 X2.947 Y19.484 E39.58291
G1 X2.834 Y18.848 E39.66026
G1 X2.808 Y18.656 E39.68345
G1 X2.676 Y17.159 E39.8634
G1 X2.668 Y16.963 E39.88688
G1 X2.668 Y16.333 E39.96232
G1 X2.677 Y16.131 E39.98653
G1 X2.808 Y14.616 E40.16861
G1 X2.833 Y14.421 E40.19215
G1 X2.941 Y13.805 E40.26703
G1 X2.987 Y13.602 E40.29195
G1 X3.378 Y12.133 E40.47397
G1 X3.431 Y11.963 E40.49529
G1 X3.648 Y11.364 E40.57157
G1 X3.724 Y11.182 E40.59519
G1 X4.366 Y9.803 E40.77732
G1 X4.455 Y9.631 E40.80051
G1 X4.768 Y9.088 E40.87556
G1 X4.892 Y8.892 E40.90333
G1 X5.756 Y7.657 E41.0838
G1 X5.859 Y7.522 E41.10413
G1 X6.276 Y7.025 E41.18181
G1 X6.404 Y6.885 E41.20452
G0 F2400 X6.4 Y6.889
G1 F900 X6.4 Y97.904 E52.10234
G0 F2400 X8 Y97.904
G1 F900 X8 Y5.36 E63.18323
G0 F2400 X9.6 Y4.218
G1 F900 X9.6 Y97.904 E74.40086
G0 F2400 X11.2 Y97.904
G1 F900 X11.2 Y3.387 E85.718
G0 F2400 X12.8 Y2.751
G1 F900 X12.8 Y97.905 E97.1114
G0 F2400 X14.4 Y97.905
G1 F900 X14.4 Y2.333 E108.55486
G0 F2400 X16 Y2.126
G1 F900 X16 Y97.905 E120.0231
G0 F2400 X17.6 Y97.906
G1 F900 X17.6 Y2.059 E131.49948
G0 F2400 X19.2 Y2.192
G1 F900 X19.2 Y97.906 E142.95994
G0 F2400 X20.8 Y97.906
G1 F900 X20.8 Y2.517 E154.38148
G0 F2400 X22.4 Y2.998
G1 F900 X22.4 Y97.907 E165.74555
G0 F2400 X24 Y97.907
G1 F900 X24 Y3.722 E177.02294
G0 F2400 X25.6 Y4.715
G1 F900 X25.6 Y97.907 E188.18142
G0 F2400 X27.2 Y97.793
G1 F900 X27.2 Y5.961 E199.17706
G0 F2400 X28.8 Y6.776
G1 F900 X28.8 Y97.701 E210.0641
G0 F2400 X30.4 Y97.904
G1 F900 X30.4 Y7.037 E220.94419
G0 F2400 X32 Y6.811
G1 F900 X32 Y97.904 E231.85135
G0 F2400 X33.6 Y97.904
G1 F900 X33.6 Y6.224 E242.82879
G0 F2400 X35.2 Y6.018
G1 F900 X35.2 Y97.904 E253.8309
G0 F2400 X36.8 Y97.905
G1 F900 X36.8 Y5.783 E264.86126
G0 F2400 X38.4 Y5.534
G1 F900 X38.4 Y97.905 E275.92144
G0 F2400 X40 Y97.905
G1 F900 X40 Y5.286 E287.01132
G0 F2400 X41.6 Y5.038
G1 F900 X41.6 Y97.906 E298.131
G0 F2400 X43.2 Y97.906
G1 F900 X43.2 Y4.79 E309.28039
G0 F2400 X44.8 Y4.541
G1 F900 X44.8 Y97.906 E320.45958
G0 F2400 X46.4 Y97.907
G1 F900 X46.4 Y4.293 E331.66859
G0 F2400 X48 Y4.045
G1 F900 X48 Y97.907 E342.9073
G0 F2400 X49.6 Y97.907
G1 F900 X49.6 Y3.796 E354.17582
G0 F2400 X51.2 Y3.548
G1 F900 X51.2 Y97.79 E365.46003
G0 F2400 X52.8 Y97.097
G1 F900 X52.8 Y3.3 E376.69095
G0 F2400 X54.4 Y3.064
G1 F900 X54.4 Y95.6 E387.77089
G0 F2400 X56 Y94.662
G1 F900 X56 Y3.022 E398.74354
G0 F2400 X57.6 Y3.099
G1 F900 X57.6 Y94.323 E409.66638
G0 F2400 X59.2 Y94.476
G1 F900 X59.2 Y3.348 E420.57772
G0 F2400 X60.8 Y3.596
G1 F900 X60.8 Y95.168 E431.54223
G0 F2400 X62.4 Y96
G1 F900 X62.4 Y3.845 E442.57655
G0 F2400 X64 Y4.093
G1 F900 X64 Y96.58 E453.65062
G0 F2400 X65.6 Y96.839
G1 F900 X65.6 Y4.342 E464.72588
G0 F2400 X67.2 Y4.59
G1 F900 X67.2 Y96.863 E475.77433
G0 F2400 X68.8 Y96.675
G1 F900 X68.8 Y4.839 E486.77045
G0 F2400 X70.4 Y5.087
G1 F900 X70.4 Y96.166 E497.67593
G0 F2400 X72 Y95.386
G1 F900 X72 Y5.336 E508.4582
G0 F2400 X73.6 Y5.584
G1 F900 X73.6 Y94.242 E519.0738
G0 F2400 X75.2 Y92.548
G1 F900 X75.2 Y5.833 E529.45675
G0 F2400 X76.8 Y6.049
G1 F900 X76.8 Y28.818 E532.18303
G0 F2400 X78.4 Y27.346
G1 F900 X78.4 Y6.364 E534.69534
G0 F2400 X80 Y7.087
G1 F900 X80 Y26.524 E537.02265
G0 F2400 X81.6 Y25.667
G1 F900 X81.6 Y7.948 E539.14427
G0 F2400 X83.2 Y9.25
G1 F900 X83.2 Y24.367 E540.95432
G0 F2400 X84.8 Y22.38
G1 F900 X84.8 Y11.238 E542.28843
G0 F2400 X86.4 Y16.519
G1 F900 X86.4 Y17.15 E542.36398
G0 F2400 X77.225 Y29.011
G0 X76.88 Y29.538
G0 X76.608 Y30.097
G0 X76.406 Y30.691
G0 X76.236 Y31.925
G0 X76.254 Y32.277
G0 X76.8 Y35.336
G1 F900 X76.8 Y89.873 E548.89405
G0 F2400 X78.4 Y86.195
G1 F900 X78.4 Y36.893 E554.7973
G0 F2400 X80 Y37.587
G1 F900 X80 Y82.569 E560.18328
G0 F2400 X81.6 Y78.944
G1 F900 X81.6 Y38.216 E565.05991
G0 F2400 X83.2 Y39.216
G1 F900 X83.2 Y75.319 E569.38276
G0 F2400 X84.8 Y71.587
G1 F900 X84.8 Y40.669 E573.08477
G0 F2400 X86.4 Y43.048
G1 F900 X86.4 Y60.169 E575.13478
G0 F2400 X4.8 Y97.594
G1 F900 X4.8 Y9.037 E585.73828
G0 F2400 X3.2 Y12.801
G1 F900 X3.2 Y20.461 E586.65546
G0 F2400 X3.2 Y24.642
G1 F900 X3.2 Y96.562 E595.26691
G0 F2400 X84.101 Y10.221
;TIME_ELAPSED:348.694326
;LAYER:-5
G0 X84.101 Y10.221 Z0.66
;TYPE:SUPPORT
G1 F900 X83.877 Y9.932 E595.3034
G1 X83.716 Y9.747 E595.32787
G1 X83.427 Y9.454 E595.36893
G1 X82.375 Y8.512 E595.50983
G1 X82.001 Y8.21 E595.5578
G1 X81.786 Y8.061 E595.5839
G1 X81.441 Y7.851 E595.6242
G1 X81.332 Y7.793 E595.63652
G1 X84.85 Y11.311 E596.13295
G1 X84.896 Y11.378 E596.14106
G1 X85.167 Y11.826 E596.1933
G1 X85.306 Y12.096 E596.2236
G1 X85.484 Y12.514 E596.26893
G1 X85.979 Y13.841 E596.41025
G1 X85.984 Y13.86 E596.41221
G1 X78.526 Y6.401 E597.46469
G1 X78.142 Y6.287 E597.50466
G1 X77.618 Y6.166 E597.55832
G1 X76.881 Y6.054 E597.6327
G1 X76.755 Y6.045 E597.64531
G1 X86.308 Y15.597 E598.99327
G1 X86.38 Y16.218 E599.05565
G1 X86.411 Y16.723 E599.10613
G1 X86.409 Y17.023 E599.13606
G1 X86.402 Y17.106 E599.14438
G1 X75.116 Y5.82 E600.73695
G1 X73.442 Y5.559 E600.906
G1 X86.259 Y18.376 E602.71462
G1 X86.191 Y18.897 E602.76705
G1 X86.119 Y19.272 E602.80515
G1 X86.048 Y19.555 E602.83426
G1 X86.042 Y19.574 E602.83625
G1 X71.768 Y5.3 E604.85046
G1 X70.094 Y5.04 E605.0195
G1 X85.665 Y20.612 E607.21681
G1 X85.395 Y21.307 E607.2912
G1 X85.254 Y21.614 E607.32491
G1 X68.419 Y4.78 E609.70044
G1 X66.745 Y4.519 E609.86949
G1 X84.719 Y22.494 E612.40589
G1 X84.14 Y23.328 E612.50719
G1 X65.07 Y4.259 E615.19811
G1 X63.397 Y4 E615.36703
G1 X83.488 Y24.091 E618.20208
G1 X83.266 Y24.308 E618.23306
G1 X82.744 Y24.762 E618.30209
G1 X61.722 Y3.739 E621.26859
G1 X60.048 Y3.479 E621.43763
G1 X81.975 Y25.407 E624.53183
G1 X81.885 Y25.477 E624.54321
G1 X81.66 Y25.63 E624.57036
G1 X81.296 Y25.844 E624.61249
G1 X81.1 Y25.946 E624.63454
G1 X58.373 Y3.219 E627.84156
G1 X57.568 Y3.094 E627.92285
G1 X57.385 Y3.072 E627.94124
G1 X56.829 Y3.029 E627.99688
G1 X56.767 Y3.027 E628.00307
G1 X80.172 Y26.432 E631.30577
G1 X79.244 Y26.918 E631.4103
G1 X55.345 Y3.02 E634.78263
G1 X55.089 Y3.019 E634.80818
G1 X54.901 Y3.026 E634.82695
G1 X54.331 Y3.07 E634.88399
G1 X54.149 Y3.09 E634.90226
G1 X54.022 Y3.11 E634.91509
G1 X78.311 Y27.399 E638.34253
G1 X77.801 Y27.758 E638.40476
G1 X77.515 Y28.017 E638.44326
G1 X52.798 Y3.3 E641.9311
G1 X51.574 Y3.49 E642.05469
G1 X76.839 Y28.756 E645.61993
G1 X76.477 Y29.308 E645.68579
G1 X76.314 Y29.645 E645.72315
G1 X50.349 Y3.68 E649.38709
G1 X49.125 Y3.87 E649.51068
G1 X75.937 Y30.682 E653.29414
G1 X75.824 Y31.237 E653.35066
G1 X75.773 Y31.918 E653.4188
G1 X75.774 Y31.934 E653.4204
G1 X47.901 Y4.06 E657.35365
G1 X46.676 Y4.25 E657.47734
G1 X76.016 Y33.589 E661.61746
G1 X76.057 Y33.742 E661.63327
G1 X76.272 Y34.375 E661.69997
G1 X76.573 Y34.989 E661.7682
G1 X76.946 Y35.561 E661.83634
G1 X77.39 Y36.08 E661.90449
G1 X77.896 Y36.539 E661.97266
G1 X78.454 Y36.931 E662.0407
G1 X79.062 Y37.249 E662.10917
G1 X79.325 Y37.344 E662.13707
G1 X79.322 Y37.355 E662.13821
G0 F2400 X82.689 Y38.849
G1 F900 X82.532 Y38.736 E662.15751
G1 X82.156 Y38.497 E662.20196
G1 X81.915 Y38.364 E662.22943
G1 X81.57 Y38.202 E662.26746
G1 X80.246 Y37.671 E662.4098
G1 X80.021 Y37.594 E662.43352
G1 X87.044 Y44.618 E663.42462
G1 X87.066 Y44.693 E663.43242
G1 X87.468 Y46.456 E663.61284
G1 X45.452 Y4.44 E669.54175
G1 X44.228 Y4.63 E669.66535
G1 X87.693 Y48.095 E675.79873
G1 X87.689 Y48.506 E675.83974
G1 X87.681 Y48.674 E675.85652
G1 X87.612 Y49.372 E675.92651
G1 X87.604 Y49.421 E675.93146
G1 X43.004 Y4.82 E682.22508
G1 X41.78 Y5.01 E682.34867
G1 X87.429 Y50.659 E688.79024
G1 X87.29 Y51.935 E688.91831
G1 X40.556 Y5.2 E695.51305
G1 X39.331 Y5.39 E695.63675
G1 X87.153 Y53.211 E702.38488
G1 X87.015 Y54.488 E702.51304
G1 X38.107 Y5.58 E709.41448
G1 X36.883 Y5.77 E709.53808
G1 X86.876 Y55.763 E716.59263
G1 X86.738 Y57.04 E716.72079
G1 X35.658 Y5.96 E723.92873
G1 X35.529 Y5.98 E723.94176
G1 X35.145 Y6.025 E723.98033
G1 X34.375 Y6.091 E724.05745
G1 X86.6 Y58.316 E731.42696
G1 X86.462 Y59.592 E731.55502
G1 X33.211 Y6.341 E739.06931
G1 X32.993 Y6.421 E739.09248
G1 X32.647 Y6.576 E739.13031
G1 X32.196 Y6.74 E739.1782
G1 X86.324 Y60.868 E746.81624
G1 X86.186 Y62.144 E746.9443
G1 X31.045 Y7.003 E754.7253
G1 X30.554 Y7.044 E754.77446
