;FLAVOR:Marlin
;TIME:13996
;Filament used: 8.8823m
;Layer height: 0.2
;Generated with Cura_SteamEngine 3.6.0
M104 S200
M105
M109 S200
M82 ;absolute extrusion mode
G28 ;Home
G1 Z15.0 F6000 ;Move the platform down 15mm
;Prime the extruder
G92 E0
G1 F200 E3
G92 E0
G92 E0
G1 F1500 E-6.5
;LAYER_COUNT:66
;LAYER:-6
M107
G0 F2400 X6.525 Y7.078 Z0.36
;TYPE:SUPPORT-INTERFACE
G1 F1500 E0
G1 F900 X6.763 Y6.858 E0.03881
G1 X7.245 Y6.436 E0.11551
G1 X7.477 Y6.246 E0.15142
G1 X7.976 Y5.86 E0.22696
G1 X8.265 Y5.653 E0.26952
G1 X8.789 Y5.3 E0.34517
G1 X9.056 Y5.133 E0.38288
G1 X9.538 Y4.848 E0.44993
G1 X9.83 Y4.688 E0.4898
G1 X10.393 Y4.402 E0.56541
G1 X10.665 Y4.274 E0.6014
G1 X11.267 Y4.014 E0.67992
G1 X11.537 Y3.908 E0.71465
G1 X12.151 Y3.688 E0.79274
G1 X12.423 Y3.6 E0.82697
G1 X13.297 Y3.353 E0.93572
G1 X14.008 Y3.196 E1.02291
G1 X14.31 Y3.139 E1.05971
G1 X14.964 Y3.037 E1.13896
G1 X15.268 Y3 E1.17563
G1 X15.865 Y2.945 E1.24741
G1 X16.54 Y2.915 E1.32832
G1 X16.913 Y2.905 E1.37299
G1 X72.332 Y2.906 E8.00867
G1 X73.086 Y2.93 E8.099
G1 X73.368 Y2.948 E8.13283
G1 X74.034 Y3.013 E8.21295
G1 X74.308 Y3.048 E8.24603
G1 X74.977 Y3.156 E8.32717
G1 X75.777 Y3.325 E8.42507
G1 X76.209 Y3.436 E8.47848
G1 X76.769 Y3.6 E8.54835
G1 X77.041 Y3.688 E8.58258
G1 X77.655 Y3.908 E8.66067
G1 X77.943 Y4.021 E8.69772
G1 X78.557 Y4.288 E8.77789
G1 X78.834 Y4.419 E8.81457
G1 X79.397 Y4.707 E8.89029
G1 X79.654 Y4.848 E8.92539
G1 X80.268 Y5.214 E9.01098
G1 X80.492 Y5.359 E9.04293
G1 X81.034 Y5.728 E9.12144
G1 X81.273 Y5.903 E9.15691
G1 X81.786 Y6.303 E9.2348
G1 X82.026 Y6.504 E9.27228
G1 X82.493 Y6.916 E9.34685
G1 X82.711 Y7.12 E9.3826
G1 X83.172 Y7.583 E9.46083
G1 X83.392 Y7.821 E9.49964
G1 X83.748 Y8.225 E9.56411
G1 X84.004 Y8.535 E9.61225
G1 X84.39 Y9.034 E9.68779
G1 X84.594 Y9.318 E9.72966
G1 X84.96 Y9.862 E9.80817
G1 X85.411 Y10.612 E9.91295
G1 X85.567 Y10.897 E9.95186
G1 X85.84 Y11.432 E10.02377
G1 X85.996 Y11.769 E10.06824
G1 X86.229 Y12.308 E10.13855
G1 X86.366 Y12.66 E10.18378
G1 X86.556 Y13.187 E10.25085
G1 X86.667 Y13.533 E10.29436
G1 X86.821 Y14.066 E10.36079
G1 X86.906 Y14.396 E10.40159
G1 X87.042 Y15 E10.47573
G1 X87.091 Y15.254 E10.5067
G1 X87.195 Y15.894 E10.58434
G1 X87.245 Y16.276 E10.63047
G1 X87.304 Y16.903 E10.70587
G1 X87.327 Y17.345 E10.75887
G1 X87.346 Y18.052 E10.84355
G1 X87.343 Y73.455 E17.47731
G1 X87.321 Y74.119 E17.55686
G1 X87.304 Y74.4 E17.59057
G1 X87.242 Y75.051 E17.66887
G1 X87.205 Y75.345 E17.70435
G1 X87.093 Y76.044 E17.78911
G1 X86.908 Y76.907 E17.89479
G1 X86.666 Y77.772 E18.00234
G1 X86.539 Y78.165 E18.05179
G1 X86.363 Y78.653 E18.11391
G1 X86.23 Y78.994 E18.15774
G1 X85.994 Y79.541 E18.22907
G1 X85.852 Y79.848 E18.26957
G1 X85.421 Y80.678 E18.38155
G1 X85.109 Y81.206 E18.45498
G1 X84.947 Y81.465 E18.49156
G1 X84.585 Y82.002 E18.56911
G1 X84.395 Y82.267 E18.60815
G1 X84.014 Y82.759 E18.68266
G1 X83.776 Y83.052 E18.72786
G1 X83.353 Y83.533 E18.80455
G1 X83.123 Y83.776 E18.84461
G1 X82.667 Y84.23 E18.92166
G1 X82.429 Y84.45 E18.96047
G1 X81.948 Y84.871 E19.03701
G1 X81.221 Y85.445 E19.14792
G1 X80.966 Y85.629 E19.18557
G1 X80.433 Y85.989 E19.26258
G1 X80.144 Y86.169 E19.30335
G1 X79.623 Y86.477 E19.37582
G1 X79.342 Y86.629 E19.41407
G1 X78.799 Y86.906 E19.48706
G1 X78.527 Y87.034 E19.52305
G1 X77.926 Y87.294 E19.60146
G1 X77.655 Y87.4 E19.6363
G1 X77.044 Y87.62 E19.71406
G1 X76.781 Y87.705 E19.74715
G1 X76.083 Y87.906 E19.83412
G1 X75.256 Y88.098 E19.93578
G1 X74.882 Y88.169 E19.98136
G1 X74.228 Y88.271 E20.06062
G1 X73.924 Y88.308 E20.09728
G1 X73.327 Y88.363 E20.16907
G1 X72.652 Y88.393 E20.24997
G1 X72.279 Y88.403 E20.29465
G1 X56.163 Y88.404 E22.22432
G1 X55.495 Y88.446 E22.30446
G1 X54.824 Y88.575 E22.38628
G1 X54.175 Y88.788 E22.46807
G1 X53.558 Y89.08 E22.5498
G1 X52.983 Y89.448 E22.63154
G1 X52.459 Y89.886 E22.71331
G1 X51.995 Y90.386 E22.79499
G1 X51.596 Y90.942 E22.87693
G1 X51.271 Y91.544 E22.95885
G1 X51.164 Y91.83 E22.99541
G1 X51.144 Y91.823 E22.99795
G1 X50.814 Y92.826 E23.12438
G1 X50.647 Y93.236 E23.17738
G1 X50.382 Y93.79 E23.25092
G1 X50.165 Y94.174 E23.30373
G1 X49.842 Y94.673 E23.3749
G1 X49.572 Y95.038 E23.42926
G1 X49.166 Y95.519 E23.50463
G1 X48.853 Y95.843 E23.55857
G1 X48.435 Y96.23 E23.62678
G1 X48.07 Y96.523 E23.68282
G1 X47.733 Y96.769 E23.73278
G1 X47.363 Y97.011 E23.78572
G1 X46.798 Y97.327 E23.86323
G1 X46.376 Y97.528 E23.9192
G1 X45.854 Y97.739 E23.98661
G1 X45.306 Y97.918 E24.05564
G1 X44.671 Y98.075 E24.13396
G1 X44.253 Y98.148 E24.18477
G1 X43.649 Y98.217 E24.25756
G1 X43.206 Y98.239 E24.31067
G1 X42.624 Y98.234 E24.38036
G1 X42.195 Y98.203 E24.43186
G1 X41.595 Y98.124 E24.50432
G1 X41.164 Y98.038 E24.55695
G1 X40.55 Y97.875 E24.63301
G1 X40.161 Y97.745 E24.68212
G1 X39.719 Y97.569 E24.73908
G1 X39.173 Y97.31 E24.81144
G1 X38.623 Y97.001 E24.88698
G1 X38.398 Y96.857 E24.91897
G1 X37.891 Y96.5 E24.99321
G1 X37.487 Y96.165 E25.05605
G1 X37.191 Y95.888 E25.10459
G1 X36.75 Y95.426 E25.18107
G1 X36.473 Y95.097 E25.23256
G1 X36.105 Y94.597 E25.3069
G1 X35.855 Y94.208 E25.36227
G1 X35.56 Y93.676 E25.4351
G1 X35.38 Y93.297 E25.48534
G1 X35.157 Y92.74 E25.55718
G1 X35.092 Y92.558 E25.58032
G1 X34.862 Y91.837 E25.67094
G1 X34.848 Y91.842 E25.67272
G1 X34.797 Y91.698 E25.69101
G1 X34.491 Y91.086 E25.77294
G1 X34.111 Y90.519 E25.85467
G1 X33.663 Y90.005 E25.93631
G1 X33.153 Y89.551 E26.01806
G1 X32.589 Y89.165 E26.09989
G1 X31.982 Y88.853 E26.18161
G1 X31.34 Y88.62 E26.26339
G1 X30.671 Y88.469 E26.34551
G1 X29.84 Y88.404 E26.44531
G1 X16.765 Y88.4 E28.01087
G1 X15.856 Y88.362 E28.1198
G1 X15.263 Y88.307 E28.19111
G1 X14.958 Y88.27 E28.2279
G1 X14.274 Y88.163 E28.3108
G1 X13.988 Y88.109 E28.34565
G1 X13.359 Y87.971 E28.42275
G1 X13.059 Y87.893 E28.45987
G1 X12.428 Y87.71 E28.53853
G1 X12.139 Y87.617 E28.57488
G1 X11.484 Y87.38 E28.65829
G1 X11.237 Y87.281 E28.69015
G1 X10.607 Y87.007 E28.77241
G1 X10.31 Y86.864 E28.81188
G1 X9.775 Y86.59 E28.88385
G1 X9.494 Y86.434 E28.92233
G1 X8.929 Y86.096 E29.00117
G1 X8.709 Y85.956 E29.03239
G1 X8.184 Y85.6 E29.10834
G1 X7.966 Y85.441 E29.14065
G1 X7.491 Y85.073 E29.2126
G1 X7.213 Y84.846 E29.25557
G1 X6.72 Y84.412 E29.33421
G1 X6.468 Y84.175 E29.37564
G1 X6.006 Y83.711 E29.45404
G1 X5.8 Y83.487 E29.49048
G1 X5.374 Y83 E29.56795
G1 X5.184 Y82.768 E29.60385
G1 X4.796 Y82.267 E29.67973
G1 X4.595 Y81.985 E29.72119
G1 X4.232 Y81.446 E29.799
G1 X3.781 Y80.696 E29.90379
G1 X3.626 Y80.412 E29.94253
G1 X3.323 Y79.813 E30.02291
G1 X3.226 Y79.606 E30.05028
G1 X2.958 Y78.987 E30.13104
G1 X2.845 Y78.7 E30.16798
G1 X2.63 Y78.099 E30.2444
G1 X2.527 Y77.776 E30.285
G1 X2.341 Y77.13 E30.36549
G1 X2.274 Y76.862 E30.39857
G1 X2.135 Y76.23 E30.47605
G1 X2.081 Y75.941 E30.51125
G1 X1.979 Y75.284 E30.59086
G1 X1.941 Y74.973 E30.62838
G1 X1.885 Y74.373 E30.70053
G1 X1.847 Y73.334 E30.82502
G1 X1.846 Y18.106 E37.43783
G1 X1.87 Y17.202 E37.54611
G1 X1.896 Y16.819 E37.59207
G1 X1.948 Y16.271 E37.65798
G1 X1.991 Y15.935 E37.69854
G1 X2.16 Y14.954 E37.81773
G1 X2.303 Y14.324 E37.89508
G1 X2.542 Y13.477 E38.00046
G1 X2.658 Y13.127 E38.04461
G1 X2.824 Y12.664 E38.1035
G1 X2.96 Y12.314 E38.14846
G1 X3.222 Y11.708 E38.22752
G1 X3.353 Y11.43 E38.26431
G1 X3.677 Y10.801 E38.34903
G1 X3.805 Y10.571 E38.38055
G1 X4.245 Y9.843 E38.4824
G1 X4.667 Y9.22 E38.5725
G1 X4.796 Y9.042 E38.59882
G1 X5.178 Y8.549 E38.6735
G1 X5.417 Y8.255 E38.71887
G1 X5.832 Y7.783 E38.79412
G1 X6.069 Y7.532 E38.83545
G1 X6.525 Y7.078 E38.9125
G0 F2400 X6.4 Y7.202
G1 F900 X6.4 Y84.106 E48.12071
G0 F2400 X8 Y85.465
G1 F900 X8 Y5.842 E57.65449
G0 F2400 X9.6 Y4.814
G1 F900 X9.6 Y86.492 E67.43433
G0 F2400 X11.2 Y87.264
G1 F900 X11.2 Y4.042 E77.39904
G0 F2400 X12.8 Y3.493
G1 F900 X12.8 Y87.817 E87.4957
G0 F2400 X14.4 Y88.182
G1 F900 X14.4 Y3.124 E97.68025
G0 F2400 X16 Y2.939
G1 F900 X16 Y88.368 E107.90921
G0 F2400 X17.6 Y88.4
G1 F900 X17.6 Y2.906 E118.14596
G0 F2400 X19.2 Y2.906
G1 F900 X19.2 Y88.4 E128.38272
G0 F2400 X20.8 Y88.401
G1 F900 X20.8 Y2.906 E138.61959
G0 F2400 X22.4 Y2.906
G1 F900 X22.4 Y88.401 E148.85646
G0 F2400 X24 Y88.402
G1 F900 X24 Y2.906 E159.09345
G0 F2400 X25.6 Y2.906
G1 F900 X25.6 Y88.402 E169.33044
G0 F2400 X27.2 Y88.403
G1 F900 X27.2 Y2.906 E179.56755
G0 F2400 X28.8 Y2.906
G1 F900 X28.8 Y88.403 E189.80466
G0 F2400 X30.4 Y88.447
G1 F900 X30.4 Y2.906 E200.04704
G0 F2400 X32 Y2.906
G1 F900 X32 Y88.862 E210.33911
G0 F2400 X33.6 Y89.948
G1 F900 X33.6 Y2.906 E220.76121
G0 F2400 X35.2 Y2.906
G1 F900 X35.2 Y92.847 E231.53043
G0 F2400 X36.8 Y95.478
G1 F900 X36.8 Y2.906 E242.61468
G0 F2400 X38.4 Y2.906
G1 F900 X38.4 Y96.858 E253.86416
G0 F2400 X40 Y97.68
G1 F900 X40 Y2.906 E265.21206
G0 F2400 X41.6 Y2.906
G1 F900 X41.6 Y98.124 E276.61313
G0 F2400 X43.2 Y98.238
G1 F900 X43.2 Y2.906 E288.02785
G0 F2400 X44.8 Y2.906
G1 F900 X44.8 Y98.044 E299.41934
G0 F2400 X46.4 Y97.517
G1 F900 X46.4 Y2.906 E310.74773
G0 F2400 X48 Y2.906
G1 F900 X48 Y96.575 E321.96333
G0 F2400 X49.6 Y95.001
G1 F900 X49.6 Y2.906 E332.99046
G0 F2400 X51.2 Y2.906
G1 F900 X51.2 Y91.734 E343.62641
G0 F2400 X52.8 Y89.601
G1 F900 X52.8 Y2.906 E354.00697
G0 F2400 X54.4 Y2.906
G1 F900 X54.4 Y88.715 E364.28143
G0 F2400 X56 Y88.415
G1 F900 X56 Y2.906 E374.51998
G0 F2400 X57.6 Y2.906
G1 F900 X57.6 Y88.404 E384.75721
G0 F2400 X59.2 Y88.404
G1 F900 X59.2 Y2.906 E394.99444
G0 F2400 X60.8 Y2.906
G1 F900 X60.8 Y88.404 E405.23167
G0 F2400 X62.4 Y88.404
G1 F900 X62.4 Y2.906 E415.4689
G0 F2400 X64 Y2.906
G1 F900 X64 Y88.404 E425.70613
G0 F2400 X65.6 Y88.404
G1 F900 X65.6 Y2.906 E435.94336
G0 F2400 X67.2 Y2.906
G1 F900 X67.2 Y88.404 E446.18059
G0 F2400 X68.8 Y88.404
G1 F900 X68.8 Y2.906 E456.41782
G0 F2400 X70.4 Y2.906
G1 F900 X70.4 Y88.404 E466.65505
G0 F2400 X72 Y88.404
G1 F900 X72 Y2.906 E476.89228
G0 F2400 X73.6 Y2.971
G1 F900 X73.6 Y88.338 E487.11383
G0 F2400 X75.2 Y88.109
G1 F900 X75.2 Y3.204 E497.28005
G0 F2400 X76.8 Y3.611
G1 F900 X76.8 Y87.699 E507.34846
G0 F2400 X78.4 Y87.089
G1 F900 X78.4 Y4.22 E517.2709
G0 F2400 X80 Y5.055
G1 F900 X80 Y86.255 E526.9935
G0 F2400 X81.6 Y85.146
G1 F900 X81.6 Y6.158 E536.45125
G0 F2400 X83.2 Y7.614
G1 F900 X83.2 Y83.695 E545.56092
G0 F2400 X84.8 Y81.684
G1 F900 X84.8 Y9.625 E554.18901
G0 F2400 X86.4 Y12.755
G1 F900 X86.4 Y78.551 E562.06719
G0 F2400 X4.8 Y82.272
G1 F900 X4.8 Y9.036 E570.83621
G0 F2400 X3.2 Y11.758
G1 F900 X3.2 Y79.545 E578.95279
G0 F2400 X3.226 Y79.605
;TIME_ELAPSED:335.290690
;LAYER:-5
G0 X3.226 Y79.605 Z0.66
;TYPE:SUPPORT
G1 F900 X3.323 Y79.812 E578.9756
G1 X3.626 Y80.41 E579.04249
G1 X3.78 Y80.695 E579.07481
G1 X4.232 Y81.445 E579.16219
G1 X4.595 Y81.984 E579.22703
G1 X4.795 Y82.266 E579.26153
G1 X5.183 Y82.767 E579.32475
G1 X5.374 Y82.998 E579.35466
G1 X5.799 Y83.486 E579.41923
G1 X6.006 Y83.71 E579.44967
G1 X6.467 Y84.174 E579.51493
G1 X6.72 Y84.411 E579.54952
G1 X7.213 Y84.845 E579.61506
G1 X7.491 Y85.072 E579.65087
G1 X7.965 Y85.44 E579.71075
G1 X8.184 Y85.599 E579.73775
G1 X8.709 Y85.955 E579.80104
G1 X8.928 Y86.095 E579.82698
G1 X9.494 Y86.433 E579.89276
G1 X9.775 Y86.589 E579.92483
G1 X10.31 Y86.863 E579.9848
G1 X10.607 Y87.005 E580.01765
G1 X10.662 Y87.029 E580.02364
G1 X3.217 Y79.584 E581.07421
G1 X2.957 Y78.985 E581.13936
G1 X2.845 Y78.699 E581.17001
G1 X2.63 Y78.098 E581.2337
G1 X2.526 Y77.775 E581.26756
G1 X2.407 Y77.361 E581.31054
G1 X12.889 Y87.842 E582.78959
G1 X13.058 Y87.891 E582.80715
G1 X13.359 Y87.97 E582.8382
G1 X13.987 Y88.108 E582.90236
G1 X14.273 Y88.162 E582.9314
G1 X14.688 Y88.227 E582.97332
G1 X2.021 Y75.56 E584.76077
G1 X1.979 Y75.283 E584.78872
G1 X1.941 Y74.972 E584.81998
G1 X1.885 Y74.372 E584.88011
G1 X1.871 Y73.995 E584.91776
G1 X16.252 Y88.377 E586.94714
G1 X16.764 Y88.398 E586.99827
G1 X17.688 Y88.398 E587.09047
G1 X1.846 Y72.556 E589.32595
G1 X1.846 Y71.142 E589.46703
G1 X19.103 Y88.399 E591.90218
G1 X20.518 Y88.4 E592.04337
G1 X1.846 Y69.728 E594.67819
G1 X1.846 Y68.314 E594.81928
G1 X21.932 Y88.4 E597.65363
G1 X23.347 Y88.401 E597.79482
G1 X1.846 Y66.9 E600.82885
G1 X1.846 Y65.485 E600.97004
G1 X24.762 Y88.401 E604.20373
G1 X26.177 Y88.402 E604.34492
G1 X1.846 Y64.071 E607.77829
G1 X1.846 Y62.657 E607.91938
G1 X27.591 Y88.402 E611.55228
G1 X29.006 Y88.403 E611.69346
G1 X1.846 Y61.243 E615.52603
G1 X1.846 Y59.829 E615.66712
G1 X30.469 Y88.452 E619.70614
G1 X30.67 Y88.468 E619.72626
G1 X31.339 Y88.619 E619.79469
G1 X31.982 Y88.852 E619.86293
G1 X32.589 Y89.164 E619.93103
G1 X32.611 Y89.179 E619.93369
G1 X1.846 Y58.414 E624.27496
G1 X1.846 Y57 E624.41605
G1 X43.082 Y98.236 E630.2349
G1 X43.205 Y98.238 E630.24717
G1 X43.648 Y98.216 E630.29143
G1 X44.252 Y98.147 E630.35209
G1 X44.383 Y98.123 E630.36538
G1 X1.846 Y55.586 E636.36781
G1 X1.846 Y54.172 E636.50889
G1 X45.52 Y97.846 E642.67177
G1 X45.853 Y97.738 E642.7067
G1 X46.376 Y97.526 E642.76301
G1 X46.537 Y97.449 E642.78082
G1 X1.846 Y52.757 E649.08727
G1 X1.846 Y51.343 E649.22836
G1 X47.453 Y96.95 E655.664
G1 X47.733 Y96.768 E655.69732
G1 X48.069 Y96.522 E655.73887
G1 X48.274 Y96.357 E655.76513
G1 X1.846 Y49.929 E662.31662
G1 X1.846 Y48.515 E662.45771
G1 X49.01 Y95.679 E669.11306
G1 X49.165 Y95.518 E669.13536
G1 X49.571 Y95.037 E669.19817
G1 X49.661 Y94.916 E669.21321
G1 X1.846 Y47.101 E675.96043
G1 X1.846 Y45.686 E676.10162
G1 X50.225 Y94.066 E682.92849
G1 X50.381 Y93.789 E682.96021
G1 X50.647 Y93.234 E683.02162
G1 X50.693 Y93.12 E683.03388
G1 X1.846 Y44.272 E689.92679
G1 X1.846 Y42.858 E690.06788
G1 X51.061 Y92.073 E697.01265
G1 X51.143 Y91.822 E697.039
G1 X51.164 Y91.829 E697.04121
G1 X51.27 Y91.543 E697.07164
G1 X51.507 Y91.105 E697.12133
G1 X1.846 Y41.444 E704.12904
G1 X1.846 Y40.03 E704.27013
G1 X52.094 Y90.278 E711.36066
G1 X52.459 Y89.885 E711.41418
G1 X52.815 Y89.585 E711.46063
G1 X1.846 Y38.615 E718.65298
G1 X1.846 Y37.201 E718.79407
G1 X53.67 Y89.025 E726.10699
G1 X54.174 Y88.787 E726.16261
G1 X54.679 Y88.62 E726.21568
G1 X1.846 Y35.787 E733.67099
G1 X1.846 Y34.373 E733.81208
G1 X55.892 Y88.419 E741.43855
G1 X56.163 Y88.403 E741.46564
G1 X57.289 Y88.402 E741.57799
G1 X1.846 Y32.958 E749.40167
G1 X1.846 Y31.544 E749.54276
G1 X58.704 Y88.402 E757.56604
G1 X60.118 Y88.402 E757.70713
G1 X1.846 Y30.13 E765.92994
G1 X1.846 Y28.716 E766.07102
G1 X61.532 Y88.402 E774.49336
G1 X62.946 Y88.402 E774.63445
G1 X1.846 Y27.302 E783.25632
G1 X1.846 Y25.887 E783.39751
G1 X64.36 Y88.402 E792.21898
G1 X65.775 Y88.402 E792.36017
G1 X1.846 Y24.473 E801.38125
G1 X1.846 Y23.059 E801.52234
G1 X67.189 Y88.402 E810.74294
G1 X68.603 Y88.402 E810.88403
G1 X1.846 Y21.645 E820.30416
G1 X1.846 Y20.231 E820.44525
G1 X70.017 Y88.402 E830.06492
G1 X71.431 Y88.402 E830.20601
G1 X1.846 Y18.816 E840.02527
G1 X1.846 Y18.105 E840.09621
G1 X1.863 Y17.42 E840.16459
G1 X72.828 Y88.384 E850.17844
G1 X73.326 Y88.362 E850.22818
G1 X73.923 Y88.307 E850.288
G1 X74.138 Y88.28 E850.30962
G1 X1.967 Y16.11 E860.49366
G1 X1.991 Y15.933 E860.51148
G1 X2.16 Y14.953 E860.61071
G1 X2.172 Y14.9 E860.61613
G1 X75.347 Y88.075 E870.94192
G1 X76.082 Y87.905 E871.01719
G1 X76.477 Y87.791 E871.05821
G1 X2.458 Y13.772 E881.50309
G1 X2.542 Y13.476 E881.5338
G1 X2.658 Y13.126 E881.57059
G1 X2.807 Y12.707 E881.61496
G1 X77.54 Y87.44 E892.16059
G1 X77.655 Y87.399 E892.17278
G1 X77.925 Y87.293 E892.20172
G1 X78.527 Y87.033 E892.26715
G1 X78.541 Y87.026 E892.26871
G1 X3.222 Y11.707 E902.89704
G1 X3.353 Y11.429 E902.9277
G1 X3.676 Y10.8 E902.99825
G1 X3.695 Y10.766 E903.00214
G1 X79.481 Y86.552 E913.69636
G1 X79.623 Y86.476 E913.71243
G1 X80.144 Y86.168 E913.77282
G1 X80.37 Y86.027 E913.7994
G1 X4.222 Y9.878 E924.54478
G1 X4.244 Y9.842 E924.54899
G1 X4.666 Y9.219 E924.62407
G1 X4.795 Y9.041 E924.646
G0 F2400 X4.796 Y9.038
G1 F900 X81.209 Y85.451 E935.4287
G1 X81.221 Y85.443 E935.43014
G1 X81.948 Y84.869 E935.52257
G1 X81.997 Y84.825 E935.52914
G1 X5.42 Y8.249 E946.33491
G1 X5.832 Y7.782 E946.39705
G1 X6.069 Y7.531 E946.4315
G1 X6.093 Y7.508 E946.43481
G1 X82.741 Y84.155 E957.2506
G1 X83.123 Y83.775 E957.30437
G1 X83.353 Y83.532 E957.33775
G1 X83.437 Y83.437 E957.35041
G1 X6.813 Y6.813 E968.16288
G1 X7.244 Y6.435 E968.22008
G1 X7.476 Y6.245 E968.25
G1 X7.58 Y6.165 E968.26309
G1 X84.083 Y82.669 E979.05856
G1 X84.393 Y82.266 E979.1093
