;FLAVOR:Marlin
;TIME:8708
;Filament used: 6.63745m
;Layer height: 0.2
;MINX:6.8
;MINY:11.83
;MINZ:0.36
;MAXX:83.196
;MAXY:88.166
;MAXZ:18.11
;TARGET_MACHINE.NAME:Unknown
;Generated with Cura_SteamEngine 5.7.0
M104 S200
M105
M109 S200
M82 ;absolute extrusion mode
G28 ;Home
G1 Z15.0 F6000 ;Move the platform down 15mm
;Prime the extruder
G92 E0
G1 F200 E3
G92 E0
G92 E0
G92 E0
G1 F1500 E-6.5
;LAYER_COUNT:84
;LAYER:-6
M107
G0 F2400 X19.172 Y21.857 Z0.36
;TYPE:SUPPORT-INTERFACE
G1 F1500 E0
G1 F900 X19.696 Y21.451 E0.07937
G1 X19.963 Y21.278 E0.11747
G1 X20.498 Y20.894 E0.19632
G1 X20.917 Y20.481 E0.26676
G1 X21.002 Y20.416 E0.27957
G1 X21.383 Y20.028 E0.34468
G1 X21.928 Y19.556 E0.43101
G1 X22.747 Y18.942 E0.55357
G1 X23.485 Y18.559 E0.65313
G1 X24.076 Y18.226 E0.73436
G1 X24.494 Y17.901 E0.79775
G1 X24.599 Y17.833 E0.81273
G1 X25.022 Y17.488 E0.87809
G1 X25.52 Y17.138 E0.95097
G1 X26.261 Y16.712 E1.05331
G1 X26.936 Y16.395 E1.14261
G1 X27.281 Y16.274 E1.18638
G1 X27.903 Y16.015 E1.26706
G1 X28.469 Y15.686 E1.34544
G1 X28.909 Y15.405 E1.40796
G1 X29.479 Y15.093 E1.48576
G1 X30.556 Y14.637 E1.6258
G1 X31.31 Y14.449 E1.71885
G1 X31.96 Y14.256 E1.80003
G1 X32.539 Y14.008 E1.87545
G1 X33.03 Y13.771 E1.94073
G1 X33.621 Y13.534 E2.01697
G1 X34.392 Y13.303 E2.11335
G1 X34.886 Y13.186 E2.17413
G1 X35.503 Y13.101 E2.24871
G1 X36.19 Y12.988 E2.33207
G1 X37.306 Y12.628 E2.47248
G1 X37.951 Y12.455 E2.55244
G1 X39.066 Y12.26 E2.68797
G1 X39.882 Y12.248 E2.78569
G1 X40.521 Y12.216 E2.86229
G1 X41.109 Y12.106 E2.93392
G1 X41.198 Y12.1 E2.9446
G1 X41.777 Y11.975 E3.01553
G1 X42.481 Y11.883 E3.10054
G1 X43.521 Y11.83 E3.22522
G1 X44.294 Y11.91 E3.31827
G1 X44.963 Y11.952 E3.39854
G1 X45.62 Y11.916 E3.47732
G1 X46.171 Y11.86 E3.54364
G1 X46.812 Y11.841 E3.62042
G1 X47.967 Y11.918 E3.75902
G1 X48.697 Y12.079 E3.84853
G1 X49.361 Y12.205 E3.92946
G1 X49.987 Y12.248 E4.00459
G1 X50.532 Y12.252 E4.06984
G1 X51.271 Y12.317 E4.15867
G1 X52.299 Y12.501 E4.28372
G1 X53.096 Y12.773 E4.38455
G1 X53.674 Y12.958 E4.45722
G1 X54.298 Y13.08 E4.53335
G1 X54.815 Y13.136 E4.59561
G1 X55.538 Y13.281 E4.68391
G1 X56.641 Y13.618 E4.822
G1 X57.373 Y13.973 E4.91941
G1 X57.971 Y14.232 E4.99744
G1 X58.564 Y14.418 E5.07186
G1 X59.149 Y14.565 E5.14408
G1 X59.687 Y14.74 E5.21182
G1 X60.46 Y15.068 E5.31237
G1 X60.926 Y15.301 E5.37475
G1 X61.469 Y15.646 E5.45178
G1 X62.013 Y15.974 E5.52784
G1 X62.514 Y16.174 E5.59243
G1 X62.632 Y16.24 E5.60862
G1 X63.125 Y16.426 E5.67171
G1 X63.731 Y16.708 E5.75174
G1 X64.402 Y17.093 E5.84437
G1 X64.843 Y17.384 E5.90764
G1 X65.343 Y17.791 E5.98483
G1 X65.832 Y18.162 E6.05833
G1 X66.386 Y18.496 E6.13578
G1 X66.9 Y18.758 E6.20486
G1 X67.466 Y19.108 E6.28454
G1 X68.209 Y19.662 E6.39552
G1 X68.717 Y20.121 E6.47749
G1 X68.916 Y20.338 E6.51275
G1 X69.394 Y20.805 E6.59276
G1 X69.893 Y21.187 E6.66801
G1 X70.357 Y21.497 E6.73482
G1 X70.902 Y21.923 E6.81765
G1 X71.567 Y22.558 E6.92775
G1 X72.015 Y23.063 E7.00858
G1 X72.211 Y23.335 E7.04872
G1 X72.633 Y23.852 E7.12863
G1 X73.507 Y24.642 E7.26969
G1 X73.984 Y25.123 E7.3508
G1 X74.712 Y25.988 E7.48618
G1 X75.124 Y26.681 E7.58271
G1 X75.5 Y27.259 E7.66527
G1 X75.921 Y27.762 E7.74381
G1 X76.287 Y28.161 E7.80864
G1 X76.682 Y28.658 E7.88466
G1 X77.175 Y29.416 E7.99292
G1 X77.497 Y30.019 E8.07478
G1 X77.63 Y30.341 E8.11649
G1 X77.924 Y30.937 E8.19606
G1 X78.281 Y31.484 E8.27427
G1 X78.603 Y31.928 E8.33995
G1 X78.945 Y32.479 E8.4176
G1 X79.459 Y33.521 E8.55672
G1 X79.69 Y34.26 E8.64942
G1 X79.918 Y34.903 E8.73111
G1 X80.184 Y35.398 E8.7984
G1 X80.223 Y35.503 E8.81181
G1 X80.474 Y35.95 E8.87319
G1 X80.785 Y36.635 E8.96327
G1 X81.008 Y37.254 E9.04205
G1 X81.209 Y37.922 E9.12557
G1 X81.28 Y38.375 E9.18048
G1 X81.434 Y39.061 E9.26466
G1 X81.656 Y39.667 E9.34194
G1 X81.869 Y40.178 E9.40822
G1 X82.058 Y40.735 E9.47865
G1 X82.282 Y41.694 E9.59657
G1 X82.373 Y42.328 E9.67326
G1 X82.384 Y42.635 E9.71004
G1 X82.458 Y43.358 E9.79706
G1 X82.601 Y43.905 E9.86476
G1 X82.613 Y44 E9.87623
G1 X82.763 Y44.527 E9.94183
G1 X82.868 Y45.049 E10.00559
G1 X83.018 Y46.28 E10.15407
G1 X82.985 Y47.052 E10.2466
G1 X82.976 Y47.765 E10.33197
G1 X83.054 Y48.416 E10.41048
G1 X83.142 Y48.958 E10.47623
G1 X83.196 Y49.574 E10.55027
G1 X83.196 Y50.368 E10.64534
G1 X83.158 Y51.019 E10.72342
G1 X83.062 Y51.526 E10.78521
G1 X82.986 Y52.135 E10.85869
G1 X82.995 Y52.729 E10.92982
G1 X82.984 Y52.831 E10.94211
G1 X83.003 Y53.348 E11.00405
G1 X82.988 Y53.991 E11.08106
G1 X82.85 Y55.154 E11.22129
G1 X82.63 Y55.94 E11.31902
G1 X82.48 Y56.524 E11.39122
G1 X82.394 Y57.212 E11.47424
G1 X82.361 Y57.692 E11.53185
G1 X82.278 Y58.335 E11.60948
G1 X82.003 Y59.495 E11.75222
G1 X81.678 Y60.269 E11.85274
G1 X81.456 Y60.869 E11.92934
G1 X81.285 Y61.643 E12.02425
G1 X81.206 Y62.061 E12.07518
G1 X81.031 Y62.688 E12.15313
G1 X80.635 Y63.751 E12.28895
G1 X80.242 Y64.457 E12.3857
G1 X79.96 Y65.004 E12.45939
G1 X79.783 Y65.515 E12.52414
G1 X79.73 Y65.632 E12.53952
G1 X79.544 Y66.201 E12.6112
G1 X79.276 Y66.853 E12.6956
G1 X78.891 Y67.611 E12.7974
G1 X78.55 Y68.156 E12.87438
G1 X78.35 Y68.418 E12.91384
G1 X77.958 Y69.004 E12.99826
G1 X77.727 Y69.493 E13.06302
G1 X77.67 Y69.581 E13.07557
G1 X77.453 Y70.062 E13.13875
G1 X77.144 Y70.635 E13.2167
G1 X76.712 Y71.294 E13.31105
G1 X76.398 Y71.713 E13.37375
G1 X75.971 Y72.185 E13.44996
G1 X75.547 Y72.674 E13.52745
G1 X75.241 Y73.163 E13.59652
G1 X75.17 Y73.248 E13.60979
G1 X74.903 Y73.694 E13.67203
G1 X74.53 Y74.228 E13.75002
G1 X74.021 Y74.836 E13.84496
G1 X73.659 Y75.213 E13.90754
G1 X73.191 Y75.621 E13.98188
G1 X72.691 Y76.083 E14.0634
G1 X72.34 Y76.528 E14.13126
G1 X72.264 Y76.598 E14.14363
G1 X71.95 Y77.005 E14.20518
G1 X71.547 Y77.465 E14.27841
G1 X70.957 Y78.021 E14.37548
G1 X70.554 Y78.36 E14.43853
G1 X70.018 Y78.725 E14.51618
G1 X69.473 Y79.127 E14.59727
G1 X69.083 Y79.514 E14.66306
G1 X68.996 Y79.578 E14.67599
G1 X68.613 Y79.968 E14.74144
G1 X68.068 Y80.444 E14.82808
G1 X67.241 Y81.058 E14.95141
G1 X66.508 Y81.436 E15.05016
G1 X65.927 Y81.768 E15.13028
G1 X65.506 Y82.095 E15.19411
G1 X65.441 Y82.135 E15.20325
G1 X64.975 Y82.508 E15.27472
G1 X64.469 Y82.861 E15.34859
G1 X63.444 Y83.445 E15.48985
G1 X62.72 Y83.722 E15.58266
G1 X62.097 Y83.983 E15.66354
G1 X61.544 Y84.301 E15.73992
G1 X61.075 Y84.603 E15.80671
G1 X60.521 Y84.903 E15.88215
G1 X59.799 Y85.212 E15.97618
G1 X59.312 Y85.393 E16.03839
G1 X58.701 Y85.548 E16.11387
G1 X58.061 Y85.729 E16.19351
G1 X57.588 Y85.945 E16.25577
G1 X57.466 Y85.984 E16.2711
G1 X56.969 Y86.226 E16.33729
G1 X56.376 Y86.465 E16.41385
G1 X55.603 Y86.693 E16.51034
G1 X55.109 Y86.814 E16.57124
G1 X54.471 Y86.899 E16.64831
G1 X53.798 Y87.01 E16.72998
G1 X52.69 Y87.368 E16.8694
G1 X52.048 Y87.541 E16.94901
G1 X50.93 Y87.74 E17.08498
G1 X50.116 Y87.748 E17.18245
G1 X49.475 Y87.78 E17.2593
G1 X48.882 Y87.894 E17.3316
G1 X48.792 Y87.901 E17.34241
G1 X48.284 Y88.01 E17.40462
G1 X47.612 Y88.109 E17.48596
G1 X46.475 Y88.166 E17.62227
G1 X45.702 Y88.086 E17.71532
G1 X45.033 Y88.044 E17.79558
G1 X44.373 Y88.084 E17.87475
G1 X43.831 Y88.136 E17.93995
G1 X43.188 Y88.155 E18.01697
G1 X42.033 Y88.078 E18.15557
G1 X41.303 Y87.917 E18.24508
G1 X40.632 Y87.794 E18.32676
G1 X40.009 Y87.752 E18.40153
G1 X39.465 Y87.744 E18.46667
G1 X38.725 Y87.679 E18.55562
G1 X37.697 Y87.495 E18.68066
G1 X36.894 Y87.221 E18.78225
G1 X36.306 Y87.033 E18.85617
G1 X35.709 Y86.922 E18.92888
G1 X35.183 Y86.86 E18.9923
G1 X34.462 Y86.715 E19.08035
G1 X33.35 Y86.378 E19.21948
G1 X32.64 Y86.035 E19.31389
G1 X32.034 Y85.766 E19.39328
G1 X31.438 Y85.581 E19.468
G1 X30.856 Y85.435 E19.53985
G1 X30.248 Y85.233 E19.61656
G1 X29.444 Y84.884 E19.72151
G1 X28.809 Y84.537 E19.80815
G1 X28.541 Y84.356 E19.84688
G1 X27.949 Y84.009 E19.92904
G1 X26.876 Y83.573 E20.06772
G1 X26.269 Y83.288 E20.14801
G1 X25.605 Y82.91 E20.2395
G1 X25.161 Y82.62 E20.30299
G1 X24.688 Y82.235 E20.37602
G1 X24.174 Y81.835 E20.454
G1 X23.021 Y81.199 E20.61167
G1 X22.477 Y80.851 E20.68899
G1 X21.923 Y80.437 E20.7718
G1 X21.519 Y80.104 E20.83449
G1 X21.039 Y79.612 E20.91679
G1 X20.583 Y79.17 E20.99283
G1 X19.544 Y78.433 E21.14536
G1 X19.01 Y77.992 E21.22828
G1 X18.417 Y77.426 E21.32644
G1 X17.974 Y76.922 E21.40679
G1 X17.781 Y76.654 E21.44633
G1 X17.341 Y76.124 E21.52881
G1 X16.876 Y75.681 E21.60571
G1 X16.484 Y75.345 E21.66753
G1 X16.074 Y74.939 E21.73662
G1 X15.296 Y74.03 E21.87988
G1 X14.865 Y73.303 E21.98107
G1 X14.49 Y72.726 E22.06347
G1 X14.073 Y72.236 E22.14051
G1 X13.709 Y71.836 E22.20527
G1 X13.313 Y71.337 E22.28155
G1 X12.712 Y70.422 E22.41263
G1 X12.353 Y69.627 E22.51707
G1 X12.075 Y69.062 E22.59247
G1 X11.714 Y68.515 E22.67094
G1 X11.394 Y68.069 E22.73667
G1 X11.059 Y67.525 E22.81316
G1 X10.544 Y66.493 E22.95126
G1 X10.302 Y65.727 E23.04745
G1 X10.079 Y65.096 E23.12758
G1 X9.789 Y64.525 E23.20427
G1 X9.521 Y64.046 E23.26999
G1 X9.251 Y63.459 E23.34735
G1 X8.954 Y62.642 E23.45144
G1 X8.772 Y61.979 E23.53376
G1 X8.716 Y61.621 E23.57715
G1 X8.56 Y60.932 E23.66173
G1 X8.34 Y60.33 E23.73848
G1 X8.123 Y59.814 E23.8055
G1 X7.941 Y59.277 E23.87339
G1 X7.678 Y58.164 E24.01033
G1 X7.611 Y57.339 E24.10944
G1 X7.534 Y56.613 E24.19685
G1 X7.395 Y56.096 E24.26096
G1 X7.383 Y55.997 E24.2729
G1 X7.241 Y55.5 E24.33479
G1 X7.123 Y54.93 E24.40448
G1 X7.019 Y54.094 E24.50536
G1 X6.985 Y53.568 E24.56847
G1 X7.016 Y52.895 E24.64914
G1 X7.02 Y52.223 E24.7296
G1 X6.929 Y51.494 E24.81757
G1 X6.8 Y50.695 E24.91447
G1 X6.801 Y49.628 E25.04223
G1 X6.838 Y48.977 E25.12031
G1 X6.93 Y48.495 E25.17906
G1 X7.015 Y47.841 E25.25803
G1 X7.005 Y47.258 E25.32785
G1 X7.012 Y47.162 E25.33937
G1 X6.993 Y46.648 E25.40096
G1 X7.008 Y46.005 E25.47797
G1 X7.15 Y44.824 E25.6204
G1 X7.369 Y44.059 E25.71567
G1 X7.533 Y43.411 E25.79571
G1 X7.615 Y42.62 E25.89093
G1 X7.624 Y42.354 E25.9228
G1 X7.691 Y41.779 E25.99211
G1 X7.949 Y40.707 E26.12413
G1 X8.165 Y40.063 E26.20547
G1 X8.313 Y39.738 E26.24823
G1 X8.536 Y39.14 E26.32464
G1 X8.711 Y38.358 E26.42059
G1 X8.794 Y37.938 E26.47186
G1 X8.989 Y37.249 E26.55759
G1 X9.278 Y36.472 E26.65686
G1 X9.562 Y35.869 E26.73667
G1 X9.752 Y35.549 E26.78123
G1 X10.05 Y34.97 E26.8592
G1 X10.211 Y34.485 E26.92038
G1 X10.269 Y34.365 E26.93634
G1 X10.453 Y33.794 E27.00818
G1 X10.72 Y33.144 E27.09231
G1 X11.109 Y32.386 E27.19433
G1 X11.446 Y31.844 E27.27075
G1 X11.653 Y31.572 E27.31167
G1 X12.038 Y30.996 E27.39463
G1 X12.273 Y30.504 E27.45992
G1 X12.33 Y30.415 E27.47257
G1 X12.548 Y29.933 E27.53591
G1 X12.853 Y29.361 E27.61353
G1 X13.288 Y28.702 E27.70808
G1 X13.597 Y28.284 E27.77032
G1 X14.047 Y27.795 E27.84989
G1 X14.446 Y27.328 E27.92343
G1 X14.761 Y26.827 E27.99429
G1 X14.827 Y26.746 E28.0068
G1 X15.092 Y26.307 E28.0682
G1 X15.47 Y25.768 E28.14703
G1 X15.979 Y25.159 E28.24206
G1 X16.341 Y24.778 E28.30499
G1 X16.818 Y24.367 E28.38038
G1 X17.289 Y23.933 E28.45707
G1 X17.614 Y23.521 E28.5199
G1 X17.713 Y23.424 E28.5365
G1 X18.034 Y23.007 E28.59951
G1 X18.471 Y22.512 E28.67857
G1 X19.172 Y21.857 E28.79344
G0 F2400 X19.695 Y21.958
G1 F900 X72.996 Y75.259 E37.81906
G0 F2400 X74.109 Y74.109
G1 F900 X20.981 Y20.981 E46.81538
G0 F2400 X22.154 Y19.891
G1 F900 X75.023 Y72.76 E55.76785
G0 F2400 X76.039 Y71.514
G1 F900 X23.518 Y18.993 E64.66138
G0 F2400 X24.895 Y18.107
G1 F900 X76.947 Y70.158 E73.47542
G0 F2400 X77.708 Y68.657
G1 F900 X26.238 Y17.187 E82.19099
G0 F2400 X27.803 Y16.489
G1 F900 X78.605 Y67.291 E90.79344
G0 F2400 X79.285 Y65.709
G1 F900 X29.25 Y15.674 E99.26601
G0 F2400 X30.822 Y14.983
G1 F900 X79.968 Y64.129 E107.58805
G0 F2400 X80.654 Y62.552
G1 F900 X32.543 Y14.441 E115.73483
G0 F2400 X34.156 Y13.791
G1 F900 X81.085 Y60.721 E123.68154
G0 F2400 X81.693 Y59.066
G1 F900 X36.046 Y13.419 E131.41108
G0 F2400 X37.801 Y12.91
G1 F900 X82.004 Y57.114 E138.89619
G0 F2400 X82.407 Y55.254
G1 F900 X39.802 Y12.649 E146.11062
G0 F2400 X41.796 Y12.38
G1 F900 X82.597 Y53.182 E153.01966
G0 F2400 X82.743 Y51.064
G1 F900 X43.956 Y12.277 E159.58758
G0 F2400 X46.2 Y12.259
G1 F900 X82.705 Y48.764 E165.76908
G0 F2400 X82.613 Y46.409
G1 F900 X48.689 Y12.485 E171.51353
G0 F2400 X51.178 Y12.711
G1 F900 X82.126 Y43.66 E176.75413
G0 F2400 X81.703 Y40.974
G1 F900 X54.198 Y13.468 E181.41172
G0 F2400 X57.423 Y14.431
G1 F900 X80.739 Y37.747 E185.35989
G0 F2400 X79.161 Y33.906
G1 F900 X61.212 Y15.957 E188.39924
G0 F2400 X66.543 Y19.025
G1 F900 X76.154 Y28.636 E190.0267
G0 F2400 X71.896 Y76.422
G1 F900 X18.527 Y23.052 E199.06392
G0 F2400 X17.498 Y24.286
G1 F900 X70.816 Y77.604 E208.09241
G0 F2400 X69.533 Y78.584
G1 F900 X16.321 Y25.372 E217.10296
G0 F2400 X15.346 Y26.659
G1 F900 X68.35 Y79.664 E226.07837
G0 F2400 X67.093 Y80.67
G1 F900 X14.409 Y27.985 E234.99959
G0 F2400 X13.407 Y29.247
G1 F900 X65.646 Y81.485 E243.84529
G0 F2400 X64.352 Y82.454
G1 F900 X12.614 Y30.716 E252.60624
G0 F2400 X11.749 Y32.114
G1 F900 X62.871 Y83.236 E261.26288
G0 F2400 X61.333 Y83.96
G1 F900 X10.967 Y33.595 E269.79142
G0 F2400 X10.358 Y35.248
G1 F900 X59.859 Y84.75 E278.17365
G0 F2400 X58.138 Y85.291
G1 F900 X9.6 Y36.753 E286.39274
G0 F2400 X9.088 Y38.503
G1 F900 X56.548 Y85.964 E294.42937
G0 F2400 X54.776 Y86.454
G1 F900 X8.536 Y40.215 E302.25924
G0 F2400 X8.067 Y42.008
G1 F900 X52.93 Y86.872 E309.85611
G0 F2400 X51.099 Y87.303
G1 F900 X7.796 Y44 E317.18873
G0 F2400 X7.424 Y45.891
G1 F900 X48.998 Y87.465 E324.22858
G0 F2400 X47.009 Y87.739
G1 F900 X7.381 Y48.111 E330.93891
G0 F2400 X7.2 Y50.192
G1 F900 X44.674 Y87.666 E337.28449
G0 F2400 X42.45 Y87.705
G1 F900 X7.418 Y52.672 E343.21665
G0 F2400 X7.563 Y55.08
G1 F900 X39.832 Y87.35 E348.68094
G0 F2400 X37.081 Y86.862
G1 F900 X8.052 Y57.832 E353.59659
G0 F2400 X8.994 Y61.037
G1 F900 X34.163 Y86.206 E357.85853
G0 F2400 X30.634 Y84.94
G1 F900 X10.252 Y64.557 E361.30996
G0 F2400 X12.547 Y69.115
G1 F900 X26.246 Y82.814 E363.62965
G0 F600 X26.246 Y82.814 Z0.66
G0 F2400 X65.685 Y81.453
;TIME_ELAPSED:210.083116
;LAYER:-5
;TYPE:SUPPORT
G1 F900 X66.328 Y81.085 E363.70357
G1 X66.995 Y80.74 E363.7785
G1 X67.898 Y80.073 E363.89052
G1 X68.359 Y79.664 E363.95201
G1 X68.737 Y79.274 E364.00621
G1 X68.817 Y79.216 E364.01607
G1 X69.19 Y78.843 E364.0687
G1 X69.787 Y78.401 E364.14282
G1 X70.458 Y77.948 E364.2236
G1 X71.179 Y77.265 E364.3227
G1 X71.632 Y76.768 E364.3898
G1 X71.977 Y76.317 E364.44645
G1 X72.046 Y76.254 E364.45578
G1 X72.377 Y75.836 E364.50898
G1 X72.947 Y75.303 E364.58684
G1 X73.516 Y74.817 E364.66151
G1 X74.212 Y73.988 E364.76952
G1 X74.575 Y73.471 E364.83255
G1 X74.847 Y73.013 E364.8857
G1 X74.918 Y72.928 E364.89675
G1 X75.225 Y72.44 E364.95428
G1 X75.65 Y71.943 E365.01953
G1 X76.209 Y71.332 E365.10216
G1 X76.802 Y70.43 E365.20987
G1 X76.983 Y70.095 E365.24786
G1 X65.362 Y81.716 E366.88771
G1 X64.485 Y82.143 E366.98504
G1 X64.611 Y82.31 E367.00591
G1 X63.314 Y83.072 E367.15601
G1 X62.156 Y83.508 E367.27947
G1 X78.852 Y66.812 E369.63546
G1 X79.108 Y66.224 E369.69945
G1 X78.936 Y66.168 E369.7175
G1 X79.425 Y65.334 E369.81397
G1 X79.559 Y64.926 E369.85682
G1 X79.796 Y64.453 E369.90961
G1 X59.346 Y84.904 E372.79539
G1 X58.592 Y85.019 E372.8715
G1 X58.655 Y85.148 E372.88582
G1 X57.932 Y85.352 E372.96078
G1 X57.477 Y85.559 E373.01066
G1 X57.216 Y85.619 E373.03738
G1 X80.797 Y62.039 E376.36484
G1 X81.057 Y60.815 E376.4897
G1 X81.321 Y60.101 E376.56566
G1 X55.003 Y86.418 E380.27934
G1 X54.423 Y86.502 E380.33782
G1 X53.686 Y86.628 E380.41242
G1 X53.229 Y86.778 E380.46041
G1 X81.904 Y58.103 E384.50677
G1 X81.966 Y57.668 E384.55061
G1 X81.999 Y57.15 E384.6024
G1 X82.078 Y56.515 E384.66625
G1 X51.331 Y87.262 E389.00498
G1 X50.91 Y87.334 E389.0476
G1 X50.909 Y87.306 E389.0504
G1 X49.811 Y87.367 E389.16012
