;FLAVOR:Marlin
;TIME:6399
;Filament used: 4.39881m
;Layer height: 0.2
;MINX:5.404
;MINY:10.401
;MINZ:0.36
;MAXX:84.595
;MAXY:89.595
;MAXZ:3.11
;TARGET_MACHINE.NAME:Unknown
;Generated with Cura_SteamEngine 5.7.0
M104 S200
M105
M109 S200
M82 ;absolute extrusion mode
G28 ;Home
G1 Z15.0 F6000 ;Move the platform down 15mm
;Prime the extruder
G92 E0
G1 F200 E3
G92 E0
G92 E0
G92 E0
G1 F1500 E-6.5
;LAYER_COUNT:9
;LAYER:-6
M107
G0 F2400 X18.132 Y20.906 Z0.36
;TYPE:SUPPORT-INTERFACE
G1 F1500 E0
G1 F900 X19.126 Y20.019 E0.15952
G1 X20.176 Y19.144 E0.32317
G1 X21.185 Y18.356 E0.47646
G1 X22.282 Y17.56 E0.63875
G1 X23.347 Y16.84 E0.79268
G1 X24.515 Y16.107 E0.95779
G1 X25.66 Y15.442 E1.11633
G1 X26.824 Y14.816 E1.27458
G1 X27.889 Y14.285 E1.41707
G1 X29.077 Y13.739 E1.57362
G1 X30.464 Y13.16 E1.75359
G1 X31.52 Y12.761 E1.88875
G1 X32.966 Y12.27 E2.0716
G1 X34.249 Y11.886 E2.23196
G1 X35.354 Y11.593 E2.36884
G1 X36.613 Y11.296 E2.52372
G1 X37.979 Y11.026 E2.69045
G1 X39.461 Y10.789 E2.87015
G1 X40.807 Y10.622 E3.03255
G1 X42.09 Y10.507 E3.18679
G1 X43.297 Y10.436 E3.33156
G1 X44.756 Y10.401 E3.50631
G1 X46.073 Y10.412 E3.66401
G1 X47.248 Y10.464 E3.80483
G1 X48.731 Y10.575 E3.9829
G1 X50.021 Y10.713 E4.13824
G1 X51.311 Y10.903 E4.29437
G1 X52.67 Y11.149 E4.45973
G1 X53.845 Y11.402 E4.60365
G1 X55.264 Y11.755 E4.77873
G1 X56.547 Y12.123 E4.93855
G1 X57.718 Y12.499 E5.08581
G1 X58.929 Y12.933 E5.23984
G1 X60.317 Y13.482 E5.41857
G1 X61.52 Y14.012 E5.57597
G1 X62.721 Y14.587 E5.7354
G1 X63.758 Y15.125 E5.87529
G1 X64.918 Y15.774 E6.03444
G1 X66.055 Y16.463 E6.19363
G1 X67.175 Y17.192 E6.35364
G1 X68.395 Y18.051 E6.53229
G1 X69.461 Y18.859 E6.69245
G1 X70.355 Y19.583 E6.8302
G1 X71.492 Y20.57 E7.01048
G1 X72.347 Y21.361 E7.14995
G1 X73.409 Y22.415 E7.3291
G1 X74.362 Y23.433 E7.49607
G1 X75.222 Y24.423 E7.65309
G1 X75.935 Y25.286 E7.78713
G1 X76.742 Y26.331 E7.94522
G1 X77.619 Y27.556 E8.12561
G1 X78.267 Y28.525 E8.26519
G1 X78.96 Y29.642 E8.42258
G1 X79.645 Y30.83 E8.58678
G1 X80.331 Y32.122 E8.76193
G1 X80.913 Y33.321 E8.92152
G1 X81.447 Y34.529 E9.07966
G1 X81.906 Y35.653 E9.22503
G1 X82.406 Y37.02 E9.39932
G1 X82.821 Y38.279 E9.55805
G1 X83.194 Y39.558 E9.71757
G1 X83.526 Y40.861 E9.87857
G1 X83.776 Y41.985 E10.01644
G1 X84.021 Y43.288 E10.17519
G1 X84.259 Y44.826 E10.36154
G1 X84.401 Y46.087 E10.51348
G1 X84.512 Y47.435 E10.67543
G1 X84.576 Y48.725 E10.83008
G1 X84.595 Y50.023 E10.98552
G1 X84.572 Y51.421 E11.15293
G1 X84.5 Y52.739 E11.31098
G1 X84.386 Y54.066 E11.47046
G1 X84.223 Y55.425 E11.63434
G1 X84.053 Y56.524 E11.7675
G1 X83.776 Y58.011 E11.94861
G1 X83.483 Y59.309 E12.10794
G1 X83.15 Y60.597 E12.26723
G1 X82.778 Y61.86 E12.42488
G1 X82.43 Y62.916 E12.55801
G1 X81.95 Y64.224 E12.72484
G1 X81.455 Y65.455 E12.8837
G1 X80.909 Y66.679 E13.04418
G1 X80.331 Y67.87 E13.20269
G1 X79.601 Y69.246 E13.3892
G1 X78.964 Y70.35 E13.54182
G1 X78.271 Y71.467 E13.69921
G1 X77.614 Y72.452 E13.84098
G1 X76.75 Y73.661 E14.01891
G1 X75.939 Y74.714 E14.17805
G1 X75.171 Y75.64 E14.3221
G1 X74.204 Y76.738 E14.49729
G1 X73.401 Y77.588 E14.6373
G1 X72.339 Y78.638 E14.81612
G1 X71.372 Y79.534 E14.97396
G1 X70.467 Y80.321 E15.11757
G1 X69.298 Y81.264 E15.2974
G1 X68.261 Y82.044 E15.45277
G1 X67.168 Y82.808 E15.61245
G1 X66.051 Y83.537 E15.77216
G1 X64.918 Y84.222 E15.93069
G1 X63.873 Y84.808 E16.07414
G1 X62.721 Y85.41 E16.22978
G1 X61.405 Y86.036 E16.40427
G1 X60.313 Y86.514 E16.547
G1 X58.906 Y87.073 E16.72828
G1 X57.624 Y87.532 E16.89132
G1 X56.368 Y87.928 E17.04901
G1 X55.292 Y88.237 E17.18305
G1 X53.965 Y88.57 E17.34687
G1 X52.678 Y88.847 E17.5045
G1 X51.371 Y89.081 E17.66348
G1 X50.08 Y89.271 E17.81973
G1 X48.71 Y89.425 E17.9848
G1 X47.404 Y89.524 E18.14162
G1 X46.065 Y89.584 E18.30211
G1 X44.744 Y89.595 E18.46029
G1 X43.234 Y89.556 E18.64115
G1 X41.918 Y89.477 E18.79901
G1 X40.811 Y89.378 E18.93209
G1 X39.333 Y89.195 E19.11041
G1 X38.127 Y88.998 E19.25672
G1 X36.804 Y88.74 E19.41812
G1 X35.313 Y88.395 E19.60136
G1 X34.21 Y88.103 E19.73798
G1 X32.791 Y87.671 E19.91559
G1 X31.692 Y87.295 E20.05467
G1 X30.3 Y86.768 E20.23288
G1 X29.224 Y86.32 E20.37244
G1 X28.025 Y85.779 E20.52994
G1 X26.705 Y85.113 E20.70697
G1 X25.616 Y84.53 E20.85488
G1 X24.377 Y83.806 E21.0267
G1 X23.232 Y83.081 E21.18897
G1 X22.107 Y82.313 E21.35207
G1 X21.229 Y81.672 E21.48223
G1 X20.112 Y80.801 E21.65184
G1 X18.963 Y79.834 E21.83165
G1 X18.032 Y78.998 E21.98147
G1 X17.158 Y78.163 E22.12621
G1 X16.267 Y77.253 E22.2787
G1 X15.332 Y76.23 E22.44464
G1 X14.465 Y75.217 E22.6043
G1 X13.646 Y74.188 E22.76177
G1 X12.754 Y72.987 E22.94089
G1 X12.006 Y71.898 E23.09908
G1 X11.285 Y70.773 E23.25908
G1 X10.6 Y69.621 E23.41956
G1 X9.958 Y68.453 E23.57914
G1 X9.424 Y67.396 E23.72094
G1 X8.842 Y66.16 E23.88452
G1 X8.335 Y64.965 E24.03995
G1 X7.804 Y63.597 E24.21565
G1 X7.416 Y62.49 E24.35611
G1 X7.052 Y61.322 E24.5026
G1 X6.656 Y59.895 E24.67992
G1 X6.339 Y58.58 E24.84188
G1 X6.086 Y57.35 E24.99224
G1 X5.832 Y55.84 E25.17558
G1 X5.654 Y54.505 E25.33684
G1 X5.531 Y53.263 E25.48628
G1 X5.452 Y52.051 E25.63171
G1 X5.404 Y50.704 E25.7931
G1 X5.404 Y49.279 E25.96372
G1 X5.452 Y47.909 E26.12786
G1 X5.531 Y46.746 E26.26744
G1 X5.682 Y45.268 E26.44533
G1 X5.86 Y43.953 E26.60422
G1 X6.086 Y42.647 E26.76292
G1 X6.339 Y41.408 E26.91433
G1 X6.668 Y40.045 E27.08222
G1 X6.976 Y38.925 E27.22131
G1 X7.424 Y37.49 E27.40131
G1 X7.804 Y36.399 E27.53964
G1 X8.339 Y35.02 E27.71674
G1 X8.85 Y33.828 E27.87203
G1 X9.424 Y32.6 E28.03434
G1 X10.038 Y31.4 E28.19574
G1 X10.687 Y30.224 E28.35657
G1 X11.376 Y29.076 E28.51688
G1 X12.006 Y28.098 E28.65618
G1 X12.738 Y27.033 E28.81091
G1 X13.646 Y25.804 E28.99387
G1 X14.473 Y24.771 E29.15232
G1 X15.257 Y23.853 E29.29687
G1 X16.271 Y22.739 E29.47723
G1 X17.173 Y21.821 E29.63133
G1 X18.132 Y20.906 E29.79004
G0 F2400 X18.686 Y20.949
G1 F900 X74.048 Y76.31 E39.16457
G0 F2400 X72.947 Y77.473
G1 F900 X17.519 Y22.045 E48.55036
G0 F2400 X16.401 Y23.19
G1 F900 X71.802 Y78.59 E57.93149
G0 F2400 X70.612 Y79.663
G1 F900 X15.331 Y24.382 E67.29238
G0 F2400 X14.305 Y25.619
G1 F900 X69.374 Y80.687 E76.6173
G0 F2400 X68.092 Y81.669
G1 F900 X13.329 Y26.905 E85.89056
G0 F2400 X12.396 Y28.235
G1 F900 X66.759 Y82.598 E95.09601
G0 F2400 X65.375 Y83.477
G1 F900 X11.516 Y29.618 E104.21611
G0 F2400 X10.687 Y31.051
G1 F900 X63.944 Y84.309 E113.23436
G0 F2400 X62.462 Y85.09
G1 F900 X9.907 Y32.534 E122.13374
G0 F2400 X9.18 Y34.071
G1 F900 X60.921 Y85.811 E130.89511
G0 F2400 X59.324 Y86.477
G1 F900 X8.516 Y35.669 E139.49858
G0 F2400 X7.905 Y37.321
G1 F900 X57.673 Y87.089 E147.92595
G0 F2400 X55.953 Y87.631
G1 F900 X7.36 Y39.038 E156.15434
G0 F2400 X6.889 Y40.83
G1 F900 X54.165 Y88.106 E164.15973
G0 F2400 X52.303 Y88.507
G1 F900 X6.486 Y42.689 E171.91814
G0 F2400 X6.17 Y44.637
G1 F900 X50.359 Y88.825 E179.40071
G0 F2400 X48.324 Y89.053
G1 F900 X5.941 Y46.67 E186.57755
G0 F2400 X5.821 Y48.813
G1 F900 X46.186 Y89.178 E193.41267
G0 F2400 X43.918 Y89.173
G1 F900 X5.817 Y51.072 E199.86443
G0 F2400 X5.953 Y53.471
G1 F900 X41.522 Y89.04 E205.88743
G0 F2400 X38.945 Y88.726
G1 F900 X6.273 Y56.053 E211.41996
G0 F2400 X6.817 Y58.86
G1 F900 X36.13 Y88.173 E216.38362
G0 F2400 X33.015 Y87.321
G1 F900 X7.678 Y61.984 E220.67401
G0 F2400 X9.043 Y65.612
G1 F900 X29.385 Y85.954 E224.11858
G0 F2400 X24.7 Y83.531
G1 F900 X11.469 Y70.301 E226.35894
G0 F2400 X19.897 Y19.897
G1 F900 X75.1 Y75.1 E235.70663
G0 F2400 X76.106 Y73.843
G1 F900 X21.152 Y18.89 E245.01207
G0 F2400 X22.455 Y17.929
G1 F900 X77.063 Y72.537 E254.259
G0 F2400 X77.975 Y71.187
G1 F900 X23.81 Y17.022 E263.43092
G0 F2400 X25.214 Y16.163
G1 F900 X78.831 Y69.78 E272.51005
G0 F2400 X79.638 Y68.324
G1 F900 X26.668 Y15.354 E281.47962
G0 F2400 X28.172 Y14.595
G1 F900 X80.396 Y66.819 E290.32286
G0 F2400 X81.102 Y65.263
G1 F900 X29.737 Y13.897 E299.02073
G0 F2400 X31.354 Y13.252
G1 F900 X81.74 Y63.638 E307.55274
G0 F2400 X82.324 Y61.96
G1 F900 X33.034 Y12.669 E315.89925
G0 F2400 X34.785 Y12.158
G1 F900 X82.837 Y60.209 E324.03595
G0 F2400 X83.281 Y58.391
G1 F900 X36.601 Y11.71 E331.9405
G0 F2400 X38.501 Y11.348
G1 F900 X83.651 Y56.499 E339.58597
G0 F2400 X83.93 Y54.514
G1 F900 X40.482 Y11.066 E346.94315
G0 F2400 X42.559 Y10.881
G1 F900 X84.116 Y52.438 E353.98012
G0 F2400 X84.191 Y50.25
G1 F900 X44.743 Y10.802 E360.65996
G0 F2400 X47.06 Y10.856
G1 F900 X84.137 Y47.933 E366.93832
G0 F2400 X83.928 Y45.461
G1 F900 X49.53 Y11.063 E372.76304
G0 F2400 X52.2 Y11.471
G1 F900 X83.521 Y42.792 E378.06671
G0 F2400 X82.861 Y39.869
G1 F900 X55.124 Y12.132 E382.7635
G0 F2400 X58.435 Y13.18
G1 F900 X81.811 Y36.556 E386.72183
G0 F2400 X80.119 Y32.601
G1 F900 X62.39 Y14.873 E389.72385
G0 F2400 X68.145 Y18.364
G1 F900 X76.599 Y26.819 E391.15547
G0 F600 X76.599 Y26.819 Z0.66
G0 F2400 X49.571 Y11.24
;TIME_ELAPSED:225.426393
;LAYER:-5
;TYPE:SUPPORT
G1 F900 X49.729 Y11.082 E391.17777
G1 X49.571 Y11.059 E391.1937
G1 X49.571 Y11.29 E391.21675
G1 X49.534 Y11.277 E391.22066
G0 F2400 X17.382 Y22.181
G1 F900 X16.562 Y23.015 E391.33737
G1 X16.34 Y23.258 E391.37021
G1 X17.471 Y22.127 E391.52981
G1 X18.183 Y21.698 E391.61275
G1 X18.027 Y21.54 E391.6349
G1 X19.271 Y20.424 E391.80166
G1 X20.269 Y19.585 E391.93175
G1 X21.46 Y18.654 E392.08259
G1 X22.436 Y17.945 E392.20296
G1 X23.18 Y17.667 E392.28221
G1 X23.087 Y17.483 E392.30278
G1 X24.293 Y16.72 E392.44518
G1 X11.714 Y29.298 E394.22014
G1 X11.264 Y30.043 E394.30699
G1 X11.393 Y30.172 E394.32519
G1 X10.901 Y30.664 E394.39461
G1 X10.354 Y31.658 E394.50782
G1 X10.191 Y32.148 E394.55935
G1 X10.105 Y32.148 E394.56793
G1 X9.924 Y32.502 E394.6076
G1 X27.497 Y14.929 E397.08734
G1 X27.705 Y14.826 E397.1105
G1 X27.782 Y14.864 E397.11907
G1 X28.118 Y14.622 E397.16039
G1 X29.376 Y14.047 E397.2984
G1 X30.088 Y13.753 E397.37526
G1 X8.734 Y35.106 E400.38847
G1 X8.175 Y36.567 E400.54456
G1 X8.34 Y36.567 E400.56102
G1 X7.993 Y37.262 E400.63853
G1 X32.355 Y12.9 E404.07627
G1 X33.088 Y12.653 E404.15345
G1 X34.41 Y12.259 E404.2911
G1 X7.262 Y39.407 E408.12197
G1 X7.058 Y40.146 E408.19847
G1 X6.779 Y41.304 E408.31732
G1 X36.298 Y11.785 E412.48277
G1 X36.878 Y11.651 E412.54217
G1 X38.081 Y11.416 E412.66447
G1 X6.416 Y43.082 E417.13282
G1 X6.24 Y44.132 E417.23905
G1 X6.155 Y44.757 E417.30198
G1 X39.766 Y11.146 E422.04486
G1 X39.935 Y11.119 E422.06194
G1 X39.935 Y11.443 E422.09426
G1 X40.944 Y11.011 E422.20378
G1 X41.352 Y10.974 E422.24466
G1 X5.957 Y46.369 E427.23928
G1 X5.858 Y47.882 E427.39057
G1 X42.879 Y10.861 E432.61463
G1 X43.238 Y10.84 E432.65051
G1 X44.082 Y10.946 E432.73539
G1 X44.083 Y10.817 E432.74826
G1 X44.344 Y10.81 E432.77431
G1 X5.805 Y49.35 E438.21265
G1 X5.807 Y50.762 E438.35354
G1 X45.757 Y10.812 E443.99092
G1 X46.415 Y10.819 E444.05658
G1 X46.415 Y10.947 E444.06935
G1 X47.105 Y10.878 E444.13854
G1 X5.858 Y52.125 E449.95894
G1 X5.945 Y53.452 E450.09163
G1 X48.442 Y10.954 E456.08849
G1 X48.605 Y10.967 E456.1048
G1 X49.534 Y11.277 E456.20253
G1 X6.087 Y54.724 E462.33337
G1 X6.257 Y55.968 E462.45865
G1 X50.966 Y11.259 E468.76757
G1 X52.174 Y11.466 E468.88986
G1 X6.462 Y57.177 E475.34025
G1 X6.701 Y58.353 E475.45999
G1 X53.242 Y11.812 E482.02743
G1 X53.845 Y11.812 E482.08759
G1 X54.493 Y11.975 E482.15427
G1 X6.961 Y59.507 E488.86154
G1 X7.187 Y60.326 E488.94632
G1 X7.378 Y60.326 E488.96538
G1 X7.378 Y60.504 E488.98314
G1 X55.612 Y12.27 E495.78948
G1 X56.713 Y12.584 E495.90371
G1 X7.593 Y61.704 E502.83508
G1 X7.784 Y62.32 E502.89943
G1 X7.986 Y62.725 E502.94459
G1 X57.771 Y12.939 E509.96986
G1 X58.81 Y13.315 E510.08011
G1 X8.318 Y63.806 E517.20501
G1 X8.712 Y64.828 E517.3143
G1 X59.714 Y13.825 E524.5113
G1 X60.256 Y13.893 E524.56581
G1 X60.815 Y14.139 E524.62675
G1 X9.134 Y65.819 E531.91942
G1 X9.581 Y66.787 E532.02581
G1 X61.785 Y14.583 E539.39236
G1 X62.735 Y15.047 E539.49785
G1 X10.16 Y67.621 E546.91668
G1 X10.429 Y68.476 E547.00612
G1 X10.533 Y68.663 E547.02747
G1 X63.662 Y15.534 E554.52454
G1 X63.972 Y15.795 E554.56498
G1 X64.061 Y15.753 E554.5748
G1 X64.571 Y16.039 E554.63314
G1 X11.087 Y69.523 E562.18031
G1 X11.393 Y69.828 E562.22342
G1 X11.264 Y69.957 E562.24163
G1 X11.564 Y70.46 E562.30006
G1 X65.455 Y16.57 E569.9046
G1 X66.334 Y17.104 E570.00722
G1 X12.103 Y71.335 E577.6598
G1 X12.681 Y72.172 E577.76129
G1 X67.173 Y17.68 E585.4507
G1 X68.002 Y18.265 E585.55194
G1 X13.32 Y72.947 E593.26816
G1 X13.738 Y73.261 E593.32033
G1 X13.574 Y73.425 E593.34347
G1 X13.866 Y73.816 E593.39216
G1 X68.699 Y18.982 E601.12976
G1 X69.289 Y19.236 E601.19386
G1 X69.605 Y19.491 E601.23437
G1 X14.48 Y74.615 E609.01304
G1 X15.129 Y75.38 E609.11314
G1 X70.377 Y20.133 E616.90916
G1 X71.135 Y20.789 E617.00918
G1 X15.79 Y76.134 E624.81896
G1 X16.464 Y76.875 E624.91891
G1 X71.881 Y21.457 E632.73891
G1 X72.589 Y22.163 E632.83868
G1 X17.153 Y77.6 E640.66137
G1 X17.874 Y78.293 E640.76115
G1 X73.29 Y22.876 E648.58102
G1 X73.975 Y23.606 E648.68091
G1 X18.603 Y78.977 E656.49442
G1 X19.352 Y79.643 E656.59443
G1 X74.647 Y24.348 E664.39715
G1 X75.284 Y25.125 E664.49741
G1 X20.113 Y80.296 E672.28263
G1 X20.907 Y80.916 E672.38315
G1 X75.914 Y25.91 E680.14516
G1 X76.527 Y26.71 E680.24572
G1 X21.71 Y81.528 E687.98106
G1 X22.289 Y81.951 E688.05261
G1 X22.571 Y82.081 E688.0836
G1 X77.123 Y27.528 E695.78154
G1 X77.688 Y28.378 E695.88338
G1 X23.373 Y82.693 E703.54782
G1 X23.879 Y83.019 E703.60788
G1 X23.945 Y82.909 E703.62068
G1 X24.283 Y83.197 E703.66499
G1 X78.241 Y29.24 E711.27897
G1 X78.783 Y30.112 E711.38142
G1 X25.116 Y83.778 E718.95434
G1 X26.008 Y84.3 E719.05747
G1 X79.291 Y31.018 E726.5762
G1 X79.333 Y31.091 E726.5846
G1 X79.437 Y31.613 E726.63771
G1 X79.612 Y31.613 E726.65518
G1 X79.783 Y31.94 E726.692
G1 X26.934 Y84.788 E734.14949
G1 X27.878 Y85.259 E734.25476
G1 X80.251 Y32.886 E741.64515
G1 X80.376 Y33.136 E741.67304
G1 X80.343 Y33.199 E741.68014
G1 X80.576 Y33.548 E741.72201
G1 X80.707 Y33.844 E741.75431
G1 X28.831 Y85.721 E749.07464
G1 X29.826 Y86.139 E749.18233
G1 X81.043 Y34.923 E756.40953
G1 X81.546 Y35.833 E756.51328
G1 X30.833 Y86.546 E763.66943
G1 X31.013 Y86.614 E763.68863
G1 X31.058 Y86.432 E763.70734
G1 X31.872 Y86.922 E763.80214
G1 X81.928 Y36.866 E770.86558
G1 X82.283 Y37.925 E770.97703
G1 X32.924 Y87.285 E777.94218
G1 X33.692 Y87.456 E778.02069
G1 X33.673 Y87.522 E778.02755
G1 X34.002 Y87.62 E778.0618
G1 X82.618 Y39.004 E784.92204
G1 X82.901 Y39.96 E785.02152
G1 X82.621 Y39.96 E785.04946
G1 X82.773 Y40.264 E785.08338
G1 X35.171 Y87.866 E791.80053
G1 X35.5 Y88.029 E791.83717
G1 X36.248 Y88.203 E791.9138
G1 X83.204 Y41.247 E798.5398
G1 X83.462 Y42.403 E798.65798
G1 X37.524 Y88.341 E805.14033
G1 X37.562 Y88.341 E805.14412
G1 X37.562 Y88.498 E805.15978
G1 X38.61 Y88.669 E805.26574
G1 X83.671 Y43.608 E811.62433
G1 X83.854 Y44.839 E811.74851
G1 X39.971 Y88.722 E817.94088
G1 X40.896 Y88.985 E818.03683
G1 X41.103 Y89.004 E818.05757
G1 X84.001 Y46.106 E824.11094
G1 X84.112 Y47.41 E824.24153
G1 X42.412 Y89.11 E830.12585
G1 X43.263 Y89.161 E830.21091
G1 X43.81 Y89.126 E830.26561
G1 X84.119 Y48.817 E835.95364
G1 X84.027 Y49.372 E836.00977
G1 X84.187 Y49.372 E836.02574
G1 X84.194 Y50.156 E836.10397
G1 X45.154 Y89.196 E841.61294
G1 X45.877 Y89.189 E841.68508
G1 X46.414 Y89.169 E841.7387
G1 X46.415 Y88.96 E841.75955
G1 X46.739 Y89.025 E841.79253
G1 X84.163 Y51.601 E847.07346
G1 X84.115 Y52.54 E847.16727
G1 X84.068 Y53.111 E847.22444
G1 X83.939 Y53.111 E847.23731
G1 X83.948 Y53.231 E847.24932
G1 X48.243 Y88.936 E852.28768
G1 X48.646 Y89.016 E852.32868
G1 X49.109 Y88.865 E852.37727
G1 X49.108 Y88.719 E852.39184
G1 X49.384 Y88.774 E852.41992
G1 X49.571 Y88.714 E852.43952
G1 X49.571 Y88.813 E852.44939
