;FLAVOR:Marlin
;TIME:19479
;Filament used: 17.2974m
;Layer height: 0.2
;MINX:12.8
;MINY:20.4
;MINZ:0.36
;MAXX:82.028
;MAXY:79.6
;MAXZ:63.11
;TARGET_MACHINE.NAME:Unknown
;Generated with Cura_SteamEngine 5.7.0
M104 S200
M105
M109 S200
M82 ;absolute extrusion mode
G28 ;Home
G1 Z15.0 F6000 ;Move the platform down 15mm
;Prime the extruder
G92 E0
G1 F200 E3
G92 E0
G92 E0
G92 E0
G1 F1500 E-6.5
;LAYER_COUNT:309
;LAYER:-6
M107
G0 F2400 X14.629 Y21.358 Z0.36
;TYPE:SUPPORT-INTERFACE
G1 F1500 E0
G1 F900 X15.118 Y21.031 E0.07044
G1 X15.792 Y20.696 E0.16056
G1 X16.576 Y20.48 E0.25793
G1 X17.443 Y20.4 E0.36218
G1 X77.353 Y20.4 E7.53559
G1 X78.173 Y20.445 E7.63393
G1 X78.996 Y20.682 E7.73647
G1 X79.661 Y20.972 E7.82334
G1 X80.256 Y21.38 E7.90972
G1 X80.801 Y21.866 E7.99716
G1 X81.331 Y22.553 E8.10105
G1 X81.728 Y23.356 E8.20831
G1 X81.948 Y24.153 E8.30731
G1 X82.028 Y25.011 E8.41049
G1 X82.028 Y74.924 E14.38689
G1 X81.99 Y75.596 E14.46749
G1 X81.802 Y76.43 E14.56985
G1 X81.507 Y77.105 E14.65805
G1 X81.212 Y77.601 E14.72715
G1 X80.78 Y78.155 E14.81127
G1 X80.228 Y78.637 E14.89902
G1 X79.738 Y78.965 E14.96962
G1 X79.064 Y79.3 E15.05974
G1 X78.279 Y79.517 E15.15726
G1 X77.412 Y79.6 E15.26155
G1 X17.504 Y79.6 E22.43472
G1 X16.685 Y79.553 E22.53294
G1 X15.717 Y79.27 E22.6537
G1 X15.067 Y78.936 E22.7412
G1 X14.581 Y78.597 E22.81215
G1 X14.165 Y78.226 E22.87889
G1 X13.783 Y77.788 E22.94848
G1 X13.448 Y77.288 E23.02055
G1 X13.128 Y76.633 E23.10783
G1 X12.907 Y75.847 E23.2056
G1 X12.828 Y74.981 E23.30972
G1 X12.828 Y25.076 E29.28517
G1 X12.866 Y24.4 E29.36624
G1 X13.054 Y23.566 E29.4686
G1 X13.349 Y22.891 E29.55681
G1 X13.705 Y22.286 E29.64086
G1 X14.198 Y21.737 E29.72921
G1 X14.629 Y21.358 E29.79793
G0 F2400 X14.882 Y21.67
G1 F900 X72.412 Y79.2 E39.53965
G0 F2400 X70.149 Y79.2
G1 F900 X13.823 Y22.873 E49.07759
G0 F2400 X13.257 Y24.571
G1 F900 X67.886 Y79.2 E58.32808
G0 F2400 X65.624 Y79.2
G1 F900 X13.228 Y26.804 E67.20045
G0 F2400 X13.228 Y29.067
G1 F900 X63.361 Y79.2 E75.68962
G0 F2400 X61.098 Y79.2
G1 F900 X13.228 Y31.33 E83.79559
G0 F2400 X13.228 Y33.593
G1 F900 X58.836 Y79.2 E91.51844
G0 F2400 X56.573 Y79.2
G1 F900 X13.228 Y35.855 E98.85818
G0 F2400 X13.228 Y38.118
G1 F900 X54.31 Y79.2 E105.81471
G0 F2400 X52.047 Y79.2
G1 F900 X13.228 Y40.381 E112.38805
G0 F2400 X13.228 Y42.643
G1 F900 X49.785 Y79.2 E118.57835
G0 F2400 X47.522 Y79.2
G1 F900 X13.228 Y44.906 E124.38546
G0 F2400 X13.228 Y47.169
G1 F900 X45.259 Y79.2 E129.80936
G0 F2400 X42.996 Y79.2
G1 F900 X13.228 Y49.432 E134.85007
G0 F2400 X13.228 Y51.694
G1 F900 X40.734 Y79.2 E139.50774
G0 F2400 X38.471 Y79.2
G1 F900 X13.228 Y53.957 E143.78221
G0 F2400 X13.228 Y56.22
G1 F900 X36.208 Y79.2 E147.67348
G0 F2400 X33.945 Y79.2
G1 F900 X13.228 Y58.483 E151.18155
G0 F2400 X13.228 Y60.745
G1 F900 X31.683 Y79.2 E154.30659
G0 F2400 X29.42 Y79.2
G1 F900 X13.228 Y63.008 E157.04843
G0 F2400 X13.228 Y65.271
G1 F900 X27.157 Y79.2 E159.40707
G0 F2400 X24.894 Y79.2
G1 F900 X13.228 Y67.534 E161.38251
G0 F2400 X13.228 Y69.796
G1 F900 X22.632 Y79.2 E162.97492
G0 F2400 X20.369 Y79.2
G1 F900 X13.228 Y72.059 E164.18412
G0 F2400 X13.228 Y74.322
G1 F900 X18.106 Y79.2 E165.01013
G0 F2400 X15.147 Y78.504
G1 F900 X13.927 Y77.284 E165.21672
G0 F2400 X16.414 Y20.94
G1 F900 X74.675 Y79.2 E175.08214
G0 F2400 X76.937 Y79.2
G1 F900 X18.538 Y20.8 E184.9711
G0 F2400 X20.8 Y20.8
G1 F900 X78.923 Y78.923 E194.81324
G0 F2400 X80.303 Y78.04
G1 F900 X23.063 Y20.8 E204.50586
G0 F2400 X25.326 Y20.8
G1 F900 X81.241 Y76.715 E213.97411
G0 F2400 X81.628 Y74.84
G1 F900 X27.588 Y20.8 E223.12486
G0 F2400 X29.851 Y20.8
G1 F900 X81.628 Y72.577 E231.89242
G0 F2400 X81.628 Y70.315
G1 F900 X32.114 Y20.8 E240.27685
G0 F2400 X34.377 Y20.8
G1 F900 X81.628 Y68.052 E248.27809
G0 F2400 X81.628 Y65.789
G1 F900 X36.639 Y20.8 E255.89621
G0 F2400 X38.902 Y20.8
G1 F900 X81.628 Y63.526 E263.13113
G0 F2400 X81.628 Y61.264
G1 F900 X41.165 Y20.8 E269.98294
G0 F2400 X43.428 Y20.8
G1 F900 X81.628 Y59.001 E276.45154
G0 F2400 X81.628 Y56.738
G1 F900 X45.69 Y20.8 E282.53703
G0 F2400 X47.953 Y20.8
G1 F900 X81.628 Y54.476 E288.2394
G0 F2400 X81.628 Y52.213
G1 F900 X50.216 Y20.8 E293.55857
G0 F2400 X52.479 Y20.8
G1 F900 X81.628 Y49.95 E298.49454
G0 F2400 X81.628 Y47.687
G1 F900 X54.741 Y20.8 E303.0474
G0 F2400 X57.004 Y20.8
G1 F900 X81.628 Y45.425 E307.21714
G0 F2400 X81.628 Y43.162
G1 F900 X59.267 Y20.8 E311.00368
G0 F2400 X61.53 Y20.8
G1 F900 X81.628 Y40.899 E314.40701
G0 F2400 X81.628 Y38.636
G1 F900 X63.792 Y20.8 E317.42724
G0 F2400 X66.055 Y20.8
G1 F900 X81.628 Y36.374 E320.06434
G0 F2400 X81.628 Y34.111
G1 F900 X68.318 Y20.8 E322.31825
G0 F2400 X70.581 Y20.8
G1 F900 X81.628 Y31.848 E324.18896
G0 F2400 X81.628 Y29.585
G1 F900 X72.843 Y20.8 E325.67655
G0 F2400 X75.106 Y20.8
G1 F900 X81.628 Y27.323 E326.78102
G0 F2400 X81.628 Y25.06
G1 F900 X77.371 Y20.802 E327.50196
G0 F600 X77.371 Y20.802 Z0.66
G0 F2400 X81.604 Y75.374
;TIME_ELAPSED:190.956738
;LAYER:-5
;TYPE:SUPPORT
G1 F900 X77.815 Y79.163 E328.03662
G1 X78.206 Y79.128 E328.0758
G1 X78.943 Y78.919 E328.15223
G1 X79.521 Y78.633 E328.21658
G1 X79.979 Y78.327 E328.27154
G1 X80.472 Y77.899 E328.33668
G1 X80.889 Y77.368 E328.40405
G1 X81.16 Y76.913 E328.4569
G1 X81.373 Y76.422 E328.5103
G1 X81.519 Y75.921 E328.56237
G1 X81.63 Y75.208 E328.63437
G1 X81.63 Y73.934 E328.76149
G1 X76.363 Y79.2 E329.50465
G1 X74.949 Y79.2 E329.64574
G1 X81.63 Y72.519 E330.5885
G1 X81.63 Y71.105 E330.72959
G1 X73.535 Y79.2 E331.87188
G1 X72.121 Y79.2 E332.01297
G1 X81.63 Y69.691 E333.35479
G1 X81.63 Y68.277 E333.49588
G1 X70.706 Y79.2 E335.03731
G1 X69.292 Y79.2 E335.1784
G1 X81.63 Y66.863 E336.91935
G1 X81.63 Y65.448 E337.06054
G1 X67.878 Y79.2 E339.0011
G1 X66.464 Y79.2 E339.14218
G1 X81.63 Y64.034 E341.28227
G1 X81.63 Y62.62 E341.42336
G1 X65.05 Y79.2 E343.76298
G1 X63.635 Y79.2 E343.90417
G1 X81.63 Y61.206 E346.44339
G1 X81.63 Y59.792 E346.58448
G1 X62.221 Y79.2 E349.32322
G1 X60.807 Y79.2 E349.46431
G1 X81.63 Y58.377 E352.40266
G1 X81.63 Y56.963 E352.54375
G1 X59.393 Y79.2 E355.68163
G1 X57.979 Y79.2 E355.82272
G1 X81.63 Y55.549 E359.16014
G1 X81.63 Y54.135 E359.30122
G1 X56.564 Y79.2 E362.83824
G1 X55.15 Y79.2 E362.97933
G1 X81.63 Y52.72 E366.71594
G1 X81.63 Y51.306 E366.85703
G1 X53.736 Y79.2 E370.79318
G1 X52.322 Y79.2 E370.93426
G1 X81.63 Y49.892 E375.06994
G1 X81.63 Y48.478 E375.21103
G1 X50.907 Y79.2 E379.54631
G1 X49.493 Y79.2 E379.6874
G1 X81.63 Y47.064 E384.2222
G1 X81.63 Y45.649 E384.36339
G1 X48.079 Y79.2 E389.0978
G1 X46.665 Y79.2 E389.23889
G1 X81.63 Y44.235 E394.17283
G1 X81.63 Y42.821 E394.31392
G1 X45.251 Y79.2 E399.44739
G1 X43.836 Y79.2 E399.58858
G1 X81.63 Y41.407 E404.92165
G1 X81.63 Y39.993 E405.06274
G1 X42.422 Y79.2 E410.59534
G1 X41.008 Y79.2 E410.73643
G1 X81.63 Y38.578 E416.46863
G1 X81.63 Y37.164 E416.60972
G1 X39.594 Y79.2 E422.54146
G1 X38.18 Y79.2 E422.68255
G1 X81.63 Y35.75 E428.81381
G1 X81.63 Y34.336 E428.9549
G1 X36.765 Y79.2 E435.28577
G1 X35.351 Y79.2 E435.42685
G1 X81.63 Y32.921 E441.95732
G1 X81.63 Y31.507 E442.09841
G1 X33.937 Y79.2 E448.82841
G1 X32.523 Y79.2 E448.9695
G1 X81.63 Y30.093 E455.89903
G1 X81.63 Y28.679 E456.04012
G1 X31.108 Y79.2 E463.16925
G1 X29.694 Y79.2 E463.31033
G1 X81.63 Y27.265 E470.63899
G1 X81.63 Y25.85 E470.78018
G1 X28.28 Y79.2 E478.30845
G1 X26.866 Y79.2 E478.44953
G1 X81.581 Y24.485 E486.17041
G1 X81.558 Y24.217 E486.19725
G1 X81.349 Y23.487 E486.27302
G1 X81.288 Y23.364 E486.28672
G1 X25.452 Y79.2 E494.16578
G1 X24.037 Y79.2 E494.30697
G1 X80.769 Y22.469 E502.3124
G1 X80.419 Y22.062 E502.36596
G1 X80.073 Y21.751 E502.41238
G1 X22.623 Y79.2 E510.51912
G1 X21.209 Y79.2 E510.66021
G1 X79.213 Y21.196 E518.8452
G1 X78.603 Y20.977 E518.90987
G1 X78.127 Y20.868 E518.9586
G1 X19.795 Y79.2 E527.18987
G1 X18.381 Y79.2 E527.33096
G1 X76.78 Y20.8 E535.57176
G1 X75.366 Y20.8 E535.71285
G1 X17.001 Y79.166 E543.94886
G1 X16.502 Y79.087 E543.99927
G1 X15.855 Y78.898 E544.06652
G1 X73.952 Y20.8 E552.26471
G1 X72.538 Y20.8 E552.4058
G1 X14.946 Y78.391 E560.53258
G1 X14.446 Y77.942 E560.59963
G1 X14.231 Y77.693 E560.63246
G1 X71.124 Y20.8 E568.66068
G1 X69.709 Y20.8 E568.80187
G1 X13.672 Y76.838 E576.70936
G1 X13.571 Y76.636 E576.7319
G1 X13.393 Y76.12 E576.78636
G1 X13.324 Y75.771 E576.82186
G1 X68.295 Y20.8 E584.57886
G1 X66.881 Y20.8 E584.71995
G1 X13.23 Y74.451 E592.29068
G1 X13.23 Y73.037 E592.43177
G1 X65.467 Y20.8 E599.80298
G1 X64.053 Y20.8 E599.94407
G1 X13.23 Y71.623 E607.11574
G1 X13.23 Y70.209 E607.25683
G1 X62.638 Y20.8 E614.22891
G1 X61.224 Y20.8 E614.37
G1 X13.23 Y68.794 E621.14247
G1 X13.23 Y67.38 E621.28356
G1 X59.81 Y20.8 E627.8565
G1 X58.396 Y20.8 E627.99759
G1 X13.23 Y65.966 E634.371
G1 X13.23 Y64.552 E634.51209
G1 X56.981 Y20.8 E640.6859
G1 X55.567 Y20.8 E640.82699
G1 X13.23 Y63.138 E646.80126
G1 X13.23 Y61.723 E646.94245
G1 X54.153 Y20.8 E652.71713
G1 X52.739 Y20.8 E652.85822
G1 X13.23 Y60.309 E658.43337
G1 X13.23 Y58.895 E658.57446
G1 X51.325 Y20.8 E663.95007
G1 X49.91 Y20.8 E664.09126
G1 X13.23 Y57.481 E669.26728
G1 X13.23 Y56.066 E669.40847
G1 X48.496 Y20.8 E674.38488
G1 X47.082 Y20.8 E674.52597
G1 X13.23 Y54.652 E679.30285
G1 X13.23 Y53.238 E679.44394
G1 X45.668 Y20.8 E684.02129
G1 X44.254 Y20.8 E684.16238
G1 X13.23 Y51.824 E688.5402
G1 X13.23 Y50.41 E688.68129
G1 X42.839 Y20.8 E692.85951
G1 X41.425 Y20.8 E693.0006
G1 X13.23 Y48.995 E696.97922
G1 X13.23 Y47.581 E697.12031
G1 X40.011 Y20.8 E700.8994
G1 X38.597 Y20.8 E701.04049
G1 X13.23 Y46.167 E704.62005
G1 X13.23 Y44.753 E704.76114
G1 X37.183 Y20.8 E708.14116
G1 X35.768 Y20.8 E708.28235
G1 X13.23 Y43.339 E711.46278
G1 X13.23 Y41.924 E711.60397
G1 X34.354 Y20.8 E714.58479
G1 X32.94 Y20.8 E714.72588
G1 X13.23 Y40.51 E717.50718
G1 X13.23 Y39.096 E717.64827
G1 X31.526 Y20.8 E720.23003
G1 X30.111 Y20.8 E720.37122
G1 X13.23 Y37.682 E722.75338
G1 X13.23 Y36.268 E722.89447
G1 X28.697 Y20.8 E725.0771
G1 X27.283 Y20.8 E725.21819
G1 X13.23 Y34.853 E727.20122
G1 X13.23 Y33.439 E727.34231
G1 X25.869 Y20.8 E729.12581
G1 X24.455 Y20.8 E729.2669
G1 X13.23 Y32.025 E730.85087
G1 X13.23 Y30.611 E730.99196
G1 X23.04 Y20.8 E732.37633
G1 X21.626 Y20.8 E732.51742
G1 X13.23 Y29.196 E733.70218
G1 X13.23 Y27.782 E733.84327
G1 X20.212 Y20.8 E734.82851
G1 X18.798 Y20.8 E734.9696
G1 X13.23 Y26.368 E735.7553
G1 X13.23 Y24.954 E735.89639
G1 X17.376 Y20.808 E736.48144
G1 X16.654 Y20.872 E736.55376
G1 X15.918 Y21.081 E736.6301
G1 X15.465 Y21.304 E736.68048
G1 X13.724 Y23.045 E736.92616
G1 X14.037 Y22.517 E736.9874
G1 X14.492 Y22.012 E737.05523
G1 X14.881 Y21.674 E737.10665
G1 X15.339 Y21.367 E737.16166
G0 F600 X15.339 Y21.367 Z0.86
G0 F2400 X13.62 Y77.184
;TIME_ELAPSED:466.168672
;LAYER:-4
;TYPE:SUPPORT-INTERFACE
G1 F1200 X13.936 Y77.66 E737.18067
G1 X14.301 Y78.082 E737.19922
G1 X14.825 Y78.551 E737.22261
G1 X15.42 Y78.905 E737.24564
G1 X15.648 Y79.004 E737.25391
G1 X13.403 Y76.76 E737.35948
G1 X13.197 Y76.169 E737.3803
G1 X13.152 Y75.943 E737.38796
G1 X16.498 Y79.289 E737.54535
G1 X17.169 Y79.394 E737.56794
G1 X13.058 Y75.284 E737.76128
G1 X13.03 Y74.69 E737.78106
G1 X17.741 Y79.4 E738.00263
G1 X18.306 Y79.4 E738.02142
G1 X13.03 Y74.124 E738.26959
G1 X13.03 Y73.558 E738.28841
G1 X18.872 Y79.4 E738.5632
G1 X19.438 Y79.4 E738.58203
G1 X13.03 Y72.993 E738.88342
G1 X13.03 Y72.427 E738.90224
G1 X20.003 Y79.4 E739.23023
G1 X20.569 Y79.4 E739.24906
G1 X13.03 Y71.861 E739.60367
G1 X13.03 Y71.295 E739.62249
G1 X21.135 Y79.4 E740.00373
G1 X21.7 Y79.4 E740.02252
G1 X13.03 Y70.73 E740.43033
G1 X13.03 Y70.164 E740.44915
G1 X22.266 Y79.4 E740.88359
G1 X22.832 Y79.4 E740.90241
G1 X13.03 Y69.598 E741.36347
G1 X13.03 Y69.033 E741.38226
G1 X23.397 Y79.4 E741.86989
G1 X23.963 Y79.4 E741.88872
G1 X13.03 Y68.467 E742.40297
G1 X13.03 Y67.901 E742.4218
G1 X24.529 Y79.4 E742.96268
G1 X25.095 Y79.4 E742.9815
G1 X13.03 Y67.336 E743.54898
G1 X13.03 Y66.77 E743.5678
G1 X25.66 Y79.4 E744.16188
G1 X26.226 Y79.4 E744.18071
G1 X13.03 Y66.204 E744.8014
G1 X13.03 Y65.639 E744.8202
G1 X26.792 Y79.4 E745.4675
G1 X27.357 Y79.4 E745.48629
G1 X13.03 Y65.073 E746.16019
G1 X13.03 Y64.507 E746.17901
G1 X27.923 Y79.4 E746.87953
G1 X28.489 Y79.4 E746.89836
G1 X13.03 Y63.942 E747.62548
G1 X13.03 Y63.376 E747.6443
G1 X29.054 Y79.4 E748.39802
G1 X29.62 Y79.4 E748.41685
G1 X13.03 Y62.81 E749.19719
G1 X13.03 Y62.244 E749.21602
G1 X30.186 Y79.4 E750.02298
G1 X30.751 Y79.4 E750.04177
G1 X13.03 Y61.679 E750.87531
G1 X13.03 Y61.113 E750.89414
G1 X31.317 Y79.4 E751.7543
G1 X31.883 Y79.4 E751.77313
G1 X13.03 Y60.547 E752.65992
G1 X13.03 Y59.982 E752.67871
G1 X32.448 Y79.4 E753.59207
G1 X33.014 Y79.4 E753.6109
G1 X13.03 Y59.416 E754.55088
G1 X13.03 Y58.85 E754.56971
G1 X33.58 Y79.4 E755.53632
G1 X34.145 Y79.4 E755.55511
G1 X13.03 Y58.285 E756.54829
G1 X13.03 Y57.719 E756.56712
G1 X34.711 Y79.4 E757.58693
G1 X35.277 Y79.4 E757.60575
G1 X13.03 Y57.153 E758.65218
G1 X13.03 Y56.588 E758.67098
G1 X35.843 Y79.4 E759.74401
G1 X36.408 Y79.4 E759.7628
G1 X13.03 Y56.022 E760.86243
G1 X13.03 Y55.456 E760.88125
G1 X36.974 Y79.4 E762.0075
G1 X37.54 Y79.4 E762.02633
G1 X13.03 Y54.891 E763.17918
G1 X13.03 Y54.325 E763.19801
G1 X38.105 Y79.4 E764.37746
G1 X38.671 Y79.4 E764.39628
G1 X13.03 Y53.759 E765.60236
G1 X13.03 Y53.194 E765.62115
G1 X39.237 Y79.4 E766.85382
G1 X39.802 Y79.4 E766.87261
G1 X13.03 Y52.628 E768.13189
G1 X13.03 Y52.062 E768.15071
G1 X40.368 Y79.4 E769.43661
G1 X40.934 Y79.4 E769.45543
G1 X13.03 Y51.496 E770.76795
G1 X13.03 Y50.931 E770.78674
G1 X41.499 Y79.4 E772.12584
G1 X42.065 Y79.4 E772.14466
G1 X13.03 Y50.365 E773.51038
G1 X13.03 Y49.799 E773.52921
G1 X42.631 Y79.4 E774.92155
G1 X43.196 Y79.4 E774.94034
G1 X13.03 Y49.234 E776.35925
G1 X13.03 Y48.668 E776.37808
G1 X43.762 Y79.4 E777.82362
G1 X44.328 Y79.4 E777.84244
G1 X13.03 Y48.102 E779.31461
G1 X13.03 Y47.537 E779.3334
G1 X44.894 Y79.4 E780.83216
G1 X45.459 Y79.4 E780.85095
G1 X13.03 Y46.971 E782.37631
G1 X13.03 Y46.405 E782.39514
G1 X46.025 Y79.4 E783.94712
G1 X46.591 Y79.4 E783.96595
G1 X13.03 Y45.84 E785.54453
G1 X13.03 Y45.274 E785.56335
G1 X47.156 Y79.4 E787.16854
G1 X47.722 Y79.4 E787.18736
G1 X13.03 Y44.708 E788.81917
G1 X13.03 Y44.143 E788.83796
G1 X48.288 Y79.4 E790.49636
G1 X48.853 Y79.4 E790.51516
G1 X13.03 Y43.577 E792.20016
G1 X13.03 Y43.011 E792.21899
G1 X49.419 Y79.4 E793.93061
G1 X49.985 Y79.4 E793.94944
G1 X13.03 Y42.445 E795.68769
G1 X13.03 Y41.88 E795.70648
G1 X50.55 Y79.4 E797.47131
G1 X51.116 Y79.4 E797.49013
G1 X13.03 Y41.314 E799.28158
G1 X13.03 Y40.748 E799.3004
G1 X51.682 Y79.4 E801.11848
G1 X52.247 Y79.4 E801.13727
G1 X13.03 Y40.183 E802.98192
G1 X13.03 Y39.617 E803.00074
G1 X52.813 Y79.4 E804.87201
G1 X53.379 Y79.4 E804.89084
G1 X13.03 Y39.051 E806.78873
G1 X13.03 Y38.486 E806.80752
G1 X53.944 Y79.4 E808.73199
G1 X54.51 Y79.4 E808.75082
G1 X13.03 Y37.92 E810.70191
G1 X13.03 Y37.354 E810.72073
G1 X55.076 Y79.4 E812.69845
G1 X55.642 Y79.4 E812.71727
G1 X13.03 Y36.789 E814.72159
G1 X13.03 Y36.223 E814.74041
G1 X56.207 Y79.4 E816.77133
G1 X56.773 Y79.4 E816.79015
G1 X13.03 Y35.657 E818.84769
G1 X13.03 Y35.092 E818.86648
G1 X57.339 Y79.4 E820.95062
G1 X57.904 Y79.4 E820.96941
G1 X13.03 Y34.526 E823.08014
G1 X13.03 Y33.96 E823.09897
G1 X58.47 Y79.4 E825.23633
G1 X59.036 Y79.4 E825.25515
G1 X13.03 Y33.395 E827.41911
G1 X13.03 Y32.829 E827.43794
G1 X59.601 Y79.4 E829.62849
G1 X60.167 Y79.4 E829.64732
G1 X13.03 Y32.263 E831.8645
G1 X13.03 Y31.697 E831.88332
G1 X60.733 Y79.4 E834.12713
G1 X61.298 Y79.4 E834.14592
G1 X13.03 Y31.132 E836.4163
G1 X13.03 Y30.566 E836.43512
G1 X61.864 Y79.4 E838.73212
G1 X62.43 Y79.4 E838.75095
