;FLAVOR:Marlin
;TIME:1873
;Filament used: 1.38802m
;Layer height: 0.2
;MINX:15.678
;MINY:8.785
;MINZ:0.36
;MAXX:52.307
;MAXY:45.207
;MAXZ:12.91
;TARGET_MACHINE.NAME:Unknown
;Generated with Cura_SteamEngine 5.7.0
M104 S200
M105
M109 S200
M82 ;absolute extrusion mode
G28 ;Home
G1 Z15.0 F6000 ;Move the platform down 15mm
;Prime the extruder
G92 E0
G1 F200 E3
G92 E0
G92 E0
G92 E0
G1 F1500 E-6.5
;LAYER_COUNT:58
;LAYER:-6
M107
G0 F2400 X18.477 Y17.491 Z0.36
;TYPE:SUPPORT-INTERFACE
G1 F1500 E0
G1 F900 X22.948 Y12.456 E0.80625
G1 X23.596 Y11.912 E0.90756
G1 X24.377 Y11.48 E1.01443
G1 X30.694 Y9.085 E1.82334
G1 X31.581 Y8.833 E1.93375
G1 X32.292 Y8.785 E2.01908
G1 X32.918 Y8.815 E2.09412
G1 X39.284 Y9.584 E2.8619
G1 X40.023 Y9.716 E2.95179
G1 X40.665 Y9.949 E3.03356
G1 X41.3 Y10.266 E3.11854
G1 X46.823 Y14.076 E3.92194
G1 X47.221 Y14.383 E3.98212
G1 X47.652 Y14.8 E4.05393
G1 X48.025 Y15.257 E4.12456
G1 X48.364 Y15.807 E4.20192
G1 X51.341 Y21.477 E4.96871
G1 X51.571 Y21.976 E5.0345
G1 X51.752 Y22.523 E5.10349
G1 X51.88 Y23.164 E5.18176
G1 X52.269 Y26.331 E5.56381
G1 X52.307 Y26.875 E5.62911
G1 X52.284 Y27.509 E5.70507
G1 X51.904 Y30.704 E6.09033
G1 X51.798 Y31.288 E6.1614
G1 X51.642 Y31.828 E6.2287
G1 X51.362 Y32.475 E6.31311
G1 X48.211 Y38.471 E7.12415
G1 X47.692 Y39.176 E7.22897
G1 X47.057 Y39.762 E7.33243
G1 X41.533 Y43.572 E8.13592
G1 X40.978 Y43.913 E8.21392
G1 X40.3 Y44.188 E8.30152
G1 X39.655 Y44.362 E8.38151
G1 X32.976 Y45.177 E9.18716
G1 X32.458 Y45.207 E9.24929
G1 X31.9 Y45.189 E9.31614
G1 X31.296 Y45.089 E9.38945
G1 X30.794 Y44.947 E9.45191
G1 X24.66 Y42.621 E10.23741
G1 X24.014 Y42.336 E10.32195
G1 X23.419 Y41.936 E10.4078
G1 X22.886 Y41.481 E10.49171
G1 X18.226 Y36.216 E11.33358
G1 X17.82 Y35.571 E11.42484
G1 X17.584 Y35.069 E11.49126
G1 X17.409 Y34.555 E11.55627
G1 X15.828 Y28.159 E12.34515
G1 X15.737 Y27.674 E12.40424
G1 X15.678 Y26.955 E12.49062
G1 X15.756 Y26.131 E12.58972
G1 X17.358 Y19.616 E13.39304
G1 X17.517 Y19.106 E13.45701
G1 X17.743 Y18.572 E13.52644
G1 X18.034 Y18.071 E13.59581
G1 X18.477 Y17.491 E13.6832
G0 F2400 X18.34 Y18.34
G1 F900 X42.452 Y42.452 E17.76615
G0 F2400 X43.791 Y41.528
G1 F900 X19.361 Y17.098 E21.90296
G0 F2400 X20.425 Y15.899
G1 F900 X45.13 Y40.604 E26.08633
G0 F2400 X46.469 Y39.681
G1 F900 X21.489 Y14.701 E30.31627
G0 F2400 X22.553 Y13.502
G1 F900 X47.633 Y38.582 E34.56314
G0 F2400 X48.457 Y37.143
G1 F900 X23.679 Y12.365 E38.75887
G0 F2400 X25.18 Y11.604
G1 F900 X49.237 Y35.66 E42.83243
G0 F2400 X50.016 Y34.177
G1 F900 X26.821 Y10.982 E46.76011
G0 F2400 X28.462 Y10.36
G1 F900 X50.796 Y32.694 E50.54199
G0 F2400 X51.432 Y31.067
G1 F900 X30.102 Y9.738 E54.15378
G0 F2400 X31.844 Y9.216
G1 F900 X51.696 Y29.068 E57.51537
G0 F2400 X51.902 Y27.012
G1 F900 X34.273 Y9.383 E60.50054
G0 F2400 X36.846 Y9.693
G1 F900 X51.64 Y24.487 E63.00566
G0 F2400 X50.885 Y21.469
G1 F900 X39.433 Y10.018 E64.94477
G0 F2400 X44.944 Y13.266
G1 F900 X48.384 Y16.705 E65.52719
G0 F2400 X41.103 Y43.366
G1 F900 X17.688 Y19.95 E69.49221
G0 F2400 X17.241 Y21.766
G1 F900 X39.457 Y43.982 E73.25411
G0 F2400 X37.44 Y44.228
G1 F900 X16.794 Y23.582 E76.75016
G0 F2400 X16.348 Y25.399
G1 F900 X35.423 Y44.474 E79.98019
G0 F2400 X33.407 Y44.72
G1 F900 X16.118 Y27.432 E82.9077
G0 F2400 X16.783 Y30.36
G1 F900 X31.019 Y44.595 E85.31824
G0 F2400 X27.389 Y43.228
G1 F900 X17.526 Y33.366 E86.98828
G0 F600 X17.526 Y33.366 Z0.66
G0 F2400 X24.536 Y11.852
;TIME_ELAPSED:53.582432
;LAYER:-5
;TYPE:SUPPORT
G1 F900 X23.868 Y12.218 E87.06429
G1 X23.351 Y12.639 E87.13081
G1 X22.985 Y13.01 E87.18281
G1 X18.587 Y17.975 E87.84463
G1 X18.205 Y18.564 E87.91468
G1 X25.152 Y11.618 E88.89491
G1 X27.432 Y10.752 E89.13827
G1 X17.519 Y20.665 E90.5371
G1 X17.054 Y22.544 E90.73024
G1 X29.712 Y9.886 E92.51642
G1 X30.767 Y9.486 E92.629
G1 X31.248 Y9.336 E92.67928
G1 X31.783 Y9.229 E92.73372
G1 X16.59 Y24.422 E94.87761
G1 X16.242 Y25.83 E95.02233
G1 X16.242 Y26.185 E95.05775
G1 X33.177 Y9.249 E97.44753
G1 X34.439 Y9.402 E97.57438
G1 X16.127 Y27.713 E100.15833
G1 X16.408 Y28.847 E100.2749
G1 X35.7 Y9.555 E102.99721
G1 X36.96 Y9.709 E103.12387
G1 X16.688 Y29.981 E105.98447
G1 X16.968 Y31.116 E106.10112
G1 X38.222 Y9.861 E109.10035
G1 X39.483 Y10.015 E109.22711
G1 X17.248 Y32.25 E112.36471
G1 X17.527 Y33.385 E112.48133
G1 X40.568 Y10.344 E115.73267
G1 X41.085 Y10.602 E115.79032
G1 X41.463 Y10.863 E115.83616
G1 X17.857 Y34.469 E119.16722
G1 X18.06 Y34.874 E119.21242
G1 X17.957 Y34.925 E119.22389
G1 X18.231 Y35.509 E119.28825
G1 X42.301 Y11.44 E122.68472
G1 X43.137 Y12.017 E122.78608
G1 X18.842 Y36.312 E126.21436
G1 X19.506 Y37.062 E126.31431
G1 X43.974 Y12.594 E129.76701
G1 X44.811 Y13.172 E129.86851
G1 X20.171 Y37.812 E133.34548
G1 X20.835 Y38.562 E133.44543
G1 X45.648 Y13.749 E136.94681
G1 X46.484 Y14.327 E137.04822
G1 X21.5 Y39.312 E140.5738
G1 X22.164 Y40.061 E140.67368
G1 X47.257 Y14.969 E144.2145
G1 X47.443 Y15.148 E144.24026
G1 X47.882 Y15.758 E144.31525
G1 X22.816 Y40.823 E147.85226
G1 X23.529 Y41.525 E147.9521
G1 X48.372 Y16.682 E151.45772
G1 X48.859 Y17.609 E151.5622
G1 X24.403 Y42.065 E155.01321
G1 X24.662 Y42.191 E155.04195
G1 X25.407 Y42.475 E155.1215
G1 X49.345 Y18.537 E158.49941
G1 X49.832 Y19.465 E158.60398
G1 X26.432 Y42.864 E161.90591
G1 X27.457 Y43.254 E162.01533
G1 X50.319 Y20.392 E165.24141
G1 X50.806 Y21.319 E165.34589
G1 X28.482 Y43.643 E168.49605
G1 X29.506 Y44.033 E168.60538
G1 X51.253 Y22.286 E171.67412
G1 X51.373 Y22.643 E171.7117
G1 X51.533 Y23.42 E171.79086
G1 X30.531 Y44.423 E174.75454
G1 X31.032 Y44.613 E174.808
G1 X31.623 Y44.745 E174.86842
G1 X51.668 Y24.699 E177.69706
G1 X51.823 Y25.959 E177.82373
G1 X33.011 Y44.771 E180.47831
G1 X34.621 Y44.575 E180.64014
G1 X51.891 Y27.305 E183.07712
G1 X51.878 Y27.604 E183.10699
G1 X51.721 Y28.889 E183.23616
G1 X36.23 Y44.38 E185.42211
G1 X37.839 Y44.185 E185.58383
G1 X51.539 Y30.486 E187.51697
G1 X51.392 Y31.32 E187.60147
G1 X51.131 Y32.063 E187.68005
G1 X50.861 Y32.578 E187.73807
G1 X39.432 Y44.006 E189.35076
G1 X40.191 Y43.805 E189.4291
G1 X40.795 Y43.558 E189.49421
G1 X41.307 Y43.245 E189.55409
G1 X42.277 Y42.576 E189.67167
G1 X49.299 Y35.553 E190.66262
G1 X48.043 Y37.948 E190.93246
G1 X47.784 Y38.382 E190.98289
G1 X47.455 Y38.821 E191.03763
G1 X47.078 Y39.212 E191.09182
G1 X46.967 Y39.3 E191.10596
G1 X47.48 Y38.787 E191.17835
G0 F600 X47.48 Y38.787 Z0.86
G0 F2400 X22.858 Y41.147
;TIME_ELAPSED:123.905234
;LAYER:-4
;TYPE:SUPPORT-INTERFACE
G1 F1200 X23.333 Y41.613 E191.20048
G1 X23.89 Y42.037 E191.22376
G1 X23.978 Y42.08 E191.22702
G1 X21.41 Y39.512 E191.34781
G1 X18.614 Y36.355 E191.48807
G1 X18.301 Y35.962 E191.50478
G1 X18.091 Y35.627 E191.51793
G1 X24.997 Y42.533 E191.84277
G1 X25.909 Y42.88 E191.87522
G1 X17.768 Y34.739 E192.25815
G1 X17.546 Y34.293 E192.27472
G1 X17.434 Y33.839 E192.29028
G1 X26.822 Y43.227 E192.73186
G1 X27.735 Y43.574 E192.76434
G1 X17.248 Y33.088 E193.2576
G1 X17.063 Y32.337 E193.28332
G1 X28.648 Y43.921 E193.82822
G1 X29.56 Y44.268 E193.86068
G1 X16.878 Y31.586 E194.4572
G1 X16.693 Y30.835 E194.48292
G1 X30.473 Y44.615 E195.13109
G1 X30.98 Y44.808 E195.14914
G1 X31.303 Y44.879 E195.16014
G1 X16.507 Y30.084 E195.85607
G1 X16.322 Y29.333 E195.8818
G1 X31.977 Y44.988 E196.61816
G1 X32.558 Y45.003 E196.63749
G1 X16.137 Y28.582 E197.40988
G1 X15.974 Y27.854 E197.4347
G1 X33.082 Y44.961 E198.23938
G1 X33.587 Y44.901 E198.25629
G1 X15.899 Y27.213 E199.08828
G1 X15.908 Y26.657 E199.10678
G1 X34.091 Y44.839 E199.96203
G1 X34.596 Y44.778 E199.97895
G1 X16.041 Y26.223 E200.85172
G1 X16.07 Y25.687 E200.86957
G1 X35.1 Y44.717 E201.76468
G1 X35.604 Y44.655 E201.78157
G1 X16.182 Y25.233 E202.69512
G1 X16.295 Y24.78 E202.71065
G1 X36.109 Y44.594 E203.64264
G1 X36.613 Y44.533 E203.65953
G1 X16.406 Y24.326 E204.61
G1 X16.519 Y23.873 E204.62553
G1 X37.117 Y44.471 E205.5944
G1 X37.622 Y44.411 E205.61131
G1 X16.631 Y23.419 E206.59869
G1 X16.743 Y22.965 E206.61424
G1 X38.126 Y44.349 E207.62006
G1 X38.631 Y44.288 E207.63697
G1 X16.855 Y22.512 E208.66125
G1 X16.968 Y22.059 E208.67678
G1 X39.136 Y44.227 E209.71949
G1 X39.633 Y44.159 E209.73618
G1 X17.079 Y21.605 E210.79705
G1 X17.192 Y21.152 E210.81258
G1 X40.081 Y44.041 E211.88921
G1 X40.5 Y43.894 E211.90397
G1 X17.304 Y20.698 E212.99504
G1 X17.416 Y20.244 E213.0106
G1 X40.899 Y43.727 E214.11516
G1 X41.25 Y43.513 E214.12884
G1 X17.528 Y19.791 E215.24465
G1 X17.654 Y19.351 E215.25987
G1 X41.593 Y43.29 E216.38589
G1 X41.927 Y43.059 E216.39939
G1 X17.8 Y18.931 E217.53428
G1 X17.986 Y18.552 E217.54832
G1 X42.262 Y42.827 E218.69016
G1 X42.597 Y42.597 E218.70368
G1 X18.199 Y18.199 E219.85129
G1 X18.424 Y17.859 E219.86485
G1 X42.931 Y42.366 E221.01758
G1 X43.266 Y42.135 E221.03112
G1 X18.69 Y17.558 E222.18712
G1 X18.955 Y17.258 E222.20043
G1 X43.601 Y41.904 E223.3597
G1 X43.935 Y41.673 E223.37321
G1 X19.221 Y16.959 E224.53568
G1 X19.486 Y16.658 E224.54902
G1 X44.271 Y41.442 E225.71481
G1 X44.605 Y41.211 E225.72831
G1 X19.752 Y16.358 E226.89732
G1 X20.018 Y16.058 E226.91066
G1 X44.939 Y40.98 E228.08289
G1 X45.275 Y40.749 E228.09645
G1 X20.283 Y15.758 E229.27198
G1 X20.549 Y15.458 E229.28531
G1 X45.609 Y40.518 E230.46406
G1 X45.944 Y40.287 E230.47759
G1 X20.815 Y15.158 E231.65958
G1 X21.08 Y14.858 E231.6729
G1 X46.279 Y40.056 E232.85816
G1 X46.613 Y39.825 E232.87166
G1 X21.346 Y14.558 E234.06014
G1 X21.612 Y14.258 E234.07348
G1 X46.934 Y39.58 E235.26455
G1 X47.246 Y39.326 E235.27793
G1 X21.877 Y13.958 E236.47119
G1 X22.143 Y13.658 E236.48452
G1 X47.524 Y39.039 E237.67837
G1 X47.777 Y38.726 E237.69175
G1 X22.409 Y13.358 E238.88499
G1 X22.674 Y13.057 E238.89832
G1 X48.011 Y38.394 E240.0901
G1 X48.221 Y38.039 E240.10382
G1 X22.946 Y12.763 E241.2927
G1 X23.229 Y12.481 E241.30599
G1 X48.416 Y37.668 E242.49071
G1 X48.611 Y37.297 E242.50465
G1 X23.54 Y12.227 E243.68389
G1 X23.869 Y11.99 E243.69737
G1 X48.805 Y36.926 E244.87029
G1 X49 Y36.555 E244.88423
G1 X24.235 Y11.79 E246.0491
G1 X24.619 Y11.608 E246.06323
G1 X49.195 Y36.184 E247.21921
G1 X49.389 Y35.813 E247.23313
G1 X25.029 Y11.452 E248.37898
G1 X25.438 Y11.296 E248.39354
G1 X49.584 Y35.442 E249.52929
G1 X49.779 Y35.071 E249.54323
G1 X25.848 Y11.14 E250.66887
G1 X26.258 Y10.985 E250.68345
G1 X49.973 Y34.7 E251.79893
G1 X50.168 Y34.329 E251.81287
G1 X26.669 Y10.829 E252.91821
G1 X27.079 Y10.674 E252.93279
G1 X50.363 Y33.958 E254.028
G1 X50.557 Y33.587 E254.04193
G1 X27.489 Y10.518 E255.127
G1 X27.898 Y10.362 E255.14156
G1 X50.752 Y33.216 E256.21654
G1 X50.947 Y32.845 E256.23048
G1 X28.308 Y10.206 E257.29535
G1 X28.718 Y10.051 E257.30993
G1 X51.141 Y32.474 E258.36464
G1 X51.33 Y32.097 E258.37866
G1 X29.129 Y9.895 E259.42295
G1 X29.539 Y9.74 E259.43753
G1 X51.477 Y31.678 E260.46943
G1 X51.609 Y31.244 E260.48452
G1 X29.949 Y9.584 E261.50334
G1 X30.358 Y9.428 E261.5179
G1 X51.693 Y30.763 E262.52143
G1 X51.756 Y30.26 E262.53829
G1 X30.772 Y9.276 E263.52531
G1 X31.203 Y9.141 E263.54033
G1 X51.817 Y29.756 E264.50998
G1 X51.878 Y29.251 E264.52689
G1 X31.671 Y9.044 E265.47737
G1 X32.189 Y8.996 E265.49467
G1 X51.94 Y28.747 E266.4237
G1 X52.001 Y28.242 E266.44062
G1 X32.77 Y9.011 E267.34519
G1 X33.4 Y9.076 E267.36625
G1 X52.062 Y27.738 E268.24405
G1 X52.096 Y27.206 E268.26178
G1 X34.044 Y9.153 E269.11092
G1 X34.688 Y9.232 E269.1325
G1 X52.093 Y26.637 E269.95118
G1 X52.03 Y26.009 E269.97217
G1 X35.332 Y9.31 E270.75761
G1 X35.975 Y9.388 E270.77916
G1 X51.952 Y25.365 E271.53067
G1 X51.873 Y24.72 E271.55228
G1 X36.62 Y9.467 E272.26973
G1 X37.264 Y9.545 E272.29131
G1 X51.794 Y24.076 E272.97478
G1 X51.715 Y23.431 E272.99639
G1 X37.907 Y9.623 E273.64588
G1 X38.551 Y9.702 E273.66746
G1 X51.6 Y22.75 E274.28122
G1 X51.568 Y22.598 E274.28639
G1 X51.342 Y21.926 E274.30997
G1 X39.196 Y9.78 E274.88128
G1 X39.63 Y9.832 E274.89582
G1 X39.888 Y9.907 E274.90475
G1 X50.736 Y20.754 E275.41499
G1 X50.111 Y19.564 E275.45969
G1 X40.768 Y10.221 E275.89916
G1 X41.182 Y10.427 E275.91454
G1 X42.335 Y11.222 E275.96112
G1 X49.488 Y18.375 E276.29758
G1 X48.864 Y17.186 E276.34224
G1 X44.158 Y12.48 E276.56359
G1 X46.965 Y14.416 E276.67701
G1 X47.596 Y15.018 E276.70601
G1 X48.075 Y15.683 E276.73327
G1 X48.24 Y15.995 E276.74501
G1 X45.981 Y13.737 E276.85124
G0 F600 X45.981 Y13.737 Z1.06
G0 F2400 X24.449 Y11.672
;TIME_ELAPSED:253.411289
;LAYER:-3
;TYPE:SUPPORT-INTERFACE
G1 F1200 X23.756 Y12.051 E276.87751
G1 X23.219 Y12.489 E276.90056
G1 X22.849 Y12.861 E276.91801
G1 X19.037 Y17.167 E277.10929
G1 X24.584 Y11.62 E277.3702
G1 X25.495 Y11.274 E277.40261
G1 X17.781 Y18.989 E277.76548
G1 X17.595 Y19.524 E277.78432
G1 X17.524 Y19.811 E277.79415
G1 X26.408 Y10.928 E278.21201
G1 X27.32 Y10.581 E278.24446
G1 X17.338 Y20.563 E278.71398
G1 X17.152 Y21.314 E278.73972
G1 X28.231 Y10.235 E279.26084
G1 X29.143 Y9.889 E279.29328
G1 X16.966 Y22.066 E279.86605
G1 X16.78 Y22.818 E279.89182
G1 X30.056 Y9.542 E280.51628
G1 X30.703 Y9.297 E280.53929
G1 X30.942 Y9.221 E280.54763
G1 X16.594 Y23.569 E281.22252
G1 X16.408 Y24.321 E281.24828
G1 X31.69 Y9.04 E281.96708
G1 X32.308 Y8.987 E281.98771
G1 X16.223 Y25.072 E282.7443
G1 X16.041 Y25.82 E282.7699
G1 X32.847 Y9.014 E283.5604
G1 X33.357 Y9.069 E283.57746
G1 X15.928 Y26.499 E284.39729
G1 X15.898 Y27.094 E284.41711
G1 X33.861 Y9.131 E285.26203
G1 X34.365 Y9.192 E285.27892
G1 X15.933 Y27.625 E286.14593
G1 X16.021 Y28.103 E286.16209
G1 X34.87 Y9.253 E287.04872
G1 X35.374 Y9.315 E287.0656
G1 X16.131 Y28.558 E287.97074
G1 X16.244 Y29.011 E287.98626
G1 X35.879 Y9.376 E288.90984
G1 X36.383 Y9.437 E288.92672
G1 X16.355 Y29.465 E289.86878
G1 X16.467 Y29.919 E289.88433
G1 X36.888 Y9.499 E290.84485
G1 X37.392 Y9.56 E290.86173
G1 X16.58 Y30.372 E291.84066
G1 X16.691 Y30.826 E291.85621
G1 X37.896 Y9.622 E292.8536
G1 X38.401 Y9.682 E292.87052
G1 X16.803 Y31.28 E293.88642
G1 X16.915 Y31.734 E293.90198
G1 X38.905 Y9.744 E294.93632
G1 X39.409 Y9.805 E294.9532
G1 X17.027 Y32.188 E296.00601
G1 X17.139 Y32.641 E296.02153
G1 X39.877 Y9.903 E297.09105
G1 X40.317 Y10.029 E297.10628
G1 X17.251 Y33.095 E298.19123
G1 X17.363 Y33.549 E298.20678
G1 X40.717 Y10.195 E299.30528
G1 X41.094 Y10.383 E299.3193
G1 X17.475 Y34.003 E300.43028
G1 X17.614 Y34.429 E300.44519
G1 X41.439 Y10.604 E301.56584
G1 X41.774 Y10.835 E301.57938
G1 X17.72 Y34.889 E302.7108
G1 X17.901 Y35.273 E302.72492
G1 X42.109 Y11.066 E303.86357
G1 X42.443 Y11.297 E303.87708
G1 X18.1 Y35.64 E305.0221
G1 X18.32 Y35.985 E305.03571
G1 X42.779 Y11.527 E306.18616
G1 X43.113 Y11.758 E306.19967
G1 X18.571 Y36.301 E307.35407
G1 X18.834 Y36.603 E307.36739
G1 X43.448 Y11.989 E308.52516
G1 X43.783 Y12.22 E308.53869
G1 X19.1 Y36.903 E309.6997
G1 X19.366 Y37.203 E309.71304
G1 X44.118 Y12.451 E310.8773
G1 X44.452 Y12.682 E310.8908
G1 X19.631 Y37.503 E312.05831
G1 X19.897 Y37.803 E312.07164
G1 X44.787 Y12.913 E313.24239
G1 X45.122 Y13.144 E313.25593
G1 X20.162 Y38.103 E314.42995
G1 X20.428 Y38.403 E314.44328
G1 X45.456 Y13.375 E315.62052
G1 X45.792 Y13.605 E315.63406
G1 X20.694 Y38.703 E316.8146
G1 X20.96 Y39.003 E316.82793
G1 X46.126 Y13.837 E318.01166
G1 X46.461 Y14.067 E318.02518
G1 X21.225 Y39.303 E319.2122
G1 X21.491 Y39.603 E319.22554
G1 X46.796 Y14.298 E320.41581
G1 X47.108 Y14.552 E320.42919
G1 X21.757 Y39.903 E321.62162
G1 X22.023 Y40.203 E321.63496
G1 X47.397 Y14.828 E322.8285
G1 X47.67 Y15.121 E322.84182
G1 X22.288 Y40.503 E324.03571
G1 X22.554 Y40.803 E324.04904
G1 X47.906 Y15.45 E325.24155
G1 X48.131 Y15.791 E325.25514
G1 X22.82 Y41.103 E326.44571
G1 X23.102 Y41.386 E326.459
G1 X48.327 Y16.162 E327.64548
G1 X48.521 Y16.533 E327.65941
G1 X23.394 Y41.66 E328.8413
G1 X23.715 Y41.905 E328.85473
G1 X48.715 Y16.904 E330.03068
