;FLAVOR:Marlin
;TIME:1488
;Filament used: 0.956345m
;Layer height: 0.2
;MINX:16.298
;MINY:9.372
;MINZ:0.3
;MAXX:51.692
;MAXY:44.601
;MAXZ:11.7
;TARGET_MACHINE.NAME:Unknown
;Generated with Cura_SteamEngine 5.7.0
M104 S200
M105
M109 S200
M82 ;absolute extrusion mode
G28 ;Home
G1 Z15.0 F6000 ;Move the platform down 15mm
;Prime the extruder
G92 E0
G1 F200 E3
G92 E0
G92 E0
G92 E0
G1 F1500 E-6.5
;LAYER_COUNT:58
;LAYER:0
M107
G0 F600 X19.374 Y17.39 Z0.3
;TYPE:SKIRT
G1 F1500 E0
G1 F600 X22.772 Y13.554 E0.25567
G1 X23.273 Y13.005 E0.29275
G1 X23.759 Y12.559 E0.32566
G1 X24.367 Y12.147 E0.3623
G1 X25.464 Y11.712 E0.42117
G1 X30.329 Y9.867 E0.68076
G1 X31.04 Y9.611 E0.71846
G1 X31.647 Y9.454 E0.74974
G1 X32.376 Y9.372 E0.78634
G1 X33.604 Y9.503 E0.84795
G1 X38.676 Y10.12 E1.10286
G1 X39.462 Y10.229 E1.14245
G1 X40.017 Y10.356 E1.17085
G1 X40.761 Y10.643 E1.21064
G1 X41.795 Y11.335 E1.27271
G1 X46.009 Y14.242 E1.52812
G1 X46.576 Y14.645 E1.56282
G1 X47.105 Y15.097 E1.59754
G1 X47.583 Y15.649 E1.63397
G1 X48.161 Y16.709 E1.6942
G1 X50.579 Y21.318 E1.95387
G1 X50.891 Y21.936 E1.98841
G1 X51.117 Y22.495 E2.01849
G1 X51.27 Y23.154 E2.05224
G1 X51.357 Y23.769 E2.08323
G1 X51.616 Y25.898 E2.19023
G1 X51.688 Y26.571 E2.224
G1 X51.692 Y27.472 E2.26895
G1 X51.364 Y30.164 E2.40424
G1 X51.265 Y30.879 E2.44026
G1 X51.121 Y31.496 E2.47187
G1 X50.915 Y32.013 E2.49963
G1 X50.588 Y32.666 E2.53607
G1 X48.121 Y37.366 E2.80089
G1 X47.745 Y38.053 E2.83996
G1 X47.395 Y38.574 E2.87127
G1 X46.902 Y39.119 E2.90794
G1 X45.885 Y39.843 E2.97022
G1 X41.71 Y42.725 E3.22332
G1 X41.031 Y43.176 E3.26399
G1 X40.533 Y43.449 E3.29232
G1 X39.791 Y43.727 E3.33185
G1 X38.603 Y43.889 E3.39167
G1 X33.48 Y44.511 E3.64913
G1 X32.71 Y44.59 E3.68775
G1 X32.143 Y44.601 E3.71604
G1 X31.356 Y44.502 E3.75562
G1 X30.23 Y44.096 E3.81533
G1 X25.377 Y42.254 E4.07431
G1 X24.712 Y41.989 E4.11002
G1 X24.121 Y41.691 E4.14304
G1 X23.523 Y41.268 E4.17958
G1 X22.705 Y40.37 E4.24019
G1 X19.304 Y36.532 E4.49603
G1 X18.79 Y35.93 E4.53552
G1 X18.458 Y35.467 E4.56394
G1 X18.092 Y34.763 E4.60353
G1 X17.787 Y33.594 E4.6638
G1 X16.551 Y28.585 E4.9212
G1 X16.388 Y27.878 E4.9574
G1 X16.298 Y27.224 E4.99033
G1 X16.303 Y26.484 E5.02725
G1 X16.573 Y25.33 E5.08638
G1 X17.822 Y20.259 E5.34693
G1 X18.012 Y19.549 E5.3836
G1 X18.229 Y18.959 E5.41497
G1 X18.573 Y18.319 E5.45122
G1 X19.374 Y17.39 E5.51241
G0 X19.673 Y17.655
G1 X23.068 Y13.823 E5.76783
G1 X23.545 Y13.298 E5.80322
G1 X23.984 Y12.89 E5.83312
G1 X24.556 Y12.502 E5.8676
G1 X25.606 Y12.086 E5.92395
G1 X30.465 Y10.243 E6.18322
G1 X31.143 Y9.998 E6.21918
G1 X31.692 Y9.852 E6.24752
G1 X32.379 Y9.775 E6.28201
G1 X33.556 Y9.9 E6.34106
G1 X38.622 Y10.516 E6.59567
G1 X39.373 Y10.619 E6.63349
G1 X39.928 Y10.746 E6.66189
G1 X40.573 Y10.999 E6.69646
G1 X41.568 Y11.664 E6.75617
G1 X45.777 Y14.568 E7.01128
G1 X46.344 Y14.971 E7.04599
G1 X46.803 Y15.359 E7.07597
G1 X47.253 Y15.879 E7.11028
G1 X47.807 Y16.895 E7.16802
G1 X50.222 Y21.499 E7.42739
G1 X50.52 Y22.086 E7.46024
G1 X50.746 Y22.645 E7.49032
G1 X50.874 Y23.21 E7.51922
G1 X50.96 Y23.817 E7.54981
G1 X51.218 Y25.941 E7.65655
G1 X51.29 Y26.614 E7.69032
G1 X51.295 Y27.424 E7.73073
G1 X50.968 Y30.11 E7.86573
G1 X50.875 Y30.791 E7.90002
G1 X50.749 Y31.348 E7.92851
G1 X50.543 Y31.865 E7.95627
G1 X50.234 Y32.48 E7.99061
G1 X47.77 Y37.175 E8.25514
G1 X47.412 Y37.832 E8.29247
G1 X47.098 Y38.306 E8.32084
G1 X46.635 Y38.818 E8.35528
G1 X45.658 Y39.514 E8.41512
G1 X41.488 Y42.392 E8.6679
G1 X40.839 Y42.825 E8.70683
G1 X40.341 Y43.098 E8.73516
G1 X39.693 Y43.337 E8.76962
G1 X38.555 Y43.492 E8.82692
G1 X33.439 Y44.113 E9.08403
G1 X32.699 Y44.19 E9.12115
G1 X32.193 Y44.204 E9.1464
G1 X31.449 Y44.11 E9.18382
G1 X30.372 Y43.722 E9.24093
G1 X25.524 Y41.882 E9.49963
G1 X24.89 Y41.631 E9.53365
G1 X24.352 Y41.364 E9.56361
G1 X23.788 Y40.965 E9.59808
G1 X23.004 Y40.105 E9.65614
G1 X19.608 Y36.272 E9.91163
G1 X19.115 Y35.697 E9.94941
G1 X18.783 Y35.234 E9.97784
G1 X18.468 Y34.619 E10.01231
G1 X18.175 Y33.498 E10.07012
G1 X16.941 Y28.494 E10.32725
G1 X16.784 Y27.821 E10.36172
G1 X16.698 Y27.227 E10.39167
G1 X16.703 Y26.529 E10.42649
G1 X16.961 Y25.426 E10.48301
G1 X18.209 Y20.361 E10.74326
G1 X18.388 Y19.685 E10.77815
G1 X18.581 Y19.149 E10.80657
G1 X18.905 Y18.547 E10.84068
G1 X19.673 Y17.655 E10.8994
G0 X19.972 Y17.92
G1 X23.364 Y14.092 E11.15457
G1 X23.841 Y13.567 E11.18996
G1 X24.209 Y13.221 E11.21516
G1 X24.745 Y12.857 E11.24748
G1 X25.748 Y12.46 E11.3013
G1 X30.602 Y10.619 E11.5603
G1 X31.249 Y10.384 E11.59464
G1 X31.736 Y10.25 E11.61984
G1 X32.381 Y10.178 E11.65222
G1 X33.508 Y10.297 E11.70876
G1 X38.568 Y10.912 E11.96306
G1 X39.288 Y11.01 E11.99931
G1 X39.782 Y11.118 E12.02454
G1 X40.384 Y11.354 E12.0568
G1 X41.341 Y11.993 E12.11421
G1 X45.545 Y14.894 E12.36904
G1 X46.112 Y15.297 E12.40374
G1 X46.5 Y15.621 E12.42896
G1 X46.923 Y16.11 E12.46122
G1 X47.453 Y17.081 E12.51641
G1 X49.865 Y21.68 E12.7755
G1 X50.163 Y22.267 E12.80834
G1 X50.356 Y22.735 E12.8336
G1 X50.478 Y23.266 E12.86078
G1 X50.563 Y23.865 E12.89096
G1 X50.82 Y25.984 E12.99745
G1 X50.892 Y26.657 E13.03122
G1 X50.898 Y27.376 E13.06709
G1 X50.572 Y30.056 E13.20178
G1 X50.484 Y30.706 E13.23451
G1 X50.377 Y31.2 E13.25973
G1 X50.171 Y31.717 E13.28749
G1 X49.88 Y32.294 E13.31973
G1 X47.418 Y36.984 E13.584
G1 X47.076 Y37.614 E13.61976
G1 X46.801 Y38.038 E13.64497
G1 X46.368 Y38.517 E13.67719
G1 X45.431 Y39.185 E13.7346
G1 X41.265 Y42.06 E13.98713
G1 X40.644 Y42.476 E14.02442
G1 X40.203 Y42.723 E14.04964
G1 X39.596 Y42.947 E14.08192
G1 X38.507 Y43.095 E14.13675
G1 X33.397 Y43.715 E14.39356
G1 X32.688 Y43.79 E14.42913
G1 X32.182 Y43.804 E14.45438
G1 X31.544 Y43.719 E14.48649
G1 X30.514 Y43.348 E14.54111
G1 X25.671 Y41.51 E14.79954
G1 X25.037 Y41.259 E14.83356
G1 X24.583 Y41.037 E14.85878
G1 X24.053 Y40.662 E14.89117
G1 X23.303 Y39.84 E14.94668
G1 X19.911 Y36.011 E15.20189
G1 X19.438 Y35.461 E15.23808
G1 X19.139 Y35.052 E15.26336
G1 X18.844 Y34.476 E15.29564
G1 X18.563 Y33.402 E15.35103
G1 X17.331 Y28.403 E15.60789
G1 X17.174 Y27.73 E15.64237
G1 X17.098 Y27.23 E15.6676
G1 X17.103 Y26.579 E15.70008
G1 X17.349 Y25.522 E15.75422
G1 X18.596 Y20.463 E16.01417
G1 X18.766 Y19.817 E16.0475
G1 X18.933 Y19.339 E16.07276
G1 X19.237 Y18.775 E16.10472
G1 X19.972 Y17.92 E16.16098
G1 F1500 E9.66098
;MESH:Body_01
G0 F600 X21.87 Y19.602
G0 X22.667 Y20.307
G0 X46.814 Y27
G0 X47.111 Y27
;TYPE:WALL-INNER
G1 F1500 E16.16098
G1 F600 X46.737 Y23.898 E16.31686
G1 X43.805 Y18.311 E16.63164
G1 X38.645 Y14.751 E16.9444
G1 X32.419 Y13.994 E17.2573
G1 X26.556 Y16.217 E17.57013
G1 X22.4 Y20.912 E17.88295
G1 X20.898 Y26.999 E18.19574
G1 X22.4 Y33.084 E18.50844
G1 X26.556 Y37.779 E18.82126
G1 X32.419 Y40.006 E19.13415
G1 X38.644 Y39.246 E19.44703
G1 X43.805 Y35.686 E19.75982
G1 X46.737 Y30.102 E20.07448
G1 X47.111 Y27 E20.23036
G0 X47.514 Y27
;TYPE:WALL-OUTER
G1 X47.125 Y23.777 E20.39232
G1 X44.113 Y18.037 E20.71572
G1 X38.791 Y14.365 E21.03831
G1 X32.369 Y13.585 E21.36106
G1 X26.322 Y15.878 E21.6837
G1 X22.035 Y20.72 E22.00635
G1 X20.486 Y26.999 E22.329
G1 X22.035 Y33.276 E22.65156
G1 X26.322 Y38.118 E22.9742
G1 X32.369 Y40.415 E23.29692
G1 X38.79 Y39.631 E23.61964
G1 X44.113 Y35.959 E23.94227
G1 X47.125 Y30.223 E24.26549
G1 X47.514 Y27 E24.42745
G0 X47.491 Y26.802
G0 X46.726 Y26.999
;TYPE:SKIN
G1 X46.365 Y29.987 E24.57761
G1 X43.509 Y35.423 E24.88397
G1 X38.502 Y38.875 E25.18738
G1 X32.465 Y39.615 E25.49082
G1 X26.778 Y37.454 E25.79434
G1 X22.747 Y32.9 E26.09776
G1 X21.29 Y26.997 E26.4011
G1 X22.747 Y21.092 E26.70454
G1 X26.778 Y16.538 E27.00796
G1 X32.465 Y14.381 E27.31141
G1 X38.506 Y15.117 E27.61502
G1 X43.509 Y18.569 E27.91827
G1 X46.365 Y24.009 E28.2248
G1 X46.726 Y26.999 E28.37506
G0 X43.713 Y19.389
G1 X42.31 Y17.986 E28.47405
G1 X42.24 Y17.916
G0 X40.486 Y16.727
G1 X44.338 Y20.58 E28.74586
G1 X44.408 Y20.65
G0 X44.964 Y21.771
G1 X38.661 Y15.468 E29.19057
G1 X38.591 Y15.398
G0 X37.869 Y15.242
G1 X45.589 Y22.962 E29.73526
G1 X45.659 Y23.032
G0 X46.176 Y24.114
G1 X37.225 Y15.163 E30.3668
G0 X36.581 Y15.085
G1 X46.254 Y24.758 E31.04929
G0 X46.332 Y25.401
G1 X35.937 Y15.006 E31.78271
G0 X35.292 Y14.928
G1 X46.41 Y26.045 E32.56711
G0 X46.487 Y26.688
G1 X34.648 Y14.849 E33.40241
G0 X34.004 Y14.771
G1 X46.494 Y27.26 E34.28362
G0 X46.432 Y27.765
G1 X33.36 Y14.692 E35.20595
G0 X32.716 Y14.614
G1 X46.371 Y28.269 E36.16938
G0 X46.311 Y28.774
G1 X32.224 Y14.687 E37.1633
G0 X31.813 Y14.843
G1 X46.249 Y29.278 E38.1818
G0 X46.188 Y29.783
G1 X31.403 Y14.998 E39.22496
G0 X30.993 Y15.154
G1 X46.032 Y30.193 E40.28605
G0 X45.837 Y30.563
G1 X30.583 Y15.31 E41.36226
G0 X30.173 Y15.465
G1 X45.642 Y30.935 E42.45372
G0 X45.447 Y31.305
G1 X29.763 Y15.621 E43.56031
G0 X29.353 Y15.776
G1 X45.253 Y31.676 E44.68214
G0 X45.058 Y32.047
G1 X28.943 Y15.932 E45.81914
G0 X28.532 Y16.087
G1 X44.863 Y32.418 E46.97138
G0 X44.668 Y32.789
G1 X28.122 Y16.243 E48.13879
G0 X27.712 Y16.399
G1 X44.473 Y33.16 E49.32137
G0 X44.278 Y33.53
G1 X27.302 Y16.554 E50.51912
G0 X26.893 Y16.71
G1 X44.083 Y33.901 E51.732
G0 X43.889 Y34.272
G1 X26.627 Y17.01 E52.94993
G0 X26.361 Y17.31
G1 X43.694 Y34.643 E54.17287
G0 X43.499 Y35.014
G1 X26.096 Y17.61 E55.40078
G0 X25.83 Y17.91
G1 X43.266 Y35.347 E56.63102
G0 X42.931 Y35.577
G1 X25.564 Y18.21 E57.85635
G0 X25.299 Y18.511
G1 X42.597 Y35.809 E59.07682
G0 X42.262 Y36.039
G1 X25.033 Y18.81 E60.29242
G0 X24.767 Y19.11
G1 X41.927 Y36.27 E61.50315
G0 X41.592 Y36.501
G1 X24.502 Y19.411 E62.70894
G0 X24.236 Y19.711
G1 X41.258 Y36.732 E63.9099
G0 X40.922 Y36.963
G1 X23.97 Y20.01 E65.10599
G0 X23.704 Y20.31
G1 X40.588 Y37.194 E66.29725
G0 X40.253 Y37.424
G1 X23.439 Y20.611 E67.48353
G0 X23.173 Y20.911
G1 X39.918 Y37.656 E68.66498
G0 X39.583 Y37.886
G1 X22.919 Y21.222 E69.84072
G0 X22.808 Y21.676
G1 X39.248 Y38.117 E71.00068
G0 X38.914 Y38.348
G1 X22.696 Y22.13 E72.14495
G0 X22.584 Y22.584
G1 X38.578 Y38.578 E73.27341
G0 X38.151 Y38.716
G1 X22.472 Y23.038 E74.37961
G0 X22.36 Y23.492
G1 X37.646 Y38.778 E75.45812
G0 X37.142 Y38.839
G1 X22.248 Y23.945 E76.50898
G0 X22.136 Y24.399
G1 X36.639 Y38.901 E77.53221
G0 X36.135 Y38.963
G1 X22.024 Y24.853 E78.52778
G0 X21.913 Y25.307
G1 X35.63 Y39.025 E79.49562
G0 X35.127 Y39.087
G1 X21.801 Y25.761 E80.43584
G0 X21.688 Y26.214
G1 X34.623 Y39.148 E81.34844
G0 X34.119 Y39.21
G1 X21.577 Y26.668 E82.23335
G0 X21.547 Y27.204
G1 X33.615 Y39.272 E83.08481
G0 X33.111 Y39.334
G1 X21.732 Y27.955 E83.88766
G0 X21.917 Y28.706
G1 X32.607 Y39.395 E84.64186
G1 X32.677 Y39.465
G0 X31.79 Y39.144
G1 X22.103 Y29.457 E85.32533
G0 X22.288 Y30.208
G1 X30.878 Y38.798 E85.9314
G1 X30.948 Y38.868
G0 X29.966 Y38.451
G1 X22.473 Y30.959 E86.46004
G0 X22.659 Y31.709
G1 X29.054 Y38.105 E86.91128
G1 X29.124 Y38.175
G0 X28.141 Y37.758
G1 X22.844 Y32.46 E87.28504
G1 X22.774 Y32.39
G0 X25.293 Y35.475
G1 X27.23 Y37.412 E87.42171
G1 X27.3 Y37.482
G0 X27.319 Y37.43
G1 F1500 E80.92171
;MESH:NONMESH
G0 F600 X27.319 Y37.43 Z0.5
G0 X22.234 Y20.824
G0 X21.423 Y20.107
G0 X19.972 Y17.92
;TIME_ELAPSED:190.714405
;LAYER:1
M106 S255
;TYPE:SKIRT
G1 F1500 E87.42171
G1 F600 X23.364 Y14.092 E87.59182
G1 X23.841 Y13.567 E87.61542
G1 X24.209 Y13.221 E87.63222
G1 X24.745 Y12.857 E87.65377
G1 X25.748 Y12.46 E87.68964
G1 X30.602 Y10.619 E87.86231
G1 X31.249 Y10.384 E87.8852
G1 X31.736 Y10.25 E87.902
G1 X32.381 Y10.178 E87.92359
G1 X33.508 Y10.297 E87.96128
G1 X38.568 Y10.912 E88.13082
G1 X39.288 Y11.01 E88.15499
G1 X39.782 Y11.118 E88.1718
G1 X40.384 Y11.354 E88.19331
G1 X41.341 Y11.993 E88.23158
G1 X45.545 Y14.894 E88.40147
G1 X46.112 Y15.297 E88.42461
G1 X46.5 Y15.621 E88.44142
G1 X46.923 Y16.11 E88.46292
G1 X47.453 Y17.081 E88.49972
G1 X49.865 Y21.68 E88.67244
G1 X50.163 Y22.267 E88.69434
G1 X50.356 Y22.735 E88.71117
G1 X50.478 Y23.266 E88.7293
G1 X50.563 Y23.865 E88.74942
G1 X50.82 Y25.984 E88.82041
G1 X50.892 Y26.657 E88.84292
G1 X50.898 Y27.376 E88.86684
G1 X50.572 Y30.056 E88.95663
G1 X50.484 Y30.706 E88.97845
G1 X50.377 Y31.2 E88.99526
G1 X50.171 Y31.717 E89.01377
G1 X49.88 Y32.294 E89.03526
G1 X47.418 Y36.984 E89.21144
G1 X47.076 Y37.614 E89.23528
G1 X46.801 Y38.038 E89.25209
G1 X46.368 Y38.517 E89.27357
G1 X45.431 Y39.185 E89.31184
G1 X41.265 Y42.06 E89.4802
G1 X40.644 Y42.476 E89.50506
G1 X40.203 Y42.723 E89.52187
G1 X39.596 Y42.947 E89.54339
G1 X38.507 Y43.095 E89.57994
G1 X33.397 Y43.715 E89.75115
G1 X32.688 Y43.79 E89.77486
G1 X32.182 Y43.804 E89.7917
G1 X31.544 Y43.719 E89.8131
G1 X30.514 Y43.348 E89.84952
G1 X25.671 Y41.51 E90.02181
G1 X25.037 Y41.259 E90.04448
G1 X24.583 Y41.037 E90.06129
G1 X24.053 Y40.662 E90.08289
G1 X23.303 Y39.84 E90.1199
G1 X19.911 Y36.011 E90.29004
G1 X19.438 Y35.461 E90.31416
G1 X19.139 Y35.052 E90.33101
G1 X18.844 Y34.476 E90.35254
G1 X18.563 Y33.402 E90.38946
G1 X17.331 Y28.403 E90.5607
G1 X17.174 Y27.73 E90.58369
G1 X17.098 Y27.23 E90.60051
G1 X17.103 Y26.579 E90.62216
G1 X17.349 Y25.522 E90.65826
G1 X18.596 Y20.463 E90.83156
G1 X18.766 Y19.817 E90.85378
G1 X18.933 Y19.339 E90.87062
G1 X19.237 Y18.775 E90.89193
G1 X19.972 Y17.92 E90.92943
G1 F1500 E84.42943
;MESH:Body_01
G0 X21.87 Y19.602
G0 X22.667 Y20.307
G0 X46.814 Y27
G0 X47.111 Y27
;TYPE:WALL-INNER
G1 F1500 E90.92943
G1 X46.737 Y23.898 E91.03335
G1 X43.805 Y18.311 E91.24321
G1 X38.645 Y14.751 E91.45171
G1 X32.419 Y13.994 E91.66031
G1 X26.556 Y16.217 E91.86886
G1 X22.4 Y20.912 E92.07741
G1 X20.898 Y26.999 E92.28594
G1 X22.4 Y33.084 E92.4944
G1 X26.556 Y37.779 E92.70295
G1 X32.419 Y40.006 E92.91155
G1 X38.644 Y39.246 E93.12013
G1 X43.805 Y35.686 E93.32866
G1 X46.737 Y30.102 E93.53843
G1 X47.111 Y27 E93.64235
G0 X47.514 Y27
;TYPE:WALL-OUTER
G1 F900 X47.125 Y23.777 E93.75032
G1 X44.113 Y18.037 E93.96593
G1 X38.791 Y14.365 E94.18098
G1 X32.369 Y13.585 E94.39615
G1 X26.322 Y15.878 E94.61125
G1 X22.035 Y20.72 E94.82634
G1 X20.486 Y26.999 E95.04144
G1 X22.035 Y33.276 E95.25648
G1 X26.322 Y38.118 E95.47158
G1 X32.369 Y40.415 E95.68672
G1 X38.79 Y39.631 E95.90187
G1 X44.113 Y35.959 E96.11695
G1 X47.125 Y30.223 E96.33244
G1 X47.514 Y27 E96.44041
G0 F1500 X47.491 Y26.802
G0 X46.726 Y26.999
;TYPE:SKIN
G1 F900 X46.365 Y29.987 E96.54052
G1 X43.509 Y35.423 E96.74475
G1 X38.502 Y38.875 E96.94703
G1 X32.465 Y39.615 E97.14932
G1 X26.778 Y37.454 E97.35167
G1 X22.747 Y32.9 E97.55395
G1 X21.29 Y26.997 E97.75618
G1 X22.747 Y21.092 E97.95847
G1 X26.778 Y16.538 E98.16075
G1 X32.465 Y14.381 E98.36305
G1 X38.506 Y15.117 E98.56546
G1 X43.509 Y18.569 E98.76762
G1 X46.365 Y24.009 E98.97198
G1 X46.726 Y26.999 E99.07215
G0 F1500 X43.993 Y34.071
G1 F900 X41.497 Y36.567 E99.18955
G1 X41.427 Y36.637
G0 F1500 X39.676 Y37.822
G1 F900 X44.62 Y32.879 E99.42208
G1 X44.69 Y32.809
G0 F1500 X45.246 Y31.688
G1 F900 X38.225 Y38.708 E99.7523
G0 F1500 X37.581 Y38.786
G1 F900 X45.871 Y30.496 E100.14224
G1 X45.941 Y30.426
G0 F1500 X46.211 Y29.591
G1 F900 X36.936 Y38.865 E100.57848
G0 F1500 X36.292 Y38.945
G1 F900 X46.289 Y28.948 E101.04871
G0 F1500 X46.366 Y28.304
G1 F900 X35.647 Y39.023 E101.5529
G0 F1500 X35.002 Y39.102
G1 F900 X46.444 Y27.661 E102.09107
G0 F1500 X46.522 Y27.017
G1 F900 X34.358 Y39.181 E102.66323
G0 F1500 X33.713 Y39.261
G1 F900 X46.465 Y26.508 E103.26307
G0 F1500 X46.404 Y26.004
G1 F900 X33.069 Y39.339 E103.89031
G0 F1500 X32.448 Y39.394
G1 F900 X46.343 Y25.499 E104.54389
G0 F1500 X46.282 Y24.994
G1 F900 X32.038 Y39.238 E105.21388
G0 F1500 X31.629 Y39.082
G1 F900 X46.221 Y24.49 E105.90024
G0 F1500 X46.137 Y24.008
G1 F900 X31.219 Y38.926 E106.60194
G0 F1500 X30.809 Y38.771
G1 F900 X45.943 Y23.636 E107.31382
G0 F1500 X45.748 Y23.265
