;FLAVOR:Marlin
;TIME:9095
;Filament used: 5.91233m
;Layer height: 0.2
;MINX:24.575
;MINY:7.577
;MINZ:0.3
;MAXX:65.729
;MAXY:92.385
;MAXZ:44.3
;TARGET_MACHINE.NAME:Unknown
;Generated with Cura_SteamEngine 5.7.0
M104 S200
M105
M109 S200
M82 ;absolute extrusion mode
G28 ;Home
G1 Z15.0 F6000 ;Move the platform down 15mm
;Prime the extruder
G92 E0
G1 F200 E3
G92 E0
G92 E0
G92 E0
G1 F1500 E-6.5
;LAYER_COUNT:221
;LAYER:0
M107
G0 F600 X29.054 Y10.076 Z0.3
;TYPE:SKIRT
G1 F1500 E0
G1 F600 X29.286 Y9.557 E0.02836
G1 X29.597 Y9.081 E0.05673
G1 X29.933 Y8.704 E0.08192
G1 X30.423 Y8.305 E0.11345
G1 X30.917 Y8.024 E0.1418
G1 X31.449 Y7.824 E0.17016
G1 X32.082 Y7.694 E0.2024
G1 X34.191 Y7.607 E0.30771
G1 X35.193 Y7.578 E0.35772
G1 X54.382 Y7.577 E1.31506
G1 X55.164 Y7.589 E1.35408
G1 X57.909 Y7.684 E1.49111
G1 X58.505 Y7.756 E1.52106
G1 X59.051 Y7.913 E1.5494
G1 X59.566 Y8.155 E1.57779
G1 X60.036 Y8.474 E1.60613
G1 X60.407 Y8.817 E1.63134
G1 X60.798 Y9.314 E1.66289
G1 X61.07 Y9.814 E1.69129
G1 X61.26 Y10.348 E1.71956
G1 X61.364 Y10.903 E1.74773
G1 X61.392 Y11.512 E1.77815
G1 X61.393 Y49.38 E3.66739
G1 X61.433 Y52.16 E3.8061
G1 X61.548 Y54.877 E3.94177
G1 X61.741 Y57.601 E4.07802
G1 X62.008 Y60.295 E4.21308
G1 X62.356 Y63.018 E4.35003
G1 X62.777 Y65.697 E4.48533
G1 X63.278 Y68.394 E4.62219
G1 X63.848 Y71.04 E4.75722
G1 X64.489 Y73.657 E4.89165
G1 X65.249 Y76.416 E5.03442
G1 X65.583 Y77.563 E5.09402
G1 X65.686 Y78.058 E5.11925
G1 X65.728 Y78.775 E5.15508
G1 X65.729 Y87.851 E5.60788
G1 X65.72 Y88.578 E5.64415
G1 X65.662 Y89.175 E5.67408
G1 X65.516 Y89.725 E5.70247
G1 X65.286 Y90.244 E5.73079
G1 X64.977 Y90.722 E5.75919
G1 X64.596 Y91.145 E5.78759
G1 X64.155 Y91.502 E5.8159
G1 X63.661 Y91.786 E5.84432
G1 X63.131 Y91.987 E5.8726
G1 X62.486 Y92.128 E5.90554
G1 X59.186 Y92.182 E6.0702
G1 X56.36 Y92.302 E6.21132
G1 X54.919 Y92.384 E6.28333
G1 X35.652 Y92.385 E7.24456
G1 X34.8 Y92.369 E7.28708
G1 X32.287 Y92.23 E7.41264
G1 X29.515 Y92.152 E7.55099
G1 X28.13 Y92.131 E7.6201
G1 X27.533 Y92.07 E7.65004
G1 X26.983 Y91.924 E7.67843
G1 X26.52 Y91.722 E7.70363
G1 X25.988 Y91.382 E7.73513
G1 X25.567 Y91.001 E7.76346
G1 X25.209 Y90.557 E7.79191
G1 X24.928 Y90.064 E7.82022
G1 X24.727 Y89.532 E7.8486
G1 X24.613 Y88.976 E7.87691
G1 X24.576 Y88.287 E7.91134
G1 X24.575 Y79.188 E8.36529
G1 X24.589 Y78.44 E8.40261
G1 X24.651 Y77.804 E8.43449
G1 X25.367 Y75.317 E8.56361
G1 X26.066 Y72.634 E8.70193
G1 X26.676 Y69.982 E8.83769
G1 X27.205 Y67.346 E8.97183
G1 X27.668 Y64.644 E9.1086
G1 X28.055 Y61.926 E9.24556
G1 X28.36 Y59.248 E9.38003
G1 X28.591 Y56.539 E9.51568
G1 X28.745 Y53.815 E9.6518
G1 X28.824 Y51.05 E9.7898
G1 X28.834 Y49.674 E9.85845
G1 X28.834 Y11.886 E11.7437
G1 X28.847 Y11.19 E11.77843
G1 X28.907 Y10.626 E11.80673
G1 X29.054 Y10.076 E11.83513
G0 X29.421 Y10.236
G1 X29.623 Y9.773 E11.86033
G1 X29.896 Y9.347 E11.88557
G1 X30.232 Y8.97 E11.91077
G1 X30.624 Y8.651 E11.93598
G1 X31.061 Y8.397 E11.9612
G1 X31.533 Y8.215 E11.98644
G1 X32.099 Y8.094 E12.01531
G1 X34.203 Y8.007 E12.12037
G1 X35.193 Y7.978 E12.16979
G1 X54.376 Y7.977 E13.12683
G1 X55.15 Y7.989 E13.16545
G1 X57.895 Y8.084 E13.30248
G1 X58.397 Y8.141 E13.32769
G1 X58.884 Y8.277 E13.35291
G1 X59.344 Y8.488 E13.37816
G1 X59.764 Y8.768 E13.40334
G1 X60.135 Y9.111 E13.42855
G1 X60.448 Y9.509 E13.45381
G1 X60.694 Y9.951 E13.47905
G1 X60.867 Y10.425 E13.50422
G1 X60.964 Y10.922 E13.52949
G1 X60.992 Y11.512 E13.55895
G1 X60.993 Y49.38 E15.4482
G1 X61.033 Y52.177 E15.58775
G1 X61.148 Y54.894 E15.72343
G1 X61.343 Y57.64 E15.86077
G1 X61.611 Y60.346 E15.99643
G1 X61.959 Y63.069 E16.13339
G1 X62.384 Y65.77 E16.2698
G1 X62.887 Y68.478 E16.40721
G1 X63.459 Y71.135 E16.54281
G1 X64.103 Y73.763 E16.6778
G1 X64.865 Y76.528 E16.82089
G1 X65.191 Y77.644 E16.87889
G1 X65.294 Y78.139 E16.90412
G1 X65.328 Y78.775 E16.93589
G1 X65.329 Y87.846 E17.38845
G1 X65.32 Y88.573 E17.42472
G1 X65.274 Y89.076 E17.44992
G1 X65.149 Y89.566 E17.47515
G1 X64.948 Y90.03 E17.50038
G1 X64.677 Y90.457 E17.52561
G1 X64.342 Y90.836 E17.55084
G1 X63.952 Y91.157 E17.57604
G1 X63.516 Y91.413 E17.60127
G1 X63.045 Y91.596 E17.62648
G1 X62.438 Y91.729 E17.65748
G1 X59.169 Y91.782 E17.82059
G1 X56.343 Y91.903 E17.96171
G1 X54.919 Y91.984 E18.03287
G1 X35.659 Y91.985 E18.99376
G1 X34.822 Y91.97 E19.03552
G1 X32.298 Y91.83 E19.16164
G1 X29.526 Y91.752 E19.29999
G1 X28.136 Y91.731 E19.36934
G1 X27.633 Y91.683 E19.39455
G1 X27.143 Y91.557 E19.41979
G1 X26.68 Y91.355 E19.44499
G1 X26.254 Y91.083 E19.47021
G1 X25.876 Y90.747 E19.49544
G1 X25.555 Y90.356 E19.52068
G1 X25.301 Y89.919 E19.5459
G1 X25.118 Y89.448 E19.57111
G1 X25.012 Y88.954 E19.59632
G1 X24.976 Y88.287 E19.62964
G1 X24.975 Y79.195 E20.08324
G1 X24.987 Y78.479 E20.11897
G1 X25.046 Y77.878 E20.1491
G1 X25.751 Y75.428 E20.27629
G1 X26.453 Y72.735 E20.41513
G1 X27.066 Y70.072 E20.55146
G1 X27.597 Y67.425 E20.68615
G1 X28.062 Y64.712 E20.82348
G1 X28.451 Y61.982 E20.96106
G1 X28.759 Y59.282 E21.09663
G1 X28.989 Y56.573 E21.23227
G1 X29.145 Y53.826 E21.36954
G1 X29.224 Y51.061 E21.50754
G1 X29.234 Y49.677 E21.57659
G1 X29.234 Y11.893 E23.46164
G1 X29.245 Y11.229 E23.49478
G1 X29.294 Y10.726 E23.51999
G1 X29.421 Y10.236 E23.54524
G1 F1500 E17.04524
;MESH:Object 4
G0 F600 X31.769 Y11.686
G0 X32.848 Y11.686
G0 X35.299 Y14.334
G0 X35.294 Y11.644
G0 X54.646 Y11.569
G0 X54.701 Y78.546
G0 X53.449 Y78.549
G0 X50.293 Y78.588
G0 X50.207 Y78.479
;TYPE:WALL-INNER
G1 F1500 E23.54524
G1 F600 X50.416 Y78.351 E23.55747
G1 X50.62 Y78.316 E23.5678
G1 X57.192 Y78.316 E23.89568
G1 X57.192 Y11.872 E27.21058
G1 X54.902 Y11.872 E27.32483
G1 X54.84 Y11.796 E27.32972
G1 X35.155 Y11.796 E28.31181
G1 X35.095 Y11.872 E28.31664
G1 X33.032 Y11.872 E28.41957
G1 X33.032 Y78.444 E31.74086
G1 X32.956 Y78.731 E31.75567
G1 X32.956 Y79.316 E31.78485
G1 X50.02 Y79.316 E32.63618
G1 X50.02 Y78.916 E32.65614
G1 X50.104 Y78.609 E32.67202
G1 X50.207 Y78.479 E32.68029
G0 X50.482 Y78.77
;TYPE:WALL-OUTER
G1 X50.582 Y78.719 E32.68589
G1 X57.668 Y78.716 E33.03941
G1 X57.592 Y78.444 E33.0535
G1 X57.592 Y11.472 E36.39475
G1 X54.974 Y11.468 E36.52536
G1 X54.916 Y11.396 E36.52997
G1 X35.077 Y11.396 E37.51975
G1 X35.02 Y11.468 E37.52433
G1 X32.632 Y11.472 E37.64347
G1 X32.632 Y78.497 E40.98736
G1 X32.556 Y78.611 E40.99419
G1 X32.556 Y79.716 E41.04932
G1 X50.42 Y79.716 E41.94056
G1 X50.42 Y78.916 E41.98047
G1 X50.482 Y78.77 E41.98839
G0 X50.582 Y78.719
G0 X50.67 Y78.719
G0 X50.227 Y78.012
;TYPE:SKIN
G1 X49.969 Y78.181 E42.00377
G1 X49.754 Y78.46 E42.02135
G1 X49.64 Y78.936 E42.04576
G1 X33.336 Y78.936 E42.85917
G1 X33.408 Y78.48 E42.88221
G1 X33.412 Y12.252 E46.18633
G1 X35.173 Y12.246 E46.27419
G1 X35.281 Y12.176 E46.28061
G1 X54.715 Y12.176 E47.25018
G1 X54.825 Y12.247 E47.25671
G1 X56.812 Y12.252 E47.35584
G1 X56.812 Y77.936 E50.63283
G1 X50.51 Y77.941 E50.94724
G1 X50.227 Y78.012 E50.9618
G0 X50.227 Y78.218
G0 X54.301 Y78.146
G0 X54.301 Y12.044
G0 X35.749 Y11.969
G0 X35.691 Y30.825
G0 X33.612 Y78.301
G1 X34.046 Y78.736 E50.99245
G0 X34.612 Y78.736
G1 X33.612 Y77.735 E51.06304
G0 X33.612 Y77.169
G1 X35.178 Y78.736 E51.17357
G0 X35.744 Y78.736
G1 X33.612 Y76.604 E51.32399
G0 X33.612 Y76.038
G1 X36.309 Y78.736 E51.51431
G0 X36.875 Y78.736
G1 X33.612 Y75.472 E51.74457
G0 X33.612 Y74.907
G1 X37.441 Y78.736 E52.01473
G0 X38.006 Y78.736
G1 X33.612 Y74.341 E52.32478
G0 X33.612 Y73.775
G1 X38.572 Y78.736 E52.67477
G0 X39.138 Y78.736
G1 X33.612 Y73.21 E53.06466
G0 X33.612 Y72.644
G1 X39.703 Y78.736 E53.49445
G0 X40.269 Y78.736
G1 X33.612 Y72.078 E53.96417
G0 X33.612 Y71.513
G1 X40.835 Y78.736 E54.4738
G0 X41.4 Y78.736
G1 X33.612 Y70.947 E55.02332
G0 X33.612 Y70.381
G1 X41.966 Y78.736 E55.61277
G0 X42.532 Y78.736
G1 X33.612 Y69.815 E56.24216
G0 X33.612 Y69.25
G1 X43.097 Y78.736 E56.91141
G0 X43.663 Y78.736
G1 X33.612 Y68.684 E57.6206
G0 X33.612 Y68.118
G1 X44.229 Y78.736 E58.36972
G0 X44.795 Y78.736
G1 X33.612 Y67.553 E59.15875
G0 X33.612 Y66.987
G1 X45.36 Y78.736 E59.98767
G0 X45.926 Y78.736
G1 X33.612 Y66.421 E60.85652
G0 X33.612 Y65.856
G1 X46.492 Y78.736 E61.76527
G0 X47.057 Y78.736
G1 X33.612 Y65.29 E62.71393
G0 X33.612 Y64.724
G1 X47.623 Y78.736 E63.70251
G0 X48.189 Y78.736
G1 X33.612 Y64.159 E64.731
G0 X33.612 Y63.593
G1 X48.754 Y78.736 E65.79938
G0 X49.32 Y78.736
G1 X33.612 Y63.027 E66.9077
G0 X33.612 Y62.462
G1 X49.579 Y78.429 E68.03426
G0 X49.798 Y78.082
G1 X33.612 Y61.896 E69.17627
G0 X33.612 Y61.33
G1 X50.128 Y77.846 E70.34156
G0 X50.589 Y77.742
G1 X33.612 Y60.765 E71.53938
G0 X33.612 Y60.199
G1 X51.154 Y77.741 E72.77707
G0 X51.719 Y77.741
G1 X33.612 Y59.633 E74.05465
G0 X33.612 Y59.067
G1 X52.285 Y77.741 E75.37217
G0 X52.85 Y77.74
G1 X33.612 Y58.502 E76.72951
G0 X33.612 Y57.936
G1 X53.415 Y77.739 E78.12672
G0 X53.98 Y77.739
G1 X33.612 Y57.37 E79.56383
G0 X33.612 Y56.805
G1 X54.545 Y77.738 E81.04076
G0 X55.11 Y77.737
G1 X33.612 Y56.239 E82.55756
G0 X33.612 Y55.673
G1 X55.675 Y77.736 E84.11423
G0 X56.24 Y77.736
G1 X33.612 Y55.108 E85.71075
G0 X33.612 Y54.542
G1 X56.612 Y77.543 E87.33356
G0 X56.612 Y76.977
G1 X33.612 Y53.976 E88.95637
G0 X33.612 Y53.411
G1 X56.612 Y76.411 E90.57915
G0 X56.612 Y75.846
G1 X33.612 Y52.845 E92.20196
G0 X33.612 Y52.279
G1 X56.612 Y75.28 E93.82477
G0 X56.612 Y74.714
G1 X33.612 Y51.714 E95.44754
G0 X33.612 Y51.148
G1 X56.612 Y74.149 E97.07035
G0 X56.612 Y73.583
G1 X33.612 Y50.582 E98.69316
G0 X33.612 Y50.016
G1 X56.612 Y73.017 E100.31597
G0 X56.612 Y72.452
G1 X33.612 Y49.451 E101.93878
G0 X33.612 Y48.885
G1 X56.612 Y71.886 E103.56159
G0 X56.612 Y71.32
G1 X33.612 Y48.319 E105.1844
G0 X33.612 Y47.754
G1 X56.612 Y70.755 E106.80721
G0 X56.612 Y70.189
G1 X33.612 Y47.188 E108.43002
G0 X33.612 Y46.622
G1 X56.612 Y69.623 E110.05283
G0 X56.612 Y69.057
G1 X33.612 Y46.057 E111.6756
G0 X33.612 Y45.491
G1 X56.612 Y68.492 E113.29841
G0 X56.612 Y67.926
G1 X33.612 Y44.925 E114.92122
G0 X33.612 Y44.36
G1 X56.612 Y67.36 E116.54399
G0 X56.612 Y66.795
G1 X33.612 Y43.794 E118.1668
G0 X33.612 Y43.228
G1 X56.612 Y66.229 E119.78961
G0 X56.612 Y65.663
G1 X33.612 Y42.663 E121.41239
G0 X33.612 Y42.097
G1 X56.612 Y65.098 E123.0352
G0 X56.612 Y64.532
G1 X33.612 Y41.531 E124.65801
G0 X33.612 Y40.966
G1 X56.612 Y63.966 E126.28078
G0 X56.612 Y63.401
G1 X33.612 Y40.4 E127.90359
G0 X33.612 Y39.834
G1 X56.612 Y62.835 E129.5264
G0 X56.612 Y62.269
G1 X33.612 Y39.268 E131.14921
G0 X33.612 Y38.703
G1 X56.612 Y61.704 E132.77202
G0 X56.612 Y61.138
G1 X33.612 Y38.137 E134.39483
G0 X33.612 Y37.571
G1 X56.612 Y60.572 E136.01764
G0 X56.612 Y60.006
G1 X33.612 Y37.006 E137.64041
G0 X33.612 Y36.44
G1 X56.612 Y59.441 E139.26322
G0 X56.612 Y58.875
G1 X33.612 Y35.874 E140.88603
G0 X33.612 Y35.309
G1 X56.612 Y58.309 E142.5088
G0 X56.612 Y57.744
G1 X33.612 Y34.743 E144.13161
G0 X33.612 Y34.177
G1 X56.612 Y57.178 E145.75442
G0 X56.612 Y56.612
G1 X33.612 Y33.612 E147.3772
G0 X33.612 Y33.046
G1 X56.612 Y56.047 E149.00001
G0 X56.612 Y55.481
G1 X33.612 Y32.48 E150.62282
G0 X33.612 Y31.915
G1 X56.612 Y54.915 E152.24559
G0 X56.612 Y54.35
G1 X33.612 Y31.349 E153.8684
G0 X33.612 Y30.783
G1 X56.612 Y53.784 E155.49121
G0 X56.612 Y53.218
G1 X33.612 Y30.218 E157.11398
G0 X33.612 Y29.652
G1 X56.612 Y52.653 E158.73679
G0 X56.612 Y52.087
G1 X33.612 Y29.086 E160.3596
G0 X33.612 Y28.52
G1 X56.612 Y51.521 E161.98241
G0 X56.612 Y50.956
G1 X33.612 Y27.955 E163.60522
G0 X33.612 Y27.389
G1 X56.612 Y50.39 E165.22803
G0 X56.612 Y49.824
G1 X33.612 Y26.823 E166.85084
G0 X33.612 Y26.258
G1 X56.612 Y49.258 E168.47362
G0 X56.612 Y48.693
G1 X33.612 Y25.692 E170.09642
G0 X33.612 Y25.126
G1 X56.612 Y48.127 E171.71923
G0 X56.612 Y47.561
G1 X33.612 Y24.561 E173.34201
G0 X33.612 Y23.995
G1 X56.612 Y46.996 E174.96482
G0 X56.612 Y46.43
G1 X33.612 Y23.429 E176.58763
G0 X33.612 Y22.864
G1 X56.612 Y45.864 E178.2104
G0 X56.612 Y45.299
G1 X33.612 Y22.298 E179.83321
G0 X33.612 Y21.732
G1 X56.612 Y44.733 E181.45602
G0 X56.612 Y44.167
G1 X33.612 Y21.167 E183.07879
G0 X33.612 Y20.601
G1 X56.612 Y43.602 E184.7016
G0 X56.612 Y43.036
G1 X33.612 Y20.035 E186.32441
G0 X33.612 Y19.469
G1 X56.612 Y42.47 E187.94722
G0 X56.612 Y41.905
G1 X33.612 Y18.904 E189.57003
G0 X33.612 Y18.338
G1 X56.612 Y41.339 E191.19284
G0 X56.612 Y40.773
G1 X33.612 Y17.772 E192.81565
G0 X33.612 Y17.207
G1 X56.612 Y40.208 E194.43846
G0 X56.612 Y39.642
G1 X33.612 Y16.641 E196.06127
G0 X33.612 Y16.075
G1 X56.612 Y39.076 E197.68408
G0 X56.612 Y38.51
G1 X33.612 Y15.51 E199.30685
G0 X33.612 Y14.944
G1 X56.612 Y37.945 E200.92966
G0 X56.612 Y37.379
G1 X33.612 Y14.378 E202.55247
G0 X33.612 Y13.813
G1 X56.612 Y36.813 E204.17525
G0 X56.612 Y36.248
G1 X33.612 Y13.247 E205.79806
G0 X33.612 Y12.681
G1 X56.612 Y35.682 E207.42087
G0 X56.612 Y35.116
G1 X33.948 Y12.452 E209.01993
G0 X34.514 Y12.452
G1 X56.612 Y34.551 E210.5791
G0 X56.612 Y33.985
G1 X35.08 Y12.452 E212.09834
G0 X35.57 Y12.376
G1 X56.612 Y33.419 E213.583
G0 X56.612 Y32.854
G1 X36.135 Y12.376 E215.0278
G0 X36.701 Y12.376
G1 X56.612 Y32.288 E216.43266
G0 X56.612 Y31.722
G1 X37.267 Y12.376 E217.79759
G0 X37.832 Y12.376
G1 X56.612 Y31.157 E219.12266
G0 X56.612 Y30.591
G1 X38.398 Y12.376 E220.40779
G0 X38.964 Y12.376
G1 X56.612 Y30.025 E221.65298
G0 X56.612 Y29.459
G1 X39.529 Y12.376 E222.85828
G0 X40.095 Y12.376
G1 X56.612 Y28.894 E224.02368
G0 X56.612 Y28.328
G1 X40.661 Y12.376 E225.14915
G0 X41.226 Y12.376
G1 X56.612 Y27.762 E226.23471
G0 X56.612 Y27.197
G1 X41.792 Y12.376 E227.28038
G0 X42.358 Y12.376
G1 X56.612 Y26.631 E228.28611
G0 X56.612 Y26.065
G1 X42.924 Y12.376 E229.25191
G0 X43.489 Y12.376
G1 X56.612 Y25.5 E230.17784
G0 X56.612 Y24.934
G1 X44.055 Y12.376 E231.06384
G0 X44.621 Y12.376
G1 X56.612 Y24.368 E231.90991
G0 X56.612 Y23.803
G1 X45.186 Y12.376 E232.71611
G0 X45.752 Y12.376
G1 X56.612 Y23.237 E233.48237
G0 X56.612 Y22.671
G1 X46.318 Y12.376 E234.20871
G0 X46.883 Y12.376
G1 X56.612 Y22.106 E234.89518
G0 X56.612 Y21.54
G1 X47.449 Y12.376 E235.54171
G0 X48.015 Y12.376
G1 X56.612 Y20.974 E236.14831
G0 X56.612 Y20.409
G1 X48.58 Y12.376 E236.71505
G0 X49.146 Y12.376
G1 X56.612 Y19.843 E237.24185
G0 X56.612 Y19.277
G1 X49.712 Y12.376 E237.72872
G0 X50.277 Y12.376
G1 X56.612 Y18.711 E238.17568
G0 X56.612 Y18.146
G1 X50.843 Y12.376 E238.58275
G0 X51.409 Y12.376
G1 X56.612 Y17.58 E238.94989
G0 X56.612 Y17.014
G1 X51.974 Y12.376 E239.27712
G0 X52.54 Y12.376
G1 X56.612 Y16.449 E239.56446
G0 X56.612 Y15.883
G1 X53.106 Y12.376 E239.81186
G0 X53.672 Y12.376
G1 X56.612 Y15.317 E240.01933
G0 X56.612 Y14.752
G1 X54.237 Y12.376 E240.18694
G0 X54.879 Y12.452
G1 X56.612 Y14.186 E240.30924
G0 X56.612 Y13.62
G1 X55.444 Y12.452 E240.39165
G0 X56.01 Y12.452
G1 X56.612 Y13.055 E240.43416
G1 X56.682 Y13.125
G0 X56.593 Y13.125
G1 F1500 E233.93416
;MESH:Object 5
G0 F600 X54.646 Y11.569
G0 X54.618 Y10.512
G0 X58.446 Y10.619
G0 X58.458 Y25.43
G0 X46.618 Y25.43
G0 X44.972 Y26.008
G0 X44.943 Y26.302
;TYPE:WALL-INNER
G1 F1500 E240.43416
G1 F600 X44.508 Y26.258 E240.45598
G1 X44.028 Y26.116 E240.48095
G1 X43.586 Y25.875 E240.50607
G1 X43.054 Y25.393 E240.54188
G1 X42.8 Y25.021 E240.56435
G1 X42.56 Y24.444 E240.59553
G1 X42.472 Y23.784 E240.62875
G1 X42.51 Y23.347 E240.65063
G1 X42.646 Y22.863 E240.67572
G1 X42.928 Y22.334 E240.70562
G1 X43.25 Y21.961 E240.73021
G1 X43.616 Y21.666 E240.75366
G1 X44.253 Y21.369 E240.78872
G1 X44.698 Y21.278 E240.81139
G1 X45.297 Y21.278 E240.84127
G1 X45.747 Y21.369 E240.86417
G1 X46.379 Y21.666 E240.89901
G1 X46.828 Y22.043 E240.92826
G1 X47.132 Y22.429 E240.95278
G1 X47.356 Y22.869 E240.97741
G1 X47.486 Y23.347 E241.00212
G1 X47.524 Y23.784 E241.02401
