;FLAVOR:Marlin
;TIME:10113
;Filament used: 6.96802m
;Layer height: 0.2
;MINX:23.572
;MINY:6.576
;MINZ:0.36
;MAXX:66.728
;MAXY:93.384
;MAXZ:45.51
;TARGET_MACHINE.NAME:Unknown
;Generated with Cura_SteamEngine 5.7.0
M104 S200
M105
M109 S200
M82 ;absolute extrusion mode
G28 ;Home
G1 Z15.0 F6000 ;Move the platform down 15mm
;Prime the extruder
G92 E0
G1 F200 E3
G92 E0
G92 E0
G92 E0
G1 F1500 E-6.5
;LAYER_COUNT:221
;LAYER:-6
M107
G0 F2400 X28.058 Y9.838 Z0.36
;TYPE:SUPPORT-INTERFACE
G1 F1500 E0
G1 F900 X28.353 Y9.163 E0.0882
G1 X28.709 Y8.558 E0.17225
G1 X29.202 Y8.009 E0.2606
G1 X29.633 Y7.63 E0.32933
G1 X30.122 Y7.303 E0.39976
G1 X30.796 Y6.968 E0.48988
G1 X31.58 Y6.752 E0.58725
G1 X32.447 Y6.672 E0.69151
G1 X33.928 Y6.671 E0.86884
G1 X34.975 Y6.576 E0.99472
G1 X54.96 Y6.576 E3.38765
G1 X55.479 Y6.607 E3.4499
G1 X55.721 Y6.632 E3.47903
G1 X56.329 Y6.672 E3.55199
G1 X57.835 Y6.676 E3.73231
G1 X58.619 Y6.74 E3.8265
G1 X59.359 Y6.953 E3.9187
G1 X60.021 Y7.244 E4.00529
G1 X60.62 Y7.652 E4.09207
G1 X61.161 Y8.138 E4.17914
G1 X61.695 Y8.826 E4.28343
G1 X62.092 Y9.628 E4.39058
G1 X62.312 Y10.425 E4.48957
G1 X62.392 Y11.283 E4.59275
G1 X62.392 Y70.312 E11.66068
G1 X62.432 Y70.951 E11.73734
G1 X62.554 Y71.618 E11.81853
G1 X62.771 Y72.291 E11.9032
G1 X63.082 Y72.948 E11.99023
G1 X63.422 Y73.48 E12.06583
G1 X63.861 Y74.009 E12.14814
G1 X64.556 Y74.625 E12.25934
G1 X64.951 Y74.919 E12.3183
G1 X65.498 Y75.406 E12.40599
G1 X66.031 Y76.097 E12.51048
G1 X66.428 Y76.9 E12.61774
G1 X66.648 Y77.693 E12.71628
G1 X66.728 Y78.555 E12.81993
G1 X66.728 Y88.464 E14.0064
G1 X66.69 Y89.136 E14.08699
G1 X66.502 Y89.975 E14.18994
G1 X66.207 Y90.648 E14.27793
G1 X65.913 Y91.14 E14.34656
G1 X65.475 Y91.696 E14.4313
G1 X64.927 Y92.182 E14.51901
G1 X64.439 Y92.508 E14.58928
G1 X63.764 Y92.84 E14.67935
G1 X62.979 Y93.061 E14.77699
G1 X62.113 Y93.14 E14.88112
G1 X57.121 Y93.14 E15.47884
G1 X56.488 Y93.182 E15.5548
G1 X55.648 Y93.323 E15.65679
G1 X54.981 Y93.384 E15.73698
G1 X35.072 Y93.384 E18.12082
G1 X34.421 Y93.346 E18.1989
G1 X33.831 Y93.234 E18.2708
G1 X32.866 Y93.141 E18.38689
G1 X28.248 Y93.14 E18.93983
G1 X27.433 Y93.093 E19.03758
G1 X26.461 Y92.814 E19.15866
G1 X25.811 Y92.476 E19.24638
G1 X25.324 Y92.14 E19.31723
G1 X24.91 Y91.77 E19.38371
G1 X24.527 Y91.332 E19.45338
G1 X24.192 Y90.828 E19.52584
G1 X23.872 Y90.177 E19.61269
G1 X23.655 Y89.391 E19.71033
G1 X23.572 Y88.524 E19.81461
G1 X23.572 Y78.616 E21.00096
G1 X23.61 Y77.944 E21.08155
G1 X23.798 Y77.11 E21.18392
G1 X24.093 Y76.435 E21.27212
G1 X24.453 Y75.83 E21.35642
G1 X25.038 Y75.171 E21.46193
G1 X25.592 Y74.746 E21.54554
G1 X26.073 Y74.355 E21.61976
G1 X26.566 Y73.844 E21.70478
G1 X26.983 Y73.274 E21.78934
G1 X27.304 Y72.688 E21.86934
G1 X27.558 Y72.066 E21.94979
G1 X27.733 Y71.399 E22.03236
G1 X27.829 Y70.66 E22.12159
G1 X27.832 Y11.348 E29.2234
G1 X27.87 Y10.672 E29.30447
G1 X28.058 Y9.838 E29.40683
G0 F2400 X28.371 Y10.269
G1 F900 X61.992 Y43.89 E35.09997
G0 F2400 X61.992 Y46.153
G1 F900 X28.232 Y12.393 E40.81666
G0 F2400 X28.232 Y14.655
G1 F900 X61.992 Y48.416 E46.53342
G0 F2400 X61.992 Y50.678
G1 F900 X28.232 Y16.918 E52.2501
G0 F2400 X28.232 Y19.181
G1 F900 X61.992 Y52.941 E57.96678
G0 F2400 X61.992 Y55.204
G1 F900 X28.232 Y21.444 E63.68346
G0 F2400 X28.232 Y23.706
G1 F900 X61.992 Y57.467 E69.40023
G0 F2400 X61.992 Y59.729
G1 F900 X28.232 Y25.969 E75.11691
G0 F2400 X28.232 Y28.232
G1 F900 X61.992 Y61.992 E80.83359
G0 F2400 X61.992 Y64.255
G1 F900 X28.232 Y30.495 E86.55027
G0 F2400 X28.232 Y32.757
G1 F900 X61.992 Y66.518 E92.26704
G0 F2400 X61.992 Y68.78
G1 F900 X28.232 Y35.02 E97.98372
G0 F2400 X28.232 Y37.283
G1 F900 X62.053 Y71.104 E103.71073
G0 F2400 X66.177 Y77.491
G1 F900 X28.232 Y39.546 E110.13607
G0 F2400 X28.232 Y41.808
G1 F900 X66.328 Y79.904 E116.58698
G0 F2400 X66.328 Y82.167
G1 F900 X28.232 Y44.071 E123.03788
G0 F2400 X28.232 Y46.334
G1 F900 X66.328 Y84.43 E129.48879
G0 F2400 X66.328 Y86.693
G1 F900 X28.232 Y48.597 E135.9397
G0 F2400 X28.232 Y50.859
G1 F900 X66.301 Y88.929 E142.38612
G0 F2400 X65.747 Y90.638
G1 F900 X28.232 Y53.122 E148.73873
G0 F2400 X28.232 Y55.385
G1 F900 X64.697 Y91.85 E154.91346
G0 F2400 X63.174 Y92.59
G1 F900 X28.232 Y57.648 E160.83029
G0 F2400 X28.232 Y59.91
G1 F900 X61.061 Y92.74 E166.38941
G0 F2400 X58.799 Y92.741
G1 F900 X28.232 Y62.173 E171.56549
G0 F2400 X28.232 Y64.436
G1 F900 X56.572 Y92.776 E176.36439
G0 F2400 X54.517 Y92.984
G1 F900 X28.232 Y66.699 E180.81531
G0 F2400 X28.232 Y68.961
G1 F900 X52.254 Y92.984 E184.88311
G0 F2400 X49.992 Y92.984
G1 F900 X28.167 Y71.159 E188.5788
G0 F2400 X27.643 Y72.898
G1 F900 X47.729 Y92.984 E191.98002
G0 F2400 X45.466 Y92.984
G1 F900 X26.73 Y74.248 E195.15264
G0 F2400 X25.523 Y75.303
G1 F900 X43.204 Y92.984 E198.14662
G0 F2400 X40.941 Y92.984
G1 F900 X24.496 Y76.539 E200.9313
G0 F2400 X23.991 Y78.297
G1 F900 X38.678 Y92.984 E203.41829
G0 F2400 X36.415 Y92.984
G1 F900 X23.972 Y80.54 E205.52539
G0 F2400 X23.972 Y82.803
G1 F900 X34.034 Y92.865 E207.22922
G0 F2400 X31.648 Y92.742
G1 F900 X23.972 Y85.066 E208.52902
G0 F2400 X23.972 Y87.328
G1 F900 X29.384 Y92.741 E209.44553
G0 F2400 X26.907 Y92.526
G1 F900 X24.184 Y89.803 E209.90663
G0 F2400 X61.992 Y41.627
G1 F900 X29.092 Y8.728 E215.4776
G0 F2400 X30.296 Y7.669
G1 F900 X61.992 Y39.365 E220.84477
G0 F2400 X61.992 Y37.102
G1 F900 X32.005 Y7.115 E225.92256
G0 F2400 X34.201 Y7.048
G1 F900 X61.992 Y34.839 E230.62849
G0 F2400 X61.992 Y32.576
G1 F900 X36.392 Y6.976 E234.96342
G0 F2400 X38.655 Y6.976
G1 F900 X61.992 Y30.314 E238.91522
G0 F2400 X61.992 Y28.051
G1 F900 X40.917 Y6.976 E242.48392
G0 F2400 X43.18 Y6.976
G1 F900 X61.992 Y25.788 E245.66941
G0 F2400 X61.992 Y23.525
G1 F900 X45.443 Y6.976 E248.4717
G0 F2400 X47.706 Y6.976
G1 F900 X61.992 Y21.263 E250.89087
G0 F2400 X61.992 Y19
G1 F900 X49.968 Y6.976 E252.92693
G0 F2400 X52.231 Y6.976
G1 F900 X61.992 Y16.737 E254.57979
G0 F2400 X61.992 Y14.474
G1 F900 X54.494 Y6.976 E255.84945
G0 F2400 X56.854 Y7.073
G1 F900 X61.992 Y12.212 E256.71957
G0 F2400 X61.622 Y9.578
G1 F900 X59.491 Y7.448 E257.08033
G0 F600 X59.491 Y7.448 Z0.66
G0 F2400 X28.612 Y9.571
;TIME_ELAPSED:151.388908
;LAYER:-5
;TYPE:SUPPORT
G1 F900 X30.743 Y7.441 E257.38097
G1 X30.343 Y7.639 E257.4255
G1 X29.885 Y7.945 E257.48047
G1 X29.496 Y8.283 E257.53188
G1 X29.042 Y8.789 E257.59972
G1 X28.704 Y9.359 E257.66584
G1 X28.491 Y9.85 E257.71924
G1 X28.345 Y10.351 E257.77131
G1 X28.234 Y11.064 E257.84331
G1 X28.234 Y11.364 E257.87325
G1 X32.526 Y7.072 E258.47889
G1 X33.942 Y7.07 E258.62018
G1 X28.234 Y12.778 E259.42564
G1 X28.234 Y14.192 E259.56673
G1 X35.449 Y6.977 E260.58485
G1 X36.864 Y6.977 E260.72604
G1 X28.234 Y15.607 E261.94382
G1 X28.234 Y17.021 E262.08491
G1 X38.278 Y6.977 E263.50223
G1 X39.691 Y6.978 E263.64322
G1 X28.234 Y18.435 E265.25993
G1 X28.234 Y19.849 E265.40102
G1 X41.106 Y6.978 E267.21732
G1 X42.519 Y6.978 E267.35831
G1 X28.234 Y21.263 E269.37408
G1 X28.234 Y22.678 E269.51527
G1 X43.933 Y6.978 E271.73064
G1 X45.347 Y6.979 E271.87173
G1 X28.234 Y24.092 E274.28656
G1 X28.234 Y25.506 E274.42765
G1 X46.761 Y6.979 E277.04201
G1 X48.175 Y6.979 E277.1831
G1 X28.234 Y26.92 E279.99699
G1 X28.234 Y28.334 E280.13808
G1 X49.589 Y6.98 E283.15143
G1 X51.003 Y6.98 E283.29252
G1 X28.234 Y29.749 E286.50547
G1 X28.234 Y31.163 E286.64656
G1 X52.416 Y6.981 E290.0589
G1 X53.831 Y6.981 E290.20009
G1 X28.234 Y32.577 E293.81203
G1 X28.234 Y33.991 E293.95312
G1 X55.233 Y6.993 E297.7629
G1 X56.55 Y7.09 E297.89467
G1 X28.234 Y35.406 E301.89036
G1 X28.234 Y36.82 E302.03145
G1 X57.982 Y7.072 E306.22922
G1 X58.714 Y7.183 E306.30309
G1 X59.157 Y7.311 E306.3491
G1 X28.234 Y38.234 E310.71267
G1 X28.234 Y39.648 E310.85376
G1 X60.104 Y7.778 E315.35096
G1 X60.275 Y7.88 E315.37083
G1 X60.877 Y8.42 E315.45152
G1 X28.234 Y41.062 E320.05773
G1 X28.234 Y42.477 E320.19892
G1 X61.46 Y9.251 E324.88747
G1 X61.712 Y9.758 E324.94396
G1 X61.857 Y10.268 E324.99686
G1 X28.234 Y43.891 E329.74143
G1 X28.234 Y45.305 E329.88252
G1 X61.993 Y11.546 E334.64628
G1 X61.993 Y12.96 E334.78737
G1 X28.234 Y46.719 E339.55113
G1 X28.234 Y48.133 E339.69222
G1 X61.993 Y14.374 E344.45598
G1 X61.993 Y15.788 E344.59707
G1 X28.234 Y49.548 E349.3609
G1 X28.234 Y50.962 E349.50199
G1 X61.993 Y17.202 E354.26582
G1 X61.993 Y18.617 E354.40701
G1 X28.234 Y52.376 E359.17077
G1 X28.234 Y53.79 E359.31186
G1 X61.993 Y20.031 E364.07562
G1 X61.993 Y21.445 E364.21671
G1 X28.234 Y55.205 E368.98054
G1 X28.234 Y56.619 E369.12163
G1 X61.993 Y22.859 E373.88546
G1 X61.993 Y24.274 E374.02665
G1 X28.234 Y58.033 E378.79041
G1 X28.234 Y59.447 E378.9315
G1 X61.993 Y25.688 E383.69525
G1 X61.993 Y27.102 E383.83634
G1 X28.234 Y60.861 E388.6001
G1 X28.234 Y62.276 E388.74129
G1 X61.993 Y28.516 E393.50512
G1 X61.993 Y29.93 E393.64621
G1 X28.234 Y63.69 E398.41004
G1 X28.234 Y65.104 E398.55113
G1 X61.993 Y31.345 E403.31489
G1 X61.993 Y32.759 E403.45598
G1 X28.234 Y66.518 E408.21974
G1 X28.234 Y67.932 E408.36083
G1 X61.993 Y34.173 E413.12459
G1 X61.993 Y35.587 E413.26568
G1 X28.234 Y69.347 E418.02951
G1 X28.234 Y70.761 E418.1706
G1 X61.993 Y37.001 E422.93443
G1 X61.993 Y38.416 E423.07562
G1 X27.755 Y72.654 E427.90697
G1 X27.684 Y72.831 E427.926
G1 X27.326 Y73.485 E428.00039
G1 X26.893 Y74.076 E428.0735
G1 X26.36 Y74.635 E428.15056
G1 X25.838 Y75.062 E428.21786
G1 X25.319 Y75.461 E428.28318
G1 X24.784 Y76.059 E428.36324
G1 X24.445 Y76.629 E428.42941
G1 X24.233 Y77.12 E428.48278
G1 X24.086 Y77.621 E428.53487
G1 X24.065 Y77.758 E428.5487
G1 X61.993 Y39.83 E433.90075
G1 X61.993 Y41.244 E434.04184
G1 X23.975 Y79.262 E439.40659
G1 X23.975 Y80.677 E439.54778
G1 X61.993 Y42.658 E444.91261
G1 X61.993 Y44.073 E445.05379
G1 X23.975 Y82.091 E450.41854
G1 X23.975 Y83.505 E450.55963
G1 X61.993 Y45.487 E455.92438
G1 X61.993 Y46.901 E456.06547
G1 X23.975 Y84.919 E461.43022
G1 X23.975 Y86.333 E461.57131
G1 X61.993 Y48.315 E466.93606
G1 X61.993 Y49.729 E467.07715
G1 X23.975 Y87.748 E472.44198
G1 X23.975 Y88.501 E472.51711
G1 X24.029 Y89.108 E472.57792
G1 X61.993 Y51.144 E477.93505
G1 X61.993 Y52.558 E478.07614
G1 X24.336 Y90.216 E483.39002
G1 X24.542 Y90.632 E483.43634
G1 X24.862 Y91.104 E483.49323
G1 X61.993 Y53.972 E488.73289
G1 X61.993 Y55.386 E488.87398
G1 X25.562 Y91.818 E494.01486
G1 X25.691 Y91.933 E494.0321
G1 X26.425 Y92.369 E494.11729
G1 X61.993 Y56.8 E499.13639
G1 X61.993 Y58.215 E499.27758
G1 X27.533 Y92.675 E504.14025
G1 X27.964 Y92.742 E504.18378
G1 X28.88 Y92.742 E504.27518
G1 X61.993 Y59.629 E508.94778
G1 X61.993 Y61.043 E509.08887
G1 X30.295 Y92.742 E513.56187
G1 X31.709 Y92.742 E513.70296
G1 X61.993 Y62.457 E517.97643
G1 X61.993 Y63.872 E518.11762
G1 X33.101 Y92.764 E522.19459
G1 X33.858 Y92.835 E522.27045
G1 X34.353 Y92.927 E522.32069
G1 X61.993 Y65.286 E526.22107
G1 X61.993 Y66.7 E526.36215
G1 X35.712 Y92.982 E530.07076
G1 X37.126 Y92.982 E530.21185
G1 X61.993 Y68.114 E533.72092
G1 X61.993 Y69.528 E533.86201
G1 X38.54 Y92.982 E537.17155
G1 X39.954 Y92.982 E537.31264
G1 X62.016 Y70.92 E540.42583
G1 X62.172 Y71.738 E540.50892
G1 X62.279 Y72.071 E540.54382
G1 X41.368 Y92.982 E543.49459
G1 X42.782 Y92.982 E543.63568
G1 X62.691 Y73.074 E546.44498
G1 X63.1 Y73.721 E546.52136
G1 X63.263 Y73.915 E546.54664
G1 X44.196 Y92.983 E549.23727
G1 X45.61 Y92.983 E549.37836
G1 X63.96 Y74.633 E551.96774
G1 X64.316 Y74.948 E552.01517
G1 X64.741 Y75.266 E552.06814
G1 X47.023 Y92.984 E554.56834
G1 X48.438 Y92.984 E554.70953
G1 X65.443 Y75.979 E557.10912
G1 X65.759 Y76.447 E557.16546
G1 X65.967 Y76.868 E557.21232
G1 X49.852 Y92.984 E559.48639
G1 X51.265 Y92.985 E559.62738
G1 X66.275 Y77.975 E561.74545
G1 X66.329 Y78.574 E561.80546
G1 X66.329 Y79.335 E561.8814
G1 X52.679 Y92.985 E563.80756
G1 X54.094 Y92.985 E563.94875
G1 X66.329 Y80.749 E565.67531
G1 X66.329 Y82.164 E565.8165
G1 X55.562 Y92.931 E567.33584
G1 X56.457 Y92.785 E567.42632
G1 X57.165 Y92.742 E567.4971
G1 X66.329 Y83.578 E568.79024
G1 X66.329 Y84.992 E568.93132
G1 X58.579 Y92.742 E570.02493
G1 X59.993 Y92.742 E570.16602
G1 X66.329 Y86.406 E571.0601
G1 X66.329 Y87.821 E571.20129
G1 X61.407 Y92.742 E571.89577
G1 X62.089 Y92.742 E571.96382
G1 X62.892 Y92.671 E572.04425
G1 X66.239 Y89.325 E572.51648
G1 X66.218 Y89.463 E572.53041
G1 X66.072 Y89.964 E572.58248
G1 X65.859 Y90.455 E572.63588
G1 X65.589 Y90.911 E572.68876
G1 X65.17 Y91.441 E572.75617
G1 X64.678 Y91.869 E572.82124
G1 X64.22 Y92.175 E572.8762
G1 X63.642 Y92.461 E572.94055
G1 X62.905 Y92.67 E573.01699
G0 F600 X62.905 Y92.67 Z0.86
G0 F2400 X26.335 Y92.521
;TIME_ELAPSED:363.498178
;LAYER:-4
;TYPE:SUPPORT-INTERFACE
G1 F1200 X24.194 Y90.379 E573.11772
G1 X24.365 Y90.726 E573.13058
G1 X24.682 Y91.202 E573.1496
G1 X25.046 Y91.624 E573.16814
G1 X25.57 Y92.093 E573.19153
G1 X26.165 Y92.446 E573.21454
G1 X26.681 Y92.672 E573.23328
G1 X27.205 Y92.825 E573.25143
G1 X23.905 Y89.525 E573.40665
G1 X23.806 Y88.86 E573.42902
G1 X27.888 Y92.942 E573.62102
G1 X28.454 Y92.942 E573.63985
G1 X23.775 Y88.263 E573.85993
G1 X23.775 Y87.698 E573.87872
G1 X29.02 Y92.942 E574.12541
G1 X29.585 Y92.942 E574.1442
G1 X23.775 Y87.132 E574.41749
G1 X23.775 Y86.566 E574.43631
G1 X30.151 Y92.942 E574.73622
G1 X30.717 Y92.942 E574.75504
G1 X23.775 Y86 E575.08157
G1 X23.775 Y85.435 E575.10037
G1 X31.282 Y92.942 E575.45347
G1 X31.848 Y92.942 E575.4723
G1 X23.775 Y84.869 E575.85203
G1 X23.775 Y84.303 E575.87085
G1 X32.414 Y92.942 E576.2772
G1 X32.991 Y92.954 E576.2964
G1 X23.775 Y83.738 E576.72989
G1 X23.775 Y83.172 E576.74872
G1 X33.617 Y93.014 E577.21165
G1 X34.286 Y93.117 E577.23417
G1 X23.775 Y82.606 E577.72857
G1 X23.775 Y82.041 E577.74736
G1 X34.911 Y93.176 E578.27114
G1 X35.481 Y93.181 E578.2901
G1 X23.775 Y81.475 E578.84072
G1 X23.775 Y80.909 E578.85954
G1 X36.047 Y93.181 E579.43678
G1 X36.613 Y93.181 E579.45561
G1 X23.775 Y80.344 E580.05944
G1 X23.775 Y79.778 E580.07827
G1 X37.178 Y93.181 E580.7087
G1 X37.744 Y93.181 E580.72753
G1 X23.775 Y79.212 E581.38459
G1 X23.775 Y78.647 E581.40338
G1 X38.31 Y93.182 E582.08706
G1 X38.876 Y93.182 E582.10589
G1 X23.807 Y78.113 E582.81469
G1 X23.884 Y77.624 E582.83115
G1 X39.442 Y93.182 E583.56295
G1 X40.007 Y93.182 E583.58174
G1 X24.006 Y77.18 E584.33441
G1 X24.164 Y76.773 E584.34893
G1 X40.573 Y93.182 E585.12076
G1 X41.139 Y93.182 E585.13958
G1 X24.351 Y76.394 E585.92924
G1 X24.562 Y76.039 E585.94297
G1 X41.705 Y93.183 E586.74935
G1 X42.271 Y93.183 E586.76817
G1 X24.813 Y75.725 E587.58935
G1 X25.08 Y75.426 E587.60268
G1 X42.837 Y93.183 E588.43791
G1 X43.402 Y93.183 E588.45671
G1 X25.381 Y75.161 E589.30438
G1 X25.701 Y74.916 E589.31779
G1 X43.968 Y93.183 E590.17701
G1 X44.534 Y93.183 E590.19583
G1 X26.012 Y74.661 E591.06705
G1 X26.312 Y74.395 E591.08039
G1 X45.1 Y93.183 E591.96412
G1 X45.666 Y93.183 E591.98294
G1 X26.588 Y74.105 E592.88031
G1 X26.847 Y73.799 E592.89365
G1 X46.231 Y93.183 E593.80541
G1 X46.797 Y93.183 E593.82424
G1 X27.087 Y73.473 E594.75134
G1 X27.298 Y73.118 E594.76507
G1 X47.363 Y93.183 E595.70887
G1 X47.928 Y93.183 E595.72766
G1 X27.498 Y72.753 E596.68862
G1 X27.66 Y72.349 E596.7031
G1 X48.495 Y93.184 E597.68311
G1 X49.06 Y93.184 E597.70191
G1 X27.801 Y71.925 E598.70186
G1 X27.918 Y71.476 E598.7173
G1 X49.626 Y93.184 E599.73838
G1 X50.192 Y93.184 E599.7572
G1 X27.991 Y70.983 E600.80147
G1 X28.034 Y70.46 E600.81892
G1 X50.758 Y93.184 E601.88779
G1 X51.323 Y93.184 E601.90658
G1 X28.034 Y69.895 E603.00202
G1 X28.034 Y69.329 E603.02085
G1 X51.89 Y93.185 E604.14296
G1 X52.455 Y93.185 E604.16175
G1 X28.034 Y68.763 E605.31047
G1 X28.034 Y68.198 E605.32926
G1 X53.021 Y93.185 E606.50457
G1 X53.587 Y93.185 E606.5234
G1 X28.034 Y67.632 E607.72533
G1 X28.034 Y67.066 E607.74416
