;FLAVOR:Marlin
;TIME:7621
;Filament used: 5.04413m
;Layer height: 0.2
;MINX:13.998
;MINY:7.561
;MINZ:0.36
;MAXX:75.987
;MAXY:89.451
;MAXZ:17.11
;TARGET_MACHINE.NAME:Unknown
;Generated with Cura_SteamEngine 5.7.0
M104 S200
M105
M109 S200
M82 ;absolute extrusion mode
G28 ;Home
G1 Z15.0 F6000 ;Move the platform down 15mm
;Prime the extruder
G92 E0
G1 F200 E3
G92 E0
G92 E0
G92 E0
G1 F1500 E-6.5
;LAYER_COUNT:79
;LAYER:-6
M107
G0 F2400 X15.827 Y12.557 Z0.36
;TYPE:SUPPORT-INTERFACE
G1 F1500 E0
G1 F900 X18.122 Y9.97 E0.41408
G1 X18.809 Y9.41 E0.52021
G1 X19.544 Y9.009 E0.62046
G1 X22.601 Y7.849 E1.01196
G1 X23.437 Y7.617 E1.11584
G1 X24.199 Y7.561 E1.20733
G1 X24.731 Y7.584 E1.27109
G1 X27.677 Y7.936 E1.62634
G1 X28.257 Y8.039 E1.69687
G1 X28.809 Y8.198 E1.76565
G1 X29.36 Y8.435 E1.83747
G1 X29.849 Y8.719 E1.90518
G1 X31.808 Y10.07 E2.19012
G1 X32.39 Y10.42 E2.27143
G1 X33.039 Y10.703 E2.35621
G1 X33.679 Y10.896 E2.43625
G1 X34.382 Y11.008 E2.52149
G1 X35.038 Y11.028 E2.60007
G1 X35.708 Y10.967 E2.68063
G1 X36.312 Y10.842 E2.75448
G1 X37.028 Y10.585 E2.84557
G1 X37.613 Y10.291 E2.92396
G1 X38.941 Y9.34 E3.11954
G1 X39.544 Y9.013 E3.20167
G1 X42.602 Y7.849 E3.59345
G1 X43.437 Y7.617 E3.69722
G1 X44.199 Y7.561 E3.78871
G1 X44.731 Y7.584 E3.85247
G1 X47.677 Y7.936 E4.20772
G1 X48.256 Y8.039 E4.27813
G1 X48.941 Y8.239 E4.36358
G1 X49.704 Y8.618 E4.46559
G1 X52.604 Y10.616 E4.88726
G1 X53.165 Y11.152 E4.98016
G1 X53.544 Y11.62 E5.05227
G1 X53.896 Y12.194 E5.13289
G1 X55.245 Y14.761 E5.48011
G1 X55.531 Y15.383 E5.56208
G1 X55.738 Y16.127 E5.65455
G1 X55.953 Y17.854 E5.86293
G1 X55.987 Y18.388 E5.927
G1 X55.953 Y19.15 E6.01833
G1 X55.777 Y20.601 E6.19334
G1 X55.593 Y21.446 E6.29689
G1 X55.468 Y22.132 E6.38038
G1 X55.432 Y22.773 E6.45725
G1 X55.467 Y23.423 E6.5352
G1 X55.61 Y24.128 E6.62133
G1 X55.832 Y24.798 E6.70584
G1 X56.108 Y25.372 E6.7821
G1 X56.467 Y25.933 E6.86185
G1 X56.916 Y26.477 E6.94631
G1 X57.442 Y26.96 E7.03181
G1 X57.986 Y27.343 E7.11148
G1 X58.586 Y27.665 E7.19301
G1 X59.23 Y27.91 E7.27551
G1 X59.921 Y28.081 E7.36074
G1 X60.558 Y28.144 E7.43739
G1 X61.276 Y28.135 E7.52337
G1 X61.959 Y28.035 E7.60602
G1 X63.431 Y27.62 E7.78914
G1 X64.2 Y27.561 E7.88149
G1 X64.731 Y27.584 E7.94513
G1 X67.677 Y27.936 E8.30038
G1 X68.256 Y28.039 E8.3708
G1 X68.941 Y28.239 E8.45624
G1 X69.704 Y28.618 E8.55825
G1 X72.604 Y30.616 E8.97992
G1 X73.165 Y31.152 E9.07282
G1 X73.544 Y31.62 E9.14493
G1 X73.896 Y32.194 E9.22555
G1 X75.245 Y34.761 E9.57277
G1 X75.531 Y35.383 E9.65475
G1 X75.738 Y36.127 E9.74721
G1 X75.953 Y37.854 E9.9556
G1 X75.987 Y38.388 E10.01966
G1 X75.953 Y39.15 E10.11099
G1 X75.746 Y40.849 E10.31593
G1 X75.553 Y41.544 E10.4023
G1 X75.297 Y42.149 E10.48096
G1 X73.903 Y44.811 E10.84075
G1 X73.607 Y45.3 E10.9092
G1 X73.512 Y45.44 E10.92945
G1 X73.178 Y45.987 E11.00619
G1 X72.884 Y46.65 E11.09303
G1 X72.703 Y47.261 E11.16934
G1 X72.589 Y47.928 E11.25036
G1 X72.56 Y48.596 E11.33042
G1 X72.618 Y49.309 E11.41607
G1 X72.752 Y49.94 E11.49331
G1 X72.992 Y50.629 E11.58067
G1 X73.459 Y51.494 E11.69837
G1 X73.897 Y52.188 E11.79664
G1 X75.245 Y54.761 E12.14444
G1 X75.531 Y55.383 E12.22641
G1 X75.738 Y56.127 E12.31888
G1 X75.953 Y57.854 E12.52726
G1 X75.987 Y58.388 E12.59133
G1 X75.953 Y59.15 E12.68266
G1 X75.746 Y60.849 E12.88759
G1 X75.553 Y61.544 E12.97396
G1 X75.297 Y62.149 E13.05262
G1 X73.903 Y64.811 E13.41241
G1 X73.607 Y65.3 E13.48086
G1 X73.512 Y65.44 E13.50112
G1 X73.163 Y66.013 E13.58145
G1 X72.893 Y66.627 E13.66176
G1 X72.712 Y67.226 E13.73669
G1 X72.589 Y67.928 E13.82202
G1 X72.56 Y68.596 E13.90208
G1 X72.62 Y69.321 E13.98919
G1 X72.752 Y69.94 E14.06497
G1 X72.994 Y70.633 E14.15286
G1 X73.459 Y71.494 E14.27003
G1 X73.897 Y72.188 E14.36829
G1 X75.245 Y74.761 E14.71609
G1 X75.531 Y75.383 E14.79806
G1 X75.738 Y76.127 E14.89053
G1 X75.953 Y77.854 E15.09891
G1 X75.987 Y78.388 E15.16298
G1 X75.953 Y79.15 E15.25431
G1 X75.746 Y80.849 E15.45925
G1 X75.553 Y81.544 E15.54561
G1 X75.297 Y82.149 E15.62427
G1 X73.902 Y84.812 E15.98423
G1 X73.646 Y85.242 E16.04415
G1 X73.216 Y85.823 E16.1307
G1 X72.581 Y86.411 E16.23432
G1 X69.958 Y88.224 E16.61611
G1 X69.509 Y88.495 E16.67891
G1 X68.974 Y88.752 E16.74998
G1 X68.425 Y88.932 E16.81915
G1 X67.847 Y89.048 E16.88974
G1 X64.862 Y89.417 E17.24988
G1 X64.339 Y89.451 E17.31263
G1 X63.632 Y89.421 E17.39736
G1 X62.791 Y89.235 E17.50049
G1 X59.813 Y88.106 E17.88183
G1 X59.315 Y87.883 E17.94717
G1 X58.815 Y87.594 E18.01632
G1 X58.268 Y87.174 E18.09889
G1 X57.728 Y86.792 E18.17809
G1 X57.104 Y86.458 E18.26284
G1 X56.483 Y86.228 E18.34213
G1 X55.795 Y86.057 E18.42701
G1 X55.157 Y85.988 E18.50385
G1 X54.429 Y86.001 E18.59103
G1 X53.751 Y86.105 E18.67316
G1 X53.128 Y86.278 E18.75058
G1 X52.49 Y86.545 E18.8334
G1 X51.838 Y86.926 E18.92382
G1 X49.95 Y88.228 E19.19842
G1 X49.509 Y88.495 E19.26015
G1 X48.974 Y88.752 E19.33121
G1 X48.425 Y88.932 E19.40039
G1 X47.847 Y89.048 E19.47098
G1 X44.862 Y89.417 E19.83111
G1 X44.339 Y89.451 E19.89387
G1 X43.632 Y89.421 E19.9786
G1 X42.791 Y89.235 E20.08173
G1 X39.813 Y88.106 E20.46307
G1 X39.315 Y87.883 E20.52841
G1 X38.815 Y87.594 E20.59755
G1 X38.268 Y87.174 E20.68013
G1 X37.736 Y86.797 E20.7582
G1 X37.106 Y86.459 E20.84381
G1 X36.483 Y86.228 E20.92337
G1 X35.782 Y86.054 E21.00985
G1 X35.151 Y85.988 E21.08581
G1 X34.421 Y86.002 E21.17324
G1 X33.756 Y86.104 E21.25379
G1 X33.105 Y86.285 E21.3347
G1 X32.52 Y86.531 E21.41069
G1 X31.838 Y86.926 E21.50505
G1 X29.95 Y88.228 E21.77966
G1 X29.509 Y88.495 E21.84139
G1 X28.974 Y88.752 E21.91245
G1 X28.425 Y88.932 E21.98163
G1 X27.847 Y89.048 E22.05222
G1 X24.862 Y89.417 E22.41235
G1 X24.339 Y89.451 E22.47511
G1 X23.632 Y89.421 E22.55984
G1 X22.791 Y89.235 E22.66297
G1 X19.813 Y88.106 E23.04431
G1 X19.316 Y87.883 E23.10953
G1 X18.807 Y87.586 E23.1801
G1 X18.37 Y87.256 E23.24567
G1 X17.855 Y86.752 E23.33195
G1 X15.967 Y84.618 E23.67311
G1 X15.614 Y84.174 E23.74103
G1 X15.315 Y83.71 E23.80712
G1 X15.042 Y83.126 E23.88431
G1 X14.85 Y82.515 E23.961
G1 X14.152 Y79.695 E24.30884
G1 X14.057 Y79.187 E24.37072
G1 X13.998 Y78.466 E24.45734
G1 X14.072 Y77.651 E24.55533
G1 X14.929 Y74.182 E24.98318
G1 X15.216 Y73.499 E25.07189
G1 X15.527 Y72.961 E25.1463
G1 X15.828 Y72.556 E25.20672
G1 X16.241 Y72.084 E25.28181
G1 X16.647 Y71.564 E25.3608
G1 X16.988 Y70.998 E25.43992
G1 X17.293 Y70.288 E25.53245
G1 X17.463 Y69.699 E25.60585
G1 X17.575 Y69.012 E25.6892
G1 X17.592 Y68.32 E25.77208
G1 X17.531 Y67.681 E25.84894
G1 X17.399 Y67.051 E25.92601
G1 X17.153 Y66.364 E26.01339
G1 X16.834 Y65.737 E26.09762
G1 X16.263 Y64.959 E26.21317
G1 X15.948 Y64.596 E26.27072
G1 X15.614 Y64.175 E26.33506
G1 X15.315 Y63.71 E26.40126
G1 X15.042 Y63.126 E26.47845
G1 X14.85 Y62.515 E26.55513
G1 X14.152 Y59.695 E26.90298
G1 X14.057 Y59.187 E26.96486
G1 X13.998 Y58.466 E27.05148
G1 X14.072 Y57.651 E27.14947
G1 X14.929 Y54.182 E27.57732
G1 X15.216 Y53.499 E27.66603
G1 X15.527 Y52.961 E27.74043
G1 X15.828 Y52.556 E27.80085
G1 X16.241 Y52.084 E27.87595
G1 X16.648 Y51.562 E27.9552
G1 X17.004 Y50.968 E28.03812
G1 X17.276 Y50.334 E28.12073
G1 X17.463 Y49.7 E28.19987
G1 X17.573 Y49.029 E28.28129
G1 X17.592 Y48.323 E28.36585
G1 X17.528 Y47.658 E28.44585
G1 X17.399 Y47.051 E28.52015
G1 X17.153 Y46.364 E28.60752
G1 X16.834 Y45.737 E28.69176
G1 X16.263 Y44.959 E28.80731
G1 X15.948 Y44.596 E28.86486
G1 X15.614 Y44.175 E28.9292
G1 X15.315 Y43.71 E28.9954
G1 X15.042 Y43.126 E29.07259
G1 X14.85 Y42.515 E29.14927
G1 X14.152 Y39.695 E29.49712
G1 X14.057 Y39.187 E29.559
G1 X13.998 Y38.466 E29.64562
G1 X14.072 Y37.651 E29.7436
G1 X14.929 Y34.182 E30.17146
G1 X15.216 Y33.499 E30.26016
G1 X15.527 Y32.961 E30.33457
G1 X15.828 Y32.556 E30.39499
G1 X16.241 Y32.084 E30.47009
G1 X16.652 Y31.554 E30.55039
G1 X17.004 Y30.968 E30.63224
G1 X17.288 Y30.303 E30.71883
G1 X17.465 Y29.691 E30.79511
G1 X17.573 Y29.029 E30.87542
G1 X17.592 Y28.322 E30.96011
G1 X17.53 Y27.667 E31.03888
G1 X17.391 Y27.025 E31.11753
G1 X17.138 Y26.327 E31.20643
G1 X16.853 Y25.769 E31.28145
G1 X16.263 Y24.959 E31.40144
G1 X15.948 Y24.596 E31.45899
G1 X15.615 Y24.176 E31.52317
G1 X15.307 Y23.69 E31.59206
G1 X15.046 Y23.137 E31.66528
G1 X14.85 Y22.515 E31.74337
G1 X14.152 Y19.695 E32.09121
G1 X14.057 Y19.187 E32.15309
G1 X13.998 Y18.466 E32.23971
G1 X14.072 Y17.651 E32.3377
G1 X14.929 Y14.182 E32.76555
G1 X15.216 Y13.499 E32.85426
G1 X15.527 Y12.961 E32.92867
G1 X15.827 Y12.557 E32.98892
G0 F2400 X15.708 Y13.446
G1 F900 X72.4 Y70.137 E42.58866
G0 F2400 X72.225 Y67.7
G1 F900 X16.7 Y12.175 E51.99087
G0 F2400 X17.765 Y10.976
G1 F900 X72.751 Y65.962 E61.30181
G0 F2400 X73.593 Y64.542
G1 F900 X18.902 Y9.851 E70.5628
G0 F2400 X20.419 Y9.105
G1 F900 X74.371 Y63.057 E79.69865
G0 F2400 X75.119 Y61.543
G1 F900 X22.06 Y8.483 E88.68338
G0 F2400 X23.829 Y7.99
G1 F900 X75.49 Y59.651 E97.43129
G0 F2400 X75.493 Y57.391
G1 F900 X26.273 Y8.171 E105.76585
G0 F2400 X29.141 Y8.776
G1 F900 X74.427 Y54.063 E113.43435
G0 F2400 X72.285 Y49.658
G1 F900 X33.975 Y11.348 E119.9215
G0 F2400 X36.171 Y11.28
G1 F900 X72.277 Y47.387 E126.03552
G0 F2400 X72.874 Y45.722
G1 F900 X37.798 Y10.645 E131.97513
G0 F2400 X39.121 Y9.705
G1 F900 X73.718 Y44.302 E137.83354
G0 F2400 X74.496 Y42.817
G1 F900 X60.188 Y28.51 E140.25627
G0 F2400 X62.298 Y28.356
G1 F900 X75.214 Y41.272 E142.44337
G0 F2400 X75.53 Y39.326
G1 F900 X64.169 Y27.965 E144.36717
G0 F2400 X66.688 Y28.221
G1 F900 X75.441 Y36.974 E145.84934
G0 F2400 X74.022 Y33.293
G1 F900 X70.12 Y29.39 E146.51016
G0 F2400 X59.384 Y27.476
G0 X58.78 Y27.247
G0 X57.721 Y26.591
G0 X57.345 Y26.243
G0 X55.069 Y23.39
G1 F900 X40.685 Y9.006 E148.94584
G0 F2400 X42.324 Y8.383
G1 F900 X55.22 Y21.279 E151.12956
G0 F2400 X55.529 Y19.325
G1 F900 X44.169 Y7.965 E153.05319
G0 F2400 X46.688 Y8.222
G1 F900 X55.441 Y16.974 E154.53527
G0 F2400 X54.022 Y13.293
G1 F900 X50.12 Y9.39 E155.19609
G0 F2400 X15.112 Y15.112
G1 F900 X74.829 Y74.829 E165.30815
G0 F2400 X75.545 Y77.808
G1 F900 X14.663 Y16.926 E175.61748
G0 F2400 X14.44 Y18.965
G1 F900 X75.45 Y79.976 E185.94857
G0 F2400 X75.011 Y81.799
G1 F900 X15.109 Y21.897 E196.09195
G0 F2400 X17.726 Y26.777
G1 F900 X74.246 Y83.296 E205.66257
G0 F2400 X73.468 Y84.781
G1 F900 X17.941 Y29.255 E215.06503
G0 F2400 X17.425 Y31.001
G1 F900 X72.43 Y86.006 E224.37919
G0 F2400 X71.105 Y86.944
G1 F900 X16.526 Y32.365 E233.62122
G0 F2400 X15.575 Y33.677
G1 F900 X69.768 Y87.87 E242.79788
G0 F2400 X68.203 Y88.568
G1 F900 X15.039 Y35.403 E251.80038
G0 F2400 X14.59 Y37.218
G1 F900 X66.218 Y88.846 E260.5427
G0 F2400 X64.152 Y89.042
G1 F900 X14.484 Y39.375 E268.95305
G0 F2400 X15.228 Y42.38
G1 F900 X60.96 Y88.113 E276.69707
G0 F2400 X56.372 Y85.788
G1 F900 X17.851 Y47.267 E283.21994
G0 F2400 X17.889 Y49.567
G1 F900 X53.986 Y85.665 E289.33244
G0 F2400 X52.269 Y86.21
G1 F900 X17.303 Y51.244 E295.25333
G0 F2400 X16.356 Y52.56
G1 F900 X50.889 Y87.093 E301.10091
G0 F2400 X49.55 Y88.016
G1 F900 X15.467 Y53.933 E306.87229
G0 F2400 X14.967 Y55.696
G1 F900 X47.899 Y88.629 E312.44884
G0 F2400 X45.894 Y88.886
G1 F900 X14.519 Y57.511 E317.76166
G0 F2400 X14.605 Y59.859
G1 F900 X43.772 Y89.027 E322.70068
G0 F2400 X40.372 Y87.889
G1 F900 X15.394 Y62.911 E326.93028
G0 F2400 X17.934 Y67.715
G1 F900 X35.89 Y85.67 E329.97074
G0 F2400 X33.67 Y85.713
G1 F900 X17.829 Y69.872 E332.65314
G0 F2400 X17.169 Y71.474
G1 F900 X32.04 Y86.346 E335.17138
G0 F2400 X30.673 Y87.241
G1 F900 X16.186 Y72.755 E337.62442
G0 F2400 X15.358 Y74.19
G1 F900 X29.313 Y88.144 E339.98738
G0 F2400 X27.584 Y88.678
G1 F900 X14.894 Y75.989 E342.13613
G0 F2400 X14.459 Y77.816
G1 F900 X25.57 Y88.926 E344.0175
G0 F2400 X23.324 Y88.943
G1 F900 X14.724 Y80.344 E345.47368
G0 F2400 X15.725 Y83.607
G1 F900 X19.763 Y87.645 E346.15745
G0 F600 X19.763 Y87.645 Z0.66
G0 F2400 X35.102 Y86.451
G0 X72.721 Y85.766
;TIME_ELAPSED:201.225425
;LAYER:-5
;TYPE:SUPPORT
G1 F900 X73.235 Y85.157 E346.23696
G1 X72.186 Y86.199 E346.3845
G1 X69.479 Y88.072 E346.71295
G1 X68.841 Y88.378 E346.78356
G1 X68.478 Y88.499 E346.82174
G1 X74.868 Y82.11 E347.72336
G1 X75.03 Y81.801 E347.75818
G1 X75.285 Y81.078 E347.83467
G1 X75.399 Y80.428 E347.90052
G1 X75.434 Y80.129 E347.93056
G1 X66.781 Y88.782 E349.15159
G1 X65.172 Y88.977 E349.31331
G1 X75.585 Y78.564 E350.7827
G1 X75.596 Y78.246 E350.81445
G1 X75.477 Y77.258 E350.91374
G1 X63.719 Y89.016 E352.57292
G1 X63.263 Y88.94 E352.61905
G1 X62.59 Y88.731 E352.68937
G1 X75.305 Y76.015 E354.48366
G1 X75.034 Y75.218 E354.56766
G1 X74.915 Y74.992 E354.59314
G1 X61.565 Y88.342 E356.47697
G1 X60.54 Y87.952 E356.5864
G1 X74.429 Y74.064 E358.54622
G1 X73.941 Y73.137 E358.65075
G1 X59.597 Y87.481 E360.67484
G1 X59.105 Y87.122 E360.73561
G1 X59.055 Y87.272 E360.75139
G1 X58.679 Y86.985 E360.79859
G1 X73.444 Y72.22 E362.88209
G1 X72.901 Y71.349 E362.9845
G1 X57.846 Y86.403 E365.10886
G1 X57.262 Y86.093 E365.17483
G1 X56.884 Y85.952 E365.21508
G1 X72.476 Y70.359 E367.41535
G1 X72.374 Y70.073 E367.44565
G1 X72.191 Y69.23 E367.53173
G1 X55.763 Y85.658 E369.84989
G1 X55.18 Y85.592 E369.90844
G1 X54.401 Y85.606 E369.98618
G1 X72.204 Y67.803 E372.49838
G1 X72.317 Y67.157 E372.56381
G1 X72.507 Y66.525 E372.62966
G1 X72.847 Y65.746 E372.71447
G1 X52.476 Y86.117 E375.58904
G1 X52.33 Y86.178 E375.60483
G1 X51.626 Y86.589 E375.68617
G1 X49.47 Y88.075 E375.94744
G1 X48.764 Y88.415 E376.02563
G1 X74.646 Y62.532 E379.67793
G1 X75.03 Y61.801 E379.76032
G1 X75.285 Y61.078 E379.83682
G1 X75.407 Y60.357 E379.90978
G1 X47.01 Y88.755 E383.91698
G1 X45.4 Y88.95 E384.0788
G1 X75.578 Y58.772 E388.33724
G1 X75.596 Y58.247 E388.38966
G1 X75.498 Y57.438 E388.47097
G1 X43.892 Y89.044 E392.93092
G1 X43.264 Y88.94 E392.99443
G1 X42.74 Y88.781 E393.04907
G1 X75.327 Y56.195 E397.64738
G1 X75.272 Y55.918 E397.67556
G1 X74.997 Y55.111 E397.76063
G1 X41.71 Y88.398 E402.45778
G1 X40.686 Y88.008 E402.56712
G1 X74.497 Y54.196 E407.33828
G1 X74.011 Y53.268 E407.44281
G1 X39.713 Y87.567 E412.2827
G1 X39.105 Y87.122 E412.35788
G1 X39.055 Y87.273 E412.37375
G1 X38.793 Y87.072 E412.4067
G1 X73.521 Y52.344 E417.30719
G1 X72.977 Y51.474 E417.40958
G1 X37.974 Y86.476 E422.34881
G1 X37.262 Y86.093 E422.42948
G1 X37.03 Y86.007 E422.45417
G1 X72.529 Y50.507 E427.46353
G1 X72.374 Y50.073 E427.50951
G1 X72.227 Y49.395 E427.57874
G1 X35.939 Y85.683 E432.69936
G1 X35.18 Y85.592 E432.77564
G1 X34.605 Y85.603 E432.83302
G1 X72.181 Y48.027 E438.1354
G1 X72.186 Y47.912 E438.14689
G1 X72.317 Y47.157 E438.22335
G1 X72.507 Y46.525 E438.2892
G1 X72.69 Y46.104 E438.335
G1 X32.821 Y85.973 E443.96095
G1 X32.33 Y86.178 E444.01404
G1 X31.626 Y86.589 E444.09538
G1 X29.47 Y88.075 E444.35666
G1 X29.151 Y88.229 E444.392
G1 X74.425 Y42.955 E450.78065
G1 X75.03 Y41.801 E450.91066
G1 X75.285 Y41.078 E450.98716
G1 X75.369 Y40.596 E451.03598
G1 X27.238 Y88.727 E457.82778
G1 X25.629 Y88.922 E457.9895
G1 X75.54 Y39.012 E465.03241
G1 X75.575 Y38.896 E465.0445
G1 X75.595 Y38.246 E465.10939
G1 X75.519 Y37.618 E465.17251
G1 X24.095 Y89.042 E472.42899
G1 X23.798 Y89.029 E472.45866
G1 X23.264 Y88.94 E472.51267
G1 X22.895 Y88.828 E472.55115
G1 X75.361 Y36.362 E479.95467
G1 X75.271 Y35.917 E479.99997
G1 X75.048 Y35.261 E480.06911
G1 X21.856 Y88.453 E487.57507
G1 X20.831 Y88.063 E487.6845
G1 X74.567 Y34.328 E495.26716
G1 X74.079 Y33.401 E495.37169
G1 X19.829 Y87.651 E503.02695
G1 X19.105 Y87.122 E503.11642
G1 X19.056 Y87.272 E503.13217
G1 X18.907 Y87.159 E503.15083
G1 X73.593 Y32.473 E510.86761
G1 X73.422 Y32.147 E510.90434
G1 X73.038 Y31.614 E510.96989
G1 X18.161 Y86.491 E518.71363
G1 X17.496 Y85.742 E518.81357
G1 X72.324 Y30.913 E526.55046
G1 X71.488 Y30.335 E526.65188
