;FLAVOR:Marlin
;TIME:678
;Filament used: 0.546735m
;Layer height: 0.2
;MINX:30.889
;MINY:35.852
;MINZ:0.3
;MAXX:59.11
;MAXY:64.155
;MAXZ:9.5
;TARGET_MACHINE.NAME:Unknown
;Generated with Cura_SteamEngine 5.7.2
M104 S200
M105
M109 S200
M82 ;absolute extrusion mode
G28 ;Home
G1 Z15.0 F6000 ;Move the platform down 15mm
;Prime the extruder
G92 E0
G1 F200 E3
G92 E0
G92 E0
G92 E0
G1 F1500 E-6.5
;LAYER_COUNT:47
;LAYER:0
M107
G0 F3600 X35.303 Y39.768 Z0.3
;TYPE:SKIRT
G1 F1500 E0
G1 F1200 X36.258 Y38.925 E0.06355
G1 X36.868 Y38.373 E0.1046
G1 X37.486 Y37.923 E0.14274
G1 X38.215 Y37.503 E0.18471
G1 X38.931 Y37.189 E0.22372
G1 X40.732 Y36.611 E0.31808
G1 X42.255 Y36.11 E0.39807
G1 X43.107 Y35.929 E0.44153
G1 X43.916 Y35.852 E0.48207
G1 X44.654 Y35.858 E0.51889
G1 X45.906 Y35.99 E0.5817
G1 X46.065 Y35.997 E0.58964
G1 X47.479 Y36.161 E0.66066
G1 X48.165 Y36.23 E0.69505
G1 X48.828 Y36.366 E0.72882
G1 X49.714 Y36.647 E0.77519
G1 X50.402 Y36.955 E0.8128
G1 X51.475 Y37.581 E0.87477
G1 X53.504 Y38.741 E0.99138
G1 X54.104 Y39.165 E1.02803
G1 X54.753 Y39.763 E1.07206
G1 X55.238 Y40.313 E1.10864
G1 X56.092 Y41.505 E1.1818
G1 X57.308 Y43.163 E1.28438
G1 X57.65 Y43.741 E1.31789
G1 X58.024 Y44.543 E1.36204
G1 X58.299 Y45.382 E1.40608
G1 X58.682 Y47.235 E1.50049
G1 X59.018 Y48.765 E1.57864
G1 X59.11 Y49.531 E1.61713
G1 X59.109 Y50.449 E1.66293
G1 X59.03 Y51.154 E1.69832
G1 X58.752 Y52.462 E1.76503
G1 X58.73 Y52.612 E1.7726
G1 X58.469 Y53.784 E1.8325
G1 X58.305 Y54.586 E1.87334
G1 X58.049 Y55.391 E1.91548
G1 X57.709 Y56.158 E1.95734
G1 X57.359 Y56.765 E1.9923
G1 X55.23 Y59.699 E2.17315
G1 X54.735 Y60.256 E2.21033
G1 X54.073 Y60.849 E2.25467
G1 X53.458 Y61.285 E2.29228
G1 X51.851 Y62.197 E2.38446
G1 X50.504 Y62.988 E2.4624
G1 X49.775 Y63.323 E2.50242
G1 X48.933 Y63.606 E2.54674
G1 X48.121 Y63.777 E2.58814
G1 X46.416 Y63.947 E2.67362
G1 X44.636 Y64.143 E2.76297
G1 X43.796 Y64.155 E2.80488
G1 X42.96 Y64.05 E2.84691
G1 X42.197 Y63.878 E2.88593
G1 X40.921 Y63.454 E2.95302
G1 X39.921 Y63.139 E3.00532
G1 X38.837 Y62.777 E3.06234
G1 X38.246 Y62.517 E3.09455
G1 X37.399 Y62.025 E3.14342
G1 X36.854 Y61.619 E3.17733
G1 X35.426 Y60.322 E3.27357
G1 X34.198 Y59.226 E3.35569
G1 X33.795 Y58.796 E3.38509
G1 X33.159 Y57.925 E3.4389
G1 X32.813 Y57.306 E3.47427
G1 X32.341 Y56.24 E3.53244
G1 X32.212 Y55.976 E3.5471
G1 X31.641 Y54.659 E3.61871
G1 X31.417 Y54.17 E3.64555
G1 X31.173 Y53.456 E3.68319
G1 X30.969 Y52.536 E3.7302
G1 X30.889 Y51.733 E3.77046
G1 X30.901 Y49.943 E3.85977
G1 X30.892 Y48.194 E3.94703
G1 X30.94 Y47.622 E3.97567
G1 X31.165 Y46.552 E4.03022
G1 X31.392 Y45.887 E4.06527
G1 X31.907 Y44.736 E4.12818
G1 X31.984 Y44.545 E4.13846
G1 X32.378 Y43.689 E4.18547
G1 X32.838 Y42.648 E4.24225
G1 X33.22 Y41.988 E4.2803
G1 X33.685 Y41.346 E4.31984
G1 X34.232 Y40.741 E4.36053
G1 X35.221 Y39.854 E4.42681
G1 X35.303 Y39.768 E4.43274
G0 F3600 X35.592 Y40.045
G1 F1200 X36.527 Y39.221 E4.49492
G1 X37.104 Y38.696 E4.53384
G1 X37.687 Y38.269 E4.56989
G1 X38.377 Y37.869 E4.60968
G1 X39.053 Y37.57 E4.64656
G1 X40.854 Y36.992 E4.74093
G1 X42.38 Y36.49 E4.82107
G1 X43.146 Y36.327 E4.86014
G1 X43.914 Y36.252 E4.89864
G1 X44.612 Y36.256 E4.93346
G1 X45.879 Y36.39 E4.99703
G1 X46.048 Y36.397 E5.00547
G1 X47.44 Y36.559 E5.07538
G1 X48.085 Y36.622 E5.10771
G1 X48.748 Y36.758 E5.14148
G1 X49.552 Y37.013 E5.18356
G1 X50.201 Y37.301 E5.21899
G1 X51.274 Y37.926 E5.28094
G1 X53.273 Y39.068 E5.39579
G1 X53.873 Y39.492 E5.43245
G1 X54.453 Y40.028 E5.47185
G1 X54.938 Y40.578 E5.50843
G1 X55.77 Y41.742 E5.57982
G1 X56.964 Y43.367 E5.68042
G1 X57.287 Y43.91 E5.71194
G1 X57.661 Y44.712 E5.75609
G1 X57.907 Y45.463 E5.79551
G1 X58.291 Y47.321 E5.89017
G1 X58.627 Y48.851 E5.96832
G1 X58.71 Y49.531 E6.0025
G1 X58.711 Y50.404 E6.04605
G1 X58.632 Y51.109 E6.08144
G1 X58.356 Y52.404 E6.1475
G1 X58.334 Y52.554 E6.15507
G1 X58.077 Y53.704 E6.21386
G1 X57.913 Y54.506 E6.2547
G1 X57.683 Y55.23 E6.2926
G1 X57.362 Y55.958 E6.33229
G1 X57.012 Y56.565 E6.36725
G1 X54.906 Y59.464 E6.54601
G1 X54.468 Y59.958 E6.57895
G1 X53.806 Y60.551 E6.62329
G1 X53.261 Y60.937 E6.65661
G1 X51.648 Y61.852 E6.74913
G1 X50.301 Y62.643 E6.82706
G1 X49.646 Y62.944 E6.86303
G1 X48.849 Y63.215 E6.90502
G1 X48.081 Y63.379 E6.9442
G1 X46.372 Y63.549 E7.02989
G1 X44.592 Y63.745 E7.11923
G1 X43.846 Y63.758 E7.15645
G1 X43.01 Y63.653 E7.19849
G1 X42.323 Y63.498 E7.23362
G1 X41.047 Y63.074 E7.30071
G1 X40.047 Y62.759 E7.35301
G1 X38.996 Y62.41 E7.40826
G1 X38.446 Y62.171 E7.43818
G1 X37.638 Y61.704 E7.48474
G1 X37.093 Y61.298 E7.51865
G1 X35.695 Y60.026 E7.61294
G1 X34.49 Y58.952 E7.69347
G1 X34.087 Y58.522 E7.72288
G1 X33.508 Y57.729 E7.77186
G1 X33.179 Y57.144 E7.80535
G1 X32.707 Y56.078 E7.86351
G1 X32.579 Y55.817 E7.87801
G1 X32.008 Y54.5 E7.94963
G1 X31.781 Y54.004 E7.97684
G1 X31.552 Y53.328 E8.01245
G1 X31.367 Y52.495 E8.05502
G1 X31.289 Y51.736 E8.09309
G1 X31.301 Y49.946 E8.18239
G1 X31.291 Y48.227 E8.26816
G1 X31.339 Y47.655 E8.29679
G1 X31.544 Y46.68 E8.3465
G1 X31.757 Y46.05 E8.37968
G1 X32.272 Y44.899 E8.44259
G1 X32.347 Y44.712 E8.45264
G1 X32.741 Y43.856 E8.49965
G1 X33.185 Y42.847 E8.55465
G1 X33.544 Y42.223 E8.59057
G1 X34.009 Y41.581 E8.63011
G1 X34.499 Y41.039 E8.66657
G1 X35.501 Y40.14 E8.73373
G1 X35.592 Y40.045 E8.74029
G0 F3600 X35.856 Y40.345
G1 F1200 X36.797 Y39.516 E8.80286
G1 X37.341 Y39.018 E8.83965
G1 X37.889 Y38.614 E8.87362
G1 X38.54 Y38.234 E8.91123
G1 X39.175 Y37.951 E8.94591
G1 X40.976 Y37.373 E9.04028
G1 X42.505 Y36.87 E9.12058
G1 X43.186 Y36.725 E9.15532
G1 X43.913 Y36.652 E9.19177
G1 X44.57 Y36.654 E9.22455
G1 X45.852 Y36.79 E9.28887
G1 X46.002 Y36.794 E9.29635
G1 X47.402 Y36.957 E9.36667
G1 X48.005 Y37.014 E9.39689
G1 X48.668 Y37.15 E9.43065
G1 X49.39 Y37.379 E9.46844
G1 X50.039 Y37.667 E9.50387
G1 X51.072 Y38.271 E9.56357
G1 X53.044 Y39.396 E9.67683
G1 X53.602 Y39.786 E9.7108
G1 X54.182 Y40.322 E9.7502
G1 X54.613 Y40.811 E9.78272
G1 X55.448 Y41.979 E9.85435
G1 X56.62 Y43.571 E9.95298
G1 X56.943 Y44.114 E9.9845
G1 X57.281 Y44.838 E10.02436
G1 X57.515 Y45.544 E10.06147
G1 X57.9 Y47.407 E10.15638
G1 X58.236 Y48.937 E10.23453
G1 X58.31 Y49.531 E10.26439
G1 X58.311 Y50.404 E10.30795
G1 X58.241 Y51.026 E10.33917
G1 X57.962 Y52.335 E10.40595
G1 X57.944 Y52.467 E10.41259
G1 X57.685 Y53.624 E10.47174
G1 X57.521 Y54.426 E10.51258
G1 X57.317 Y55.069 E10.54624
G1 X57.015 Y55.758 E10.58377
G1 X56.665 Y56.365 E10.61873
G1 X54.605 Y59.2 E10.79356
G1 X54.2 Y59.661 E10.82418
G1 X53.574 Y60.225 E10.86621
G1 X53.061 Y60.59 E10.89763
G1 X52.147 Y61.116 E10.95024
G1 X51.445 Y61.507 E10.99033
G1 X50.098 Y62.298 E11.06826
G1 X49.516 Y62.566 E11.10023
G1 X48.764 Y62.824 E11.13989
G1 X48.042 Y62.981 E11.17675
G1 X46.328 Y63.151 E11.26268
G1 X44.583 Y63.345 E11.35028
G1 X43.896 Y63.361 E11.38456
G1 X43.06 Y63.256 E11.4266
G1 X42.449 Y63.118 E11.45785
G1 X41.173 Y62.694 E11.52493
G1 X40.172 Y62.379 E11.57729
G1 X39.154 Y62.043 E11.63077
G1 X38.645 Y61.824 E11.65841
G1 X37.876 Y61.383 E11.70264
G1 X37.362 Y61.002 E11.73456
G1 X35.964 Y59.73 E11.82886
G1 X34.782 Y58.678 E11.9078
G1 X34.379 Y58.248 E11.9372
G1 X33.856 Y57.532 E11.98144
G1 X33.545 Y56.982 E12.01296
G1 X33.073 Y55.916 E12.07112
G1 X32.946 Y55.658 E12.08547
G1 X32.375 Y54.341 E12.15709
G1 X32.145 Y53.838 E12.18468
G1 X31.931 Y53.201 E12.2182
G1 X31.765 Y52.453 E12.25643
G1 X31.689 Y51.739 E12.29225
G1 X31.701 Y49.949 E12.38156
G1 X31.69 Y48.26 E12.46583
G1 X31.738 Y47.688 E12.49446
G1 X31.923 Y46.807 E12.53937
G1 X32.122 Y46.213 E12.57063
G1 X32.643 Y45.049 E12.63425
G1 X32.71 Y44.879 E12.64337
G1 X33.104 Y44.023 E12.69038
G1 X33.532 Y43.045 E12.74364
G1 X33.868 Y42.457 E12.77743
G1 X34.307 Y41.848 E12.81488
G1 X34.766 Y41.337 E12.84915
G1 X35.779 Y40.428 E12.91705
G1 X35.856 Y40.345 E12.9227
G1 F1500 E6.4227
;MESH:15_t.stl
G0 F3600 X37.242 Y43.091
G0 X37.083 Y44.161
G0 X38.477 Y46.004
G0 X40.623 Y52.485
G0 X44.71 Y55.382
G0 X44.892 Y55.068
;TYPE:WALL-INNER
G1 F1500 E12.9227
G1 F1200 X44.628 Y54.989 E12.93645
G1 X43.525 Y54.351 E13.00002
G1 X42.871 Y54.078 E13.03538
G1 X42.476 Y53.848 E13.05818
G1 X41.973 Y53.454 E13.09006
G1 X40.657 Y52.695 E13.16585
G1 X40.52 Y52.504 E13.17758
G1 X40.456 Y52.31 E13.18777
G1 X40.456 Y50.684 E13.26889
G1 X40.396 Y49.969 E13.30469
G1 X40.456 Y49.308 E13.3378
G1 X40.456 Y47.76 E13.41503
G1 X40.511 Y47.511 E13.42775
G1 X40.699 Y47.277 E13.44273
G1 X41.971 Y46.543 E13.516
G1 X42.461 Y46.156 E13.54715
G1 X42.873 Y45.917 E13.57091
G1 X43.521 Y45.649 E13.6059
G1 X44.682 Y44.976 E13.67285
G1 X44.839 Y44.934 E13.68096
G1 X45.149 Y44.963 E13.69649
G1 X46.179 Y45.559 E13.75586
G1 X46.777 Y45.747 E13.78713
G1 X47.572 Y46.184 E13.83239
G1 X48.265 Y46.767 E13.87757
G1 X49.107 Y47.25 E13.926
G1 X49.265 Y47.39 E13.93653
G1 X49.396 Y47.696 E13.95314
G1 X49.396 Y48.665 E14.00148
G1 X49.515 Y49.124 E14.02514
G1 X49.604 Y50.004 E14.06927
G1 X49.513 Y50.902 E14.1143
G1 X49.396 Y51.333 E14.13658
G1 X49.396 Y52.302 E14.18492
G1 X49.307 Y52.547 E14.19793
G1 X49.185 Y52.701 E14.20773
G1 X48.266 Y53.233 E14.26071
G1 X47.897 Y53.576 E14.28584
G1 X47.554 Y53.827 E14.30705
G1 X46.771 Y54.25 E14.35145
G1 X46.181 Y54.44 E14.38237
G1 X45.14 Y55.039 E14.44229
G1 X44.892 Y55.068 E14.45475
G0 F3600 X44.71 Y55.382
G0 X44.392 Y57.21
G0 X44.616 Y57.411
G1 F1200 X44.905 Y57.119 E14.47524
G1 X45.362 Y56.918 E14.50015
G1 X46.044 Y56.873 E14.53425
G1 X46.283 Y56.905 E14.54628
G1 X46.718 Y57.138 E14.5709
G1 F989.7 X47.081 Y57.473 E14.60078
G1 F840.6 X47.249 Y58.108 E14.64756
G1 F839.2 X47.508 Y58.583 E14.68616
G1 X47.834 Y58.959 E14.72166
G1 X47.87 Y58.747 E14.737
G1 X47.863 Y58.162 E14.77874
G1 F909.1 X47.577 Y57.212 E14.84408
G1 F1086 X47.739 Y56.64 E14.87685
G1 F1200 X47.829 Y56.476 E14.88618
G1 X48.142 Y56.141 E14.90906
G1 X48.768 Y55.812 E14.94434
G1 X48.966 Y55.758 E14.95458
G1 X49.266 Y55.75 E14.96955
G1 F1103.4 X49.969 Y55.978 E15.00965
G1 F914.3 X50.353 Y56.462 E15.0501
G1 F827.6 X50.853 Y56.827 E15.09489
G1 X51.226 Y56.997 E15.12454
G1 X51.06 Y56.516 E15.16135
G1 X50.775 Y56.052 E15.20074
G1 F914.3 X50.344 Y55.594 E15.24192
G1 F1103.4 X50.196 Y54.894 E15.28074
G1 F1200 X50.212 Y54.74 E15.28847
G1 X50.397 Y54.256 E15.31432
G1 X50.761 Y53.779 E15.34425
G1 X51.296 Y53.471 E15.37505
G1 F993.8 X51.892 Y53.378 E15.41139
G1 F837.7 X52.623 Y53.738 E15.46963
G1 F829 X53.207 Y53.838 E15.51241
G1 X53.536 Y53.833 E15.53617
G1 X53.235 Y53.504 E15.56838
G1 X52.814 Y53.182 E15.60665
G1 F846.6 X52.085 Y52.879 E15.66248
G1 F1006.3 X51.806 Y52.463 E15.69228
G1 F1200 X51.685 Y52.192 E15.70709
G1 X51.644 Y51.804 E15.72656
G1 X51.755 Y51.204 E15.757
G1 X51.825 Y51.031 E15.76631
G1 X52.064 Y50.67 E15.78791
G1 F1090.9 X52.647 Y50.291 E15.82607
G1 F905.7 X53.342 Y50.297 E15.87201
G1 F834.8 X53.896 Y50.198 E15.91237
G1 F842.1 X54.311 Y50.019 E15.94451
G1 X53.729 Y49.755 E15.98994
G1 X53.46 Y49.706 E16.00938
G1 F845.1 X52.751 Y49.739 E16.05966
G1 F993.8 X52.216 Y49.449 E16.09632
G1 F1200 X51.944 Y49.199 E16.11475
G1 X51.757 Y48.792 E16.1371
G1 X51.636 Y48.119 E16.17121
G1 X51.724 Y47.684 E16.19336
G1 F1008.4 X52.205 Y47.055 E16.24037
G1 F854.1 X52.809 Y46.813 E16.28598
G1 F837.7 X53.171 Y46.554 E16.31779
G1 X53.532 Y46.16 E16.35598
G1 X52.973 Y46.18 E16.39595
G1 X52.704 Y46.231 E16.41552
G1 F854.1 X51.949 Y46.571 E16.47356
G1 F1008.4 X51.336 Y46.532 E16.51003
G1 F1200 X51.02 Y46.411 E16.52691
G1 X50.818 Y46.267 E16.53929
G1 X50.406 Y45.751 E16.57223
G1 X50.241 Y45.409 E16.59117
G1 X50.221 Y44.857 E16.61873
G1 F1012.7 X50.369 Y44.366 E16.64905
G1 F849.6 X50.788 Y43.928 E16.69176
G1 F824.7 X51.095 Y43.407 E16.73566
G1 X51.225 Y43.027 E16.76481
G1 X50.844 Y43.181 E16.79465
G1 X50.35 Y43.541 E16.83902
G1 F849.6 X49.962 Y44.001 E16.88142
G1 F1012.7 X49.488 Y44.197 E16.91175
G1 F1200 X48.82 Y44.226 E16.94511
G1 X48.141 Y43.856 E16.98369
G1 X47.822 Y43.513 E17.00705
G1 X47.722 Y43.32 E17.0179
G1 F1014.8 X47.619 Y42.592 E17.06127
G1 F863.3 X47.86 Y41.934 E17.10987
G1 F836.2 X47.842 Y41.065 E17.1721
G1 F821.9 X47.554 Y41.364 E17.20234
G1 X47.261 Y41.866 E17.24467
G1 F849.6 X47.094 Y42.443 E17.287
G1 F941.2 X46.65 Y42.914 E17.32818
G1 F1100.9 X46.257 Y43.095 E17.35171
G1 F1200 X45.967 Y43.127 E17.36626
G1 X45.128 Y43.013 E17.40851
G1 X44.962 Y42.921 E17.41797
G1 X44.679 Y42.664 E17.43705
G1 F1010.5 X44.381 Y42.186 E17.47042
G1 F851.1 X44.329 Y41.629 E17.50977
G1 F834.8 X44.324 Y41.483 E17.52025
G1 F839.2 X44.125 Y40.939 E17.56157
G1 X43.935 Y40.639 E17.58691
G1 X43.884 Y40.768 E17.5968
G1 X43.767 Y41.292 E17.63511
G1 F834.8 X43.752 Y41.664 E17.66181
G1 F851.1 X43.835 Y42.241 E17.70282
G1 F1010.5 X43.684 Y42.684 E17.73054
G1 F1200 X43.465 Y43.029 E17.75093
G1 X43.079 Y43.317 E17.77496
G1 X42.368 Y43.514 E17.81177
G1 X42.112 Y43.516 E17.82454
G1 X41.706 Y43.392 E17.84572
G1 F1012.7 X41.24 Y43.066 E17.87934
G1 F861.8 X40.969 Y42.543 E17.92026
G1 F848.1 X40.624 Y42.142 E17.95761
G1 X40.199 Y41.829 E17.99487
G1 X40.355 Y42.619 E18.05171
G1 F861.8 X40.758 Y43.324 E18.10813
G1 F1012.7 X40.808 Y43.778 E18.13513
G1 F1200 X40.732 Y44.274 E18.16017
G1 X40.627 Y44.495 E18.17237
G1 X40.076 Y45.051 E18.21143
G1 X39.581 Y45.261 E18.23825
G1 X39.266 Y45.271 E18.25397
G1 F1008.4 X38.762 Y45.182 E18.28436
G1 F858.7 X38.281 Y44.799 E18.32723
G1 F863.3 X37.799 Y44.558 E18.3646
G1 F877.5 X37.262 Y44.449 E18.40198
G1 X37.736 Y45.12 E18.45803
G1 F863.3 X37.965 Y45.269 E18.47698
G1 F858.7 X38.426 Y45.615 E18.51717
G1 F1008.4 X38.659 Y46.052 E18.54657
G1 F1200 X38.767 Y46.402 E18.56484
G1 X38.726 Y46.871 E18.58833
G1 X38.521 Y47.355 E18.61455
G1 X38.24 Y47.747 E18.63862
G1 X37.716 Y47.998 E18.6676
G1 F1006.3 X37.339 Y48.106 E18.69093
G1 F861.8 X36.524 Y47.911 E18.74915
G1 F851.1 X35.694 Y48.025 E18.80809
G1 F845.1 X36.132 Y48.342 E18.84639
G1 X36.451 Y48.488 E18.87124
G1 F851.1 X37.158 Y48.618 E18.92181
G1 F1000 X37.583 Y48.922 E18.95309
G1 F1200 X37.861 Y49.253 E18.97466
G1 X37.996 Y49.792 E19.00238
G1 X37.936 Y50.536 E19.03962
G1 X37.891 Y50.68 E19.04715
G1 X37.565 Y51.088 E19.0732
G1 F1023.5 X37.143 Y51.374 E19.10302
G1 F860.2 X36.598 Y51.465 E19.14148
G1 F831.9 X36.278 Y51.584 E19.16605
G1 F833.3 X35.722 Y51.941 E19.21352
G1 X36.095 Y52.037 E19.24119
G1 X36.655 Y52.05 E19.28143
G1 F861.8 X37.265 Y51.896 E19.32514
G1 F1023.5 X37.678 Y51.985 E19.34985
G1 F1200 X38.236 Y52.25 E19.38067
G1 X38.373 Y52.421 E19.3916
G1 X38.678 Y52.992 E19.4239
G1 X38.776 Y53.452 E19.44736
G1 X38.668 Y53.942 E19.4724
G1 F1014.8 X38.378 Y54.422 E19.50548
G1 F875.9 X37.72 Y54.896 E19.56091
G1 F872.7 X37.525 Y55.138 E19.58223
G1 X37.299 Y55.556 E19.61483
G1 X37.735 Y55.454 E19.64554
G1 X38.067 Y55.323 E19.67003
G1 F875.9 X38.714 Y54.853 E19.72468
G1 F1014.8 X39.252 Y54.725 E19.75731
G1 F1200 X39.643 Y54.747 E19.77685
G1 X40.105 Y54.983 E19.80273
G1 X40.602 Y55.469 E19.83741
G1 X40.731 Y55.709 E19.851
G1 F985.6 X40.833 Y56.541 E19.90192
G1 F827.6 X40.455 Y57.15 E19.95377
G1 F821.9 X40.265 Y57.735 E19.99857
G1 F823.3 X40.21 Y58.163 E20.02995
G1 X40.778 Y57.694 E20.08351
G1 X40.942 Y57.486 E20.10277
G1 F836.2 X41.314 Y56.807 E20.1582
G1 F993.8 X42.02 Y56.489 E20.20485
G1 F1200 X42.427 Y56.478 E20.22516
G1 X43.227 Y56.764 E20.26755
G1 X43.401 Y56.905 E20.27872
G1 F1100.9 X43.669 Y57.255 E20.30269
G1 F943 X43.831 Y57.79 E20.33818
G1 F869.6 X43.762 Y58.679 E20.39957
G1 F858.7 X43.959 Y59.303 E20.44519
G1 X44.2 Y58.906 E20.47757
G1 X44.344 Y58.442 E20.51145
G1 F869.6 X44.373 Y57.849 E20.55232
G1 F1014.8 X44.616 Y57.411 E20.58187
G0 F3600 X44.969 Y57.607
;TYPE:WALL-OUTER
G1 F1200 X45.117 Y57.458 E20.59235
G1 X45.435 Y57.317 E20.60971
G1 X46.125 Y57.268 E20.64422
G1 X46.469 Y57.451 E20.66366
