;FLAVOR:Marlin
;TIME:9893
;Filament used: 7.99622m
;Layer height: 0.2
;MINX:8.4
;MINY:7.481
;MINZ:0.36
;MAXX:81.596
;MAXY:92.416
;MAXZ:61.51
;TARGET_MACHINE.NAME:Unknown
;Generated with Cura_SteamEngine 5.7.2
M104 S200
M105
M109 S200
M82 ;absolute extrusion mode
G28 ;Home
G1 Z15.0 F6000 ;Move the platform down 15mm
;Prime the extruder
G92 E0
G1 F200 E3
G92 E0
G92 E0
G92 E0
G1 F1500 E-6.5
;LAYER_COUNT:301
;LAYER:-6
M107
G0 F7200 X12.803 Y11.672 Z0.36
;TYPE:SUPPORT-INTERFACE
G1 F1500 E0
G1 F900 X13.681 Y10.88 E0.14158
G1 X14.43 Y10.301 E0.25493
G1 X15.326 Y9.702 E0.38398
G1 X16.409 Y9.096 E0.53258
G1 X17.187 Y8.724 E0.63584
G1 X18.289 Y8.3 E0.77722
G1 X19.385 Y7.976 E0.91406
G1 X20.286 Y7.774 E1.02462
G1 X21.41 Y7.603 E1.16075
G1 X22.899 Y7.516 E1.33935
G1 X25.699 Y7.481 E1.67463
G1 X26.593 Y7.496 E1.78169
G1 X28.146 Y7.58 E1.96792
G1 X33.011 Y7.58 E2.55043
G1 X34.142 Y7.628 E2.68598
G1 X34.987 Y7.717 E2.78771
G1 X36.103 Y7.916 E2.92345
G1 X37.119 Y8.177 E3.04905
G1 X38.177 Y8.527 E3.18248
G1 X39.299 Y9.014 E3.32894
G1 X40.233 Y9.5 E3.45501
G1 X41.106 Y10.041 E3.57798
G1 X41.967 Y10.657 E3.70474
G1 X42.669 Y11.243 E3.81423
G1 X43.519 Y12.054 E3.9549
G1 X44.259 Y12.887 E4.08832
G1 X44.566 Y13.288 E4.14879
G1 X45.019 Y13.805 E4.23109
G1 X45.532 Y14.258 E4.31304
G1 X46.136 Y14.668 E4.40044
G1 X46.728 Y14.967 E4.47986
G1 X47.339 Y15.182 E4.55741
G1 X48.025 Y15.334 E4.64154
G1 X48.832 Y15.399 E4.73848
G1 X67.003 Y15.4 E6.91422
G1 X68.135 Y15.448 E7.04988
G1 X68.976 Y15.533 E7.15109
G1 X70.107 Y15.736 E7.28868
G1 X71.051 Y15.977 E7.40533
G1 X72.131 Y16.335 E7.54157
G1 X73.203 Y16.783 E7.68068
G1 X74.064 Y17.226 E7.79662
G1 X74.98 Y17.779 E7.92474
G1 X75.92 Y18.446 E8.06275
G1 X76.669 Y19.068 E8.17932
G1 X77.437 Y19.8 E8.30636
G1 X78.229 Y20.678 E8.44794
G1 X78.811 Y21.427 E8.56151
G1 X79.41 Y22.322 E8.69046
G1 X80.016 Y23.404 E8.83895
G1 X80.384 Y24.183 E8.94211
G1 X80.817 Y25.294 E9.08489
G1 X81.136 Y26.382 E9.22064
G1 X81.354 Y27.325 E9.33653
G1 X81.513 Y28.478 E9.4759
G1 X81.595 Y29.666 E9.61848
G1 X81.596 Y69.987 E14.44638
G1 X81.548 Y71.139 E14.58443
G1 X81.451 Y72.069 E14.69639
G1 X81.225 Y73.24 E14.83919
G1 X81 Y74.114 E14.94725
G1 X80.657 Y75.135 E15.07622
G1 X80.217 Y76.195 E15.21364
G1 X79.75 Y77.096 E15.33515
G1 X79.213 Y77.984 E15.45941
G1 X78.543 Y78.935 E15.5987
G1 X77.81 Y79.804 E15.73482
G1 X77.197 Y80.44 E15.84059
G1 X76.315 Y81.232 E15.98252
G1 X75.565 Y81.811 E16.09597
G1 X74.668 Y82.416 E16.22552
G1 X73.786 Y82.921 E16.34722
G1 X72.808 Y83.388 E16.47698
G1 X71.71 Y83.817 E16.61813
G1 X70.611 Y84.14 E16.75529
G1 X69.715 Y84.342 E16.86527
G1 X68.505 Y84.517 E17.01165
G1 X67.331 Y84.599 E17.15257
G1 X48.852 Y84.6 E19.36518
G1 X48.184 Y84.639 E19.4453
G1 X47.519 Y84.769 E19.52643
G1 X46.873 Y84.979 E19.60776
G1 X46.227 Y85.283 E19.69325
G1 X45.684 Y85.63 E19.77041
G1 X45.136 Y86.089 E19.856
G1 X44.596 Y86.682 E19.95203
G1 X43.813 Y87.625 E20.09879
G1 X43.201 Y88.26 E20.20439
G1 X42.323 Y89.052 E20.34597
G1 X41.574 Y89.631 E20.45933
G1 X40.677 Y90.231 E20.58854
G1 X39.789 Y90.737 E20.71092
G1 X38.816 Y91.208 E20.84035
G1 X37.715 Y91.632 E20.98162
G1 X36.619 Y91.956 E21.11847
G1 X35.719 Y92.158 E21.22891
G1 X34.509 Y92.333 E21.3753
G1 X33.34 Y92.415 E21.51561
G1 X23.033 Y92.416 E22.74974
G1 X21.865 Y92.368 E22.88971
G1 X20.997 Y92.279 E22.99419
G1 X19.901 Y92.08 E23.12756
G1 X18.944 Y91.839 E23.24573
G1 X17.819 Y91.469 E23.38753
G1 X16.732 Y90.998 E23.52938
G1 X15.805 Y90.519 E23.65431
G1 X14.95 Y89.994 E23.77445
G1 X14.014 Y89.319 E23.91262
G1 X13.319 Y88.741 E24.02086
G1 X12.547 Y88.004 E24.14865
G1 X11.85 Y87.237 E24.27275
G1 X11.177 Y86.377 E24.4035
G1 X10.498 Y85.351 E24.55082
G1 X10.052 Y84.552 E24.66038
G1 X9.608 Y83.617 E24.78432
G1 X9.191 Y82.55 E24.92149
G1 X8.86 Y81.434 E25.06087
G1 X8.642 Y80.476 E25.17851
G1 X8.482 Y79.301 E25.3205
G1 X8.416 Y78.432 E25.42485
G1 X8.401 Y77.763 E25.50497
G1 X8.4 Y22.125 E32.16687
G1 X8.448 Y20.978 E32.30433
G1 X8.548 Y20.047 E32.41644
G1 X8.771 Y18.872 E32.55965
G1 X8.996 Y18.002 E32.66724
G1 X9.339 Y16.982 E32.7961
G1 X9.784 Y15.921 E32.93386
G1 X10.246 Y15.016 E33.05552
G1 X10.783 Y14.132 E33.17937
G1 X11.457 Y13.182 E33.31884
G1 X12.19 Y12.312 E33.45505
G1 X12.803 Y11.672 E33.56117
G0 F7200 X12.533 Y12.533
G1 F900 X78.418 Y78.418 E44.71767
G0 F7200 X77.396 Y79.658
G1 F900 X11.52 Y13.783 E55.87256
G0 F7200 X10.629 Y15.155
G1 F900 X76.237 Y80.763 E66.98216
G0 F7200 X74.953 Y81.742
G1 F900 X9.897 Y16.686 E77.99828
G0 F7200 X9.315 Y18.366
G1 F900 X73.543 Y82.594 E88.8742
G0 F7200 X71.971 Y83.285
G1 F900 X8.929 Y20.242 E99.54937
G0 F7200 X8.8 Y22.376
G1 F900 X70.238 Y83.814 E109.95285
G0 F7200 X68.291 Y84.13
G1 F900 X8.8 Y24.639 E120.02664
G0 F7200 X8.8 Y26.902
G1 F900 X66.097 Y84.199 E129.72891
G0 F7200 X63.834 Y84.199
G1 F900 X8.8 Y29.165 E139.04798
G0 F7200 X8.8 Y31.427
G1 F900 X61.571 Y84.199 E147.98394
G0 F7200 X59.309 Y84.199
G1 F900 X8.8 Y33.69 E156.53677
G0 F7200 X8.8 Y35.953
G1 F900 X57.047 Y84.199 E164.7065
G0 F7200 X54.784 Y84.199
G1 F900 X8.8 Y38.216 E172.49302
G0 F7200 X8.8 Y40.478
G1 F900 X52.521 Y84.199 E179.89643
G0 F7200 X50.258 Y84.199
G1 F900 X8.8 Y42.741 E186.91663
G0 F7200 X8.8 Y45.004
G1 F900 X48.052 Y84.256 E193.56329
G0 F7200 X46.328 Y84.794
G1 F900 X8.8 Y47.267 E199.91793
G0 F7200 X8.8 Y49.529
G1 F900 X44.973 Y85.702 E206.04321
G0 F7200 X43.901 Y86.894
G1 F900 X8.8 Y51.792 E211.98705
G0 F7200 X8.8 Y54.055
G1 F900 X42.815 Y88.069 E217.74683
G0 F7200 X41.593 Y89.11
G1 F900 X8.8 Y56.318 E223.29968
G0 F7200 X8.8 Y58.58
G1 F900 X40.239 Y90.02 E228.62342
G0 F7200 X38.752 Y90.795
G1 F900 X8.8 Y60.843 E233.69529
G0 F7200 X8.8 Y63.106
G1 F900 X37.093 Y91.399 E238.48622
G0 F7200 X35.252 Y91.821
G1 F900 X8.8 Y65.368 E242.9655
G0 F7200 X8.8 Y67.631
G1 F900 X33.184 Y92.015 E247.09452
G0 F7200 X30.921 Y92.015
G1 F900 X8.8 Y69.894 E250.84033
G0 F7200 X8.8 Y72.157
G1 F900 X28.658 Y92.015 E254.20295
G0 F7200 X26.396 Y92.016
G1 F900 X8.8 Y74.419 E257.18261
G0 F7200 X8.8 Y76.682
G1 F900 X24.134 Y92.016 E259.77917
G0 F7200 X21.816 Y91.961
G1 F900 X8.861 Y79.006 E261.97287
G0 F7200 X9.383 Y81.791
G1 F900 X19.044 Y91.452 E263.6088
G0 F7200 X14.522 Y89.192
G1 F900 X11.608 Y86.278 E264.10224
G0 F7200 X79.311 Y77.048
G1 F900 X13.682 Y11.419 E275.21539
G0 F7200 X14.957 Y10.431
G1 F900 X80.059 Y75.534 E286.23939
G0 F7200 X80.652 Y73.864
G1 F900 X16.367 Y9.578 E297.12504
G0 F7200 X17.922 Y8.871
G1 F900 X81.056 Y72.005 E307.81571
G0 F7200 X81.196 Y69.883
G1 F900 X19.642 Y8.328 E318.23892
G0 F7200 X21.571 Y7.995
G1 F900 X81.196 Y67.62 E328.33539
G0 F7200 X81.196 Y65.357
G1 F900 X23.745 Y7.906 E338.06374
G0 F7200 X25.988 Y7.886
G1 F900 X81.196 Y63.094 E347.41228
G0 F7200 X81.196 Y60.832
G1 F900 X28.344 Y7.98 E356.36186
G0 F7200 X30.607 Y7.98
G1 F900 X81.196 Y58.569 E364.92825
G0 F7200 X81.196 Y56.306
G1 F900 X32.87 Y7.98 E373.11143
G0 F7200 X35.339 Y8.186
G1 F900 X81.196 Y54.043 E380.87653
G0 F7200 X81.196 Y51.781
G1 F900 X38.533 Y9.117 E388.10087
G0 F7200 X47.248 Y15.57
G1 F900 X81.196 Y49.517 E393.8493
G0 F7200 X81.196 Y47.255
G1 F900 X49.739 Y15.798 E399.17601
G0 F7200 X52.002 Y15.798
G1 F900 X81.196 Y44.992 E404.11951
G0 F7200 X81.196 Y42.729
G1 F900 X54.265 Y15.799 E408.67974
G0 F7200 X56.528 Y15.799
G1 F900 X81.196 Y40.466 E412.85676
G0 F7200 X81.196 Y38.204
G1 F900 X58.792 Y15.8 E416.65049
G0 F7200 X61.054 Y15.8
G1 F900 X81.196 Y35.941 E420.06111
G0 F7200 X81.196 Y33.678
G1 F900 X63.318 Y15.8 E423.08845
G0 F7200 X65.581 Y15.8
G1 F900 X81.196 Y31.415 E425.73258
G0 F7200 X81.156 Y29.113
G1 F900 X67.881 Y15.838 E427.98048
G0 F7200 X70.574 Y16.268
G1 F900 X80.733 Y26.427 E429.70073
G0 F7200 X79.006 Y22.438
G1 F900 X74.565 Y17.997 E430.45274
G0 F600 X74.565 Y17.997 Z0.66
G0 F7200 X50.737 Y15.191
G0 X14.66 Y10.63
;TIME_ELAPSED:245.815519
;LAYER:-5
;TYPE:SUPPORT
G1 F900 X13.862 Y11.254 E430.55382
G1 X13.089 Y11.955 E430.65794
G1 X12.484 Y12.583 E430.74495
G1 X11.819 Y13.373 E430.84798
G1 X11.129 Y14.327 E430.96546
G1 X15.166 Y10.29 E431.53513
G1 X15.532 Y10.044 E431.57913
G1 X16.583 Y9.455 E431.69934
G1 X17.362 Y9.089 E431.78523
G1 X18.04 Y8.83 E431.85764
G1 X9.748 Y17.122 E433.02774
G1 X9.701 Y17.868 E433.10232
G1 X9.461 Y17.808 E433.127
G1 X9.117 Y19.168 E433.26698
G1 X20.072 Y8.212 E434.81292
G1 X21.444 Y8.004 E434.95138
G1 X21.712 Y7.987 E434.97818
G1 X8.855 Y20.844 E436.79244
G1 X8.803 Y22.31 E436.93881
G1 X23.137 Y7.975 E438.96156
G1 X23.555 Y8.028 E439.0036
G1 X23.554 Y7.909 E439.01548
G1 X24.632 Y7.895 E439.12305
G1 X8.803 Y23.724 E441.35669
G1 X8.803 Y25.138 E441.49778
G1 X26.054 Y7.887 E443.93208
G1 X26.587 Y7.897 E443.98528
G1 X27.415 Y7.941 E444.06801
G1 X8.803 Y26.553 E446.69436
G1 X8.803 Y27.967 E446.83545
G1 X28.788 Y7.981 E449.65562
G1 X30.202 Y7.982 E449.79671
G1 X8.803 Y29.381 E452.81634
G1 X8.803 Y30.795 E452.95743
G1 X31.615 Y7.983 E456.17645
G1 X33.028 Y7.984 E456.31744
G1 X8.803 Y32.209 E459.73585
G1 X8.803 Y33.624 E459.87704
G1 X34.369 Y8.057 E463.48475
G1 X35.164 Y8.15 E463.56462
G1 X35.608 Y8.232 E463.60967
G1 X8.803 Y35.038 E467.39221
G1 X8.803 Y36.452 E467.5333
G1 X36.758 Y8.497 E471.47806
G1 X37.085 Y8.581 E471.51174
G1 X37.83 Y8.84 E471.59044
G1 X8.803 Y37.866 E475.6864
G1 X8.803 Y39.28 E475.82749
G1 X38.85 Y9.234 E480.06737
G1 X39.785 Y9.713 E480.1722
G1 X8.803 Y40.695 E484.54409
G1 X8.803 Y42.109 E484.68518
G1 X40.673 Y10.239 E489.18238
G1 X41.506 Y10.819 E489.28366
G1 X8.803 Y43.523 E493.89848
G1 X8.803 Y44.937 E494.03957
G1 X42.231 Y11.51 E498.75655
G1 X42.489 Y11.622 E498.78462
G1 X43.02 Y12.135 E498.85829
G1 X8.803 Y46.352 E503.68667
G1 X8.803 Y47.766 E503.82776
G1 X43.719 Y12.849 E508.75486
G1 X44.343 Y13.64 E508.85539
G1 X8.803 Y49.18 E513.87047
G1 X8.803 Y50.594 E514.01156
G1 X45.04 Y14.357 E519.12499
G1 X45.583 Y14.834 E519.1971
G1 X45.845 Y14.966 E519.22638
G1 X8.803 Y52.008 E524.4534
G1 X8.803 Y53.423 E524.59459
G1 X46.808 Y15.417 E529.95758
G1 X47.27 Y15.58 E530.00646
G1 X47.921 Y15.719 E530.07288
G1 X8.803 Y54.837 E535.59286
G1 X8.803 Y56.251 E535.73395
G1 X49.254 Y15.8 E541.44202
G1 X50.668 Y15.8 E541.58311
G1 X8.803 Y57.665 E547.49071
G1 X8.803 Y59.079 E547.6318
G1 X52.083 Y15.8 E553.73901
G1 X53.497 Y15.8 E553.8801
G1 X8.803 Y60.494 E560.1869
G1 X8.803 Y61.908 E560.32799
G1 X54.911 Y15.8 E566.83433
G1 X56.325 Y15.8 E566.97542
G1 X8.803 Y63.322 E573.68129
G1 X8.803 Y64.736 E573.82238
G1 X57.74 Y15.8 E580.72784
G1 X59.153 Y15.8 E580.86883
G1 X8.803 Y66.151 E587.97383
G1 X8.803 Y67.565 E588.11492
G1 X60.567 Y15.8 E595.41945
G1 X61.981 Y15.8 E595.56054
G1 X8.803 Y68.979 E603.0646
G1 X8.803 Y70.393 E603.20569
G1 X63.396 Y15.8 E610.90935
G1 X64.81 Y15.8 E611.05044
G1 X8.803 Y71.807 E618.95364
G1 X8.803 Y73.222 E619.09483
G1 X66.224 Y15.8 E627.19762
G1 X66.984 Y15.801 E627.27345
G1 X67.613 Y15.826 E627.33626
G1 X8.803 Y74.636 E635.63499
G1 X8.803 Y76.05 E635.77608
G1 X68.927 Y15.926 E644.26023
G1 X70.121 Y16.146 E644.38137
G1 X8.803 Y77.464 E653.034
G1 X8.817 Y78.391 E653.12651
G1 X8.852 Y78.829 E653.17035
G1 X71.24 Y16.442 E661.9739
G1 X71.305 Y16.459 E661.98061
G1 X71.246 Y16.698 E662.00517
G1 X72.09 Y16.751 E662.08955
G1 X72.27 Y16.826 E662.10901
G1 X8.999 Y80.097 E671.03723
G1 X9.054 Y80.465 E671.07436
G1 X9.237 Y81.273 E671.15702
G1 X73.194 Y17.316 E680.18204
G1 X73.926 Y17.608 E680.26068
G1 X74.132 Y17.792 E680.28824
G1 X9.552 Y82.372 E689.40118
G1 X9.948 Y83.39 E689.51017
G1 X75.036 Y18.302 E698.69479
G1 X75.855 Y18.897 E698.7958
G1 X10.4 Y84.352 E708.0322
G1 X10.469 Y84.498 E708.04832
G1 X10.604 Y84.432 E708.06331
G1 X10.904 Y85.262 E708.15137
G1 X76.609 Y19.558 E717.42299
G1 X77.321 Y20.259 E717.52268
G1 X11.477 Y86.104 E726.81406
G1 X12.094 Y86.901 E726.91463
G1 X77.981 Y21.014 E736.21199
G1 X78.601 Y21.808 E736.31251
G1 X12.757 Y87.652 E745.60381
G1 X13.48 Y88.344 E745.70367
G1 X79.151 Y22.673 E754.97056
G1 X79.658 Y23.579 E755.07415
G1 X14.245 Y88.992 E764.30463
G1 X15.064 Y89.588 E764.4057
G1 X80.099 Y24.553 E773.58284
G1 X80.49 Y25.576 E773.69212
G1 X15.935 Y90.131 E782.80153
G1 X16.862 Y90.618 E782.90601
G1 X80.796 Y26.684 E791.92779
G1 X80.941 Y27.327 E791.99356
G1 X81.021 Y27.873 E792.04862
G1 X17.849 Y91.045 E800.96287
G1 X18.901 Y91.408 E801.07391
G1 X81.16 Y29.149 E809.85933
G1 X81.197 Y29.682 E809.91264
G1 X81.197 Y30.526 E809.99686
G1 X20.023 Y91.7 E818.62917
G1 X21.218 Y91.919 E818.75039
G1 X81.197 Y31.94 E827.21408
G1 X81.197 Y33.354 E827.35517
G1 X22.552 Y92 E835.63068
G1 X23.052 Y92.019 E835.68061
G1 X23.947 Y92.019 E835.76991
G1 X81.197 Y34.768 E843.84857
G1 X81.197 Y36.183 E843.98976
G1 X25.361 Y92.019 E851.86883
G1 X26.775 Y92.019 E852.00992
G1 X81.197 Y37.597 E859.68945
G1 X81.197 Y39.011 E859.83054
G1 X28.19 Y92.019 E867.31047
G1 X29.604 Y92.019 E867.45156
G1 X81.197 Y40.425 E874.73196
G1 X81.197 Y41.84 E874.87315
G1 X31.018 Y92.019 E881.95395
G1 X32.432 Y92.019 E882.09503
G1 X81.197 Y43.254 E888.9763
G1 X81.197 Y44.668 E889.11739
G1 X33.889 Y91.976 E895.79306
G1 X34.653 Y91.919 E895.86951
G1 X35.487 Y91.792 E895.95368
G1 X81.197 Y46.082 E902.40386
G1 X81.197 Y47.496 E902.54495
G1 X37.354 Y91.339 E908.73167
G1 X38.638 Y90.848 E908.86883
G1 X39.828 Y90.279 E909.00045
G1 X81.197 Y48.911 E914.83799
G1 X81.197 Y50.325 E914.97908
G1 X47.006 Y84.516 E919.8038
G1 X47.43 Y84.379 E919.84826
G1 X48.105 Y84.25 E919.91683
G1 X48.728 Y84.208 E919.97913
G1 X81.197 Y51.739 E924.56086
G1 X81.197 Y53.153 E924.70195
G1 X50.149 Y84.202 E929.08323
G1 X51.563 Y84.202 E929.22432
G1 X81.197 Y54.567 E933.40607
G1 X81.197 Y55.982 E933.54726
G1 X52.977 Y84.202 E937.5294
G1 X54.391 Y84.202 E937.67049
G1 X81.197 Y57.396 E941.45311
G1 X81.197 Y58.81 E941.5942
G1 X55.806 Y84.201 E945.17714
G1 X57.22 Y84.201 E945.31823
G1 X81.197 Y60.224 E948.70165
G1 X81.197 Y61.638 E948.84274
G1 X58.635 Y84.201 E952.02655
G1 X60.049 Y84.201 E952.16764
G1 X81.197 Y63.053 E955.15185
G1 X81.197 Y64.467 E955.29294
G1 X61.464 Y84.2 E958.07748
G1 X62.878 Y84.2 E958.21857
G1 X81.197 Y65.881 E960.80358
G1 X81.197 Y67.295 E960.94467
G1 X64.292 Y84.2 E963.33014
G1 X65.706 Y84.2 E963.47123
G1 X81.197 Y68.71 E965.65711
G1 X81.197 Y70.124 E965.7982
G1 X67.107 Y84.214 E967.78645
G1 X68.632 Y84.103 E967.93902
G1 X81.088 Y71.647 E969.69669
G1 X81.029 Y72.159 E969.74812
G1 X80.811 Y73.338 E969.86776
G1 X70.361 Y83.789 E971.34243
G1 X70.439 Y83.771 E971.35042
G1 X71.192 Y83.421 E971.43328
G1 X71.24 Y83.563 E971.44823
G1 X72.472 Y83.091 E971.57987
G1 X80.078 Y75.486 E972.65309
G1 X79.896 Y75.912 E972.69932
G1 X79.824 Y75.84 E972.70948
G1 X79.389 Y76.93 E972.82658
G1 X78.735 Y77.654 E972.92393
G1 X78.91 Y77.74 E972.94338
G1 X78.049 Y78.929 E973.08986
G1 X76.027 Y80.95 E973.37512
G0 F600 X76.027 Y80.95 Z0.86
G0 F7200 X78.543 Y21.408
;TIME_ELAPSED:609.172522
;LAYER:-4
;TYPE:SUPPORT-INTERFACE
G1 F1200 X75.598 Y18.464 E973.51362
G0 F7200 X78.015 Y20.732
G1 F1200 X77.413 Y20.062 E973.54358
G1 X76.655 Y19.323 E973.57879
G1 X75.858 Y18.652 E973.61344
G1 X75.031 Y18.054 E973.64738
G1 X74.648 Y17.815 E973.6624
G1 X74.588 Y17.936 E973.66689
G1 X74.033 Y17.436 E973.69174
G1 X73.986 Y17.417 E973.69342
G1 X79.558 Y22.989 E973.95551
G1 X79.832 Y23.478 E973.97415
G1 X80.144 Y24.141 E973.99853
G1 X72.859 Y16.856 E974.34119
G1 X72.139 Y16.553 E974.36717
G1 X71.981 Y16.544 E974.37244
G1 X80.515 Y25.078 E974.77385
G1 X80.788 Y25.893 E974.80244
G1 X80.77 Y25.898 E974.80306
G1 X71.064 Y16.192 E975.2596
G1 X70.299 Y15.993 E975.28589
G1 X81.004 Y26.698 E975.78942
G1 X81.168 Y27.428 E975.8143
G1 X69.584 Y15.844 E976.35918
G1 X68.914 Y15.739 E976.38174
G1 X81.254 Y28.08 E976.9622
G1 X81.33 Y28.721 E976.98366
