;FLAVOR:Marlin
;TIME:3893
;Filament used: 2.73363m
;Layer height: 0.2
;MINX:6.406
;MINY:11.411
;MINZ:0.3
;MAXX:83.584
;MAXY:88.589
;MAXZ:1.9
;TARGET_MACHINE.NAME:Unknown
;Generated with Cura_SteamEngine 5.7.2
M104 S200
M105
M109 S200
M82 ;absolute extrusion mode
G28 ;Home
G1 Z15.0 F6000 ;Move the platform down 15mm
;Prime the extruder
G92 E0
G1 F200 E3
G92 E0
G92 E0
G92 E0
G1 F1500 E-6.5
;LAYER_COUNT:9
;LAYER:0
M107
G0 F3600 X19.194 Y21.305 Z0.3
;TYPE:SKIRT
G1 F1500 E0
G1 F1200 X20.276 Y20.367 E0.07144
G1 X21.145 Y19.664 E0.12721
G1 X22.367 Y18.743 E0.20355
G1 X23.221 Y18.141 E0.25568
G1 X24.516 Y17.293 E0.3329
G1 X25.533 Y16.678 E0.3922
G1 X26.723 Y16.012 E0.46023
G1 X27.838 Y15.434 E0.52289
G1 X28.918 Y14.919 E0.58258
G1 X30.216 Y14.353 E0.65323
G1 X31.282 Y13.929 E0.71047
G1 X32.673 Y13.43 E0.78419
G1 X33.743 Y13.086 E0.84027
G1 X35.025 Y12.721 E0.90677
G1 X36.385 Y12.384 E0.97667
G1 X37.542 Y12.136 E1.03571
G1 X38.916 Y11.892 E1.10533
G1 X40.205 Y11.708 E1.17029
G1 X41.505 Y11.568 E1.23552
G1 X42.804 Y11.472 E1.3005
G1 X44.069 Y11.421 E1.36367
G1 X45.271 Y11.411 E1.42364
G1 X46.572 Y11.442 E1.48856
G1 X47.963 Y11.524 E1.55808
G1 X49.143 Y11.632 E1.6172
G1 X50.574 Y11.815 E1.68917
G1 X51.803 Y12.014 E1.75128
G1 X53.12 Y12.272 E1.81824
G1 X54.371 Y12.565 E1.88234
G1 X55.634 Y12.904 E1.94758
G1 X56.822 Y13.265 E2.00953
G1 X58.102 Y13.702 E2.07701
G1 X59.176 Y14.109 E2.13431
G1 X60.522 Y14.671 E2.20708
G1 X61.647 Y15.186 E2.2688
G1 X62.841 Y15.783 E2.3354
G1 X63.989 Y16.406 E2.40057
G1 X65.059 Y17.035 E2.46249
G1 X66.194 Y17.752 E2.52947
G1 X67.247 Y18.469 E2.59303
G1 X68.308 Y19.244 E2.65858
G1 X69.311 Y20.032 E2.72221
G1 X70.243 Y20.813 E2.78288
G1 X71.28 Y21.743 E2.85237
G1 X72.21 Y22.639 E2.9168
G1 X73.049 Y23.499 E2.97674
G1 X74.001 Y24.542 E3.04719
G1 X74.8 Y25.485 E3.10886
G1 X75.645 Y26.549 E3.17664
G1 X76.384 Y27.55 E3.23872
G1 X77.159 Y28.673 E3.30679
G1 X77.849 Y29.75 E3.37061
G1 X78.481 Y30.815 E3.43239
G1 X79.135 Y32.002 E3.5
G1 X79.675 Y33.07 E3.55971
G1 X80.25 Y34.301 E3.62749
G1 X80.764 Y35.511 E3.69308
G1 X81.232 Y36.724 E3.75795
G1 X81.666 Y37.972 E3.82387
G1 X82.035 Y39.161 E3.88598
G1 X82.392 Y40.465 E3.95343
G1 X82.682 Y41.686 E4.01604
G1 X82.922 Y42.858 E4.07572
G1 X83.155 Y44.236 E4.14545
G1 X83.327 Y45.517 E4.20993
G1 X83.456 Y46.815 E4.27501
G1 X83.539 Y48.04 E4.33626
G1 X83.584 Y49.401 E4.4042
G1 X83.582 Y50.708 E4.46941
G1 X83.538 Y51.972 E4.53251
G1 X83.447 Y53.3 E4.59892
G1 X83.325 Y54.498 E4.65899
G1 X83.137 Y55.882 E4.72868
G1 X82.922 Y57.145 E4.79259
G1 X82.657 Y58.426 E4.85786
G1 X82.36 Y59.659 E4.92113
G1 X82 Y60.959 E4.98843
G1 X81.631 Y62.132 E5.04978
G1 X81.19 Y63.391 E5.11633
G1 X80.759 Y64.502 E5.17578
G1 X80.199 Y65.814 E5.24695
G1 X79.67 Y66.941 E5.30907
G1 X79.076 Y68.107 E5.37435
G1 X78.421 Y69.293 E5.44194
G1 X77.785 Y70.353 E5.50362
G1 X77.092 Y71.429 E5.56747
G1 X76.314 Y72.549 E5.6355
G1 X75.571 Y73.547 E5.69758
G1 X74.794 Y74.524 E5.75986
G1 X73.928 Y75.54 E5.82646
G1 X73.041 Y76.51 E5.89204
G1 X72.126 Y77.446 E5.95734
G1 X71.191 Y78.34 E6.02188
G1 X70.232 Y79.196 E6.08601
G1 X69.22 Y80.04 E6.15175
G1 X68.207 Y80.832 E6.2159
G1 X67.149 Y81.599 E6.2811
G1 X66.093 Y82.314 E6.34472
G1 X64.954 Y83.03 E6.41184
G1 X63.89 Y83.65 E6.47328
G1 X62.833 Y84.222 E6.53324
G1 X61.633 Y84.821 E6.60015
G1 X60.409 Y85.38 E6.66729
G1 X59.166 Y85.894 E6.73439
G1 X57.984 Y86.341 E6.79744
G1 X56.705 Y86.772 E6.86477
G1 X55.52 Y87.129 E6.92652
G1 X54.252 Y87.465 E6.99196
G1 X52.994 Y87.754 E7.05636
G1 X51.687 Y88.007 E7.12278
G1 X50.559 Y88.188 E7.17977
G1 X49.13 Y88.369 E7.25164
G1 X47.951 Y88.477 E7.3107
G1 X46.558 Y88.559 E7.38032
G1 X45.258 Y88.589 E7.44519
G1 X43.948 Y88.576 E7.51055
G1 X42.682 Y88.521 E7.57377
G1 X41.382 Y88.421 E7.63882
G1 X40.082 Y88.276 E7.70408
G1 X38.797 Y88.089 E7.76887
G1 X37.533 Y87.862 E7.83294
G1 X36.271 Y87.591 E7.89733
G1 X35.008 Y87.274 E7.9623
G1 X33.733 Y86.909 E8.02846
G1 X32.572 Y86.535 E8.08932
G1 X31.282 Y86.071 E8.15771
G1 X30.104 Y85.6 E8.22101
G1 X28.905 Y85.074 E8.28633
G1 X27.726 Y84.51 E8.35153
G1 X26.621 Y83.934 E8.4137
G1 X25.52 Y83.315 E8.47672
G1 X24.425 Y82.649 E8.54066
G1 X23.209 Y81.851 E8.61322
G1 X22.266 Y81.184 E8.67085
G1 X21.221 Y80.396 E8.73614
G1 X20.179 Y79.552 E8.80304
G1 X19.187 Y78.689 E8.86864
G1 X18.236 Y77.805 E8.93342
G1 X17.362 Y76.935 E8.99494
G1 X16.421 Y75.935 E9.06345
G1 X15.656 Y75.067 E9.12117
G1 X14.748 Y73.962 E9.19253
G1 X13.985 Y72.968 E9.25504
G1 X13.202 Y71.87 E9.32232
G1 X12.561 Y70.908 E9.38
G1 X11.823 Y69.714 E9.45003
G1 X11.169 Y68.571 E9.51572
G1 X10.573 Y67.441 E9.57946
G1 X10.01 Y66.282 E9.64375
G1 X9.47 Y65.064 E9.71022
G1 X9.032 Y63.99 E9.76808
G1 X8.552 Y62.687 E9.83736
G1 X8.171 Y61.534 E9.89794
G1 X7.772 Y60.174 E9.96865
G1 X7.457 Y58.941 E10.03214
G1 X7.177 Y57.669 E10.09712
G1 X6.938 Y56.383 E10.16238
G1 X6.75 Y55.13 E10.22559
G1 X6.595 Y53.81 E10.2919
G1 X6.49 Y52.531 E10.35592
G1 X6.426 Y51.221 E10.42136
G1 X6.406 Y49.938 E10.48538
G1 X6.427 Y48.765 E10.54391
G1 X6.498 Y47.343 E10.61494
G1 X6.608 Y46.064 E10.67898
G1 X6.766 Y44.752 E10.74491
G1 X6.959 Y43.498 E10.80821
G1 X7.18 Y42.317 E10.86815
G1 X7.486 Y40.939 E10.93858
G1 X7.809 Y39.693 E11.0028
G1 X8.144 Y38.551 E11.06217
G1 X8.592 Y37.201 E11.13313
G1 X9.037 Y35.997 E11.19717
G1 X9.515 Y34.826 E11.26028
G1 X10.065 Y33.601 E11.32727
G1 X10.632 Y32.445 E11.3915
G1 X11.229 Y31.322 E11.45496
G1 X11.886 Y30.18 E11.52069
G1 X12.569 Y29.079 E11.58533
G1 X13.209 Y28.12 E11.64285
G1 X14.061 Y26.931 E11.71582
G1 X14.832 Y25.932 E11.77878
G1 X15.596 Y25.004 E11.83875
G1 X16.502 Y23.978 E11.90704
G1 X17.369 Y23.058 E11.97011
G1 X18.323 Y22.114 E12.03707
G1 X19.194 Y21.305 E12.09637
G0 F3600 X19.456 Y21.607
G1 F1200 X20.528 Y20.678 E12.16714
G1 X21.386 Y19.983 E12.22223
G1 X22.597 Y19.07 E12.29789
G1 X23.44 Y18.476 E12.34934
G1 X24.723 Y17.635 E12.42588
G1 X25.729 Y17.027 E12.48452
G1 X26.907 Y16.367 E12.55189
G1 X28.01 Y15.795 E12.61388
G1 X29.078 Y15.286 E12.6729
G1 X30.364 Y14.725 E12.7429
G1 X31.43 Y14.301 E12.80014
G1 X32.795 Y13.811 E12.87249
G1 X33.853 Y13.471 E12.92793
G1 X35.121 Y13.109 E12.99372
G1 X36.469 Y12.775 E13.06301
G1 X37.612 Y12.53 E13.12133
G1 X38.972 Y12.288 E13.19024
G1 X40.248 Y12.106 E13.25455
G1 X41.534 Y11.967 E13.31908
G1 X42.82 Y11.872 E13.38341
G1 X44.072 Y11.821 E13.44593
G1 X45.262 Y11.811 E13.5053
G1 X46.549 Y11.841 E13.56953
G1 X47.926 Y11.922 E13.63834
G1 X49.092 Y12.029 E13.69676
G1 X50.51 Y12.21 E13.76808
G1 X51.726 Y12.407 E13.82954
G1 X53.029 Y12.662 E13.89578
G1 X54.267 Y12.951 E13.9592
G1 X55.518 Y13.287 E14.02382
G1 X56.693 Y13.644 E14.08509
G1 X57.96 Y14.076 E14.15188
G1 X59.022 Y14.478 E14.20853
G1 X60.356 Y15.035 E14.28065
G1 X61.468 Y15.544 E14.34166
G1 X62.65 Y16.135 E14.40759
G1 X63.786 Y16.751 E14.47207
G1 X64.845 Y17.373 E14.53334
G1 X65.969 Y18.083 E14.59967
G1 X67.011 Y18.792 E14.66254
G1 X68.061 Y19.559 E14.72742
G1 X69.054 Y20.339 E14.79041
G1 X69.976 Y21.111 E14.85041
G1 X71.003 Y22.031 E14.9192
G1 X71.924 Y22.918 E14.98299
G1 X72.754 Y23.769 E15.0423
G1 X73.696 Y24.801 E15.11201
G1 X74.487 Y25.734 E15.17303
G1 X75.323 Y26.787 E15.24011
G1 X76.055 Y27.777 E15.30154
G1 X76.822 Y28.889 E15.36893
G1 X77.505 Y29.954 E15.43205
G1 X78.131 Y31.008 E15.49321
G1 X78.778 Y32.183 E15.56013
G1 X79.313 Y33.239 E15.61919
G1 X79.882 Y34.457 E15.68626
G1 X80.391 Y35.655 E15.7512
G1 X80.854 Y36.856 E15.81542
G1 X81.284 Y38.091 E15.88066
G1 X81.649 Y39.267 E15.94209
G1 X82.003 Y40.557 E16.00883
G1 X82.29 Y41.766 E16.07082
G1 X82.528 Y42.925 E16.12985
G1 X82.759 Y44.289 E16.19887
G1 X82.929 Y45.557 E16.2627
G1 X83.057 Y46.842 E16.32712
G1 X83.139 Y48.053 E16.38768
G1 X83.184 Y49.4 E16.45492
G1 X83.182 Y50.694 E16.51948
G1 X83.139 Y51.945 E16.58193
G1 X83.049 Y53.26 E16.64769
G1 X82.929 Y54.444 E16.70706
G1 X82.743 Y55.815 E16.77608
G1 X82.53 Y57.064 E16.8393
G1 X82.268 Y58.333 E16.90394
G1 X81.975 Y59.552 E16.96649
G1 X81.618 Y60.839 E17.03312
G1 X81.253 Y62 E17.09384
G1 X80.817 Y63.246 E17.1597
G1 X80.391 Y64.345 E17.21851
G1 X79.837 Y65.644 E17.28896
G1 X79.313 Y66.76 E17.35047
G1 X78.726 Y67.914 E17.41506
G1 X78.078 Y69.087 E17.48192
G1 X77.449 Y70.136 E17.54294
G1 X76.763 Y71.201 E17.60614
G1 X75.993 Y72.31 E17.6735
G1 X75.258 Y73.298 E17.73494
G1 X74.489 Y74.265 E17.79658
G1 X73.633 Y75.27 E17.86244
G1 X72.755 Y76.23 E17.92734
G1 X71.849 Y77.157 E17.99201
G1 X70.924 Y78.042 E18.05588
G1 X69.976 Y78.889 E18.1193
G1 X68.974 Y79.725 E18.18441
G1 X67.972 Y80.508 E18.24785
G1 X66.925 Y81.268 E18.3124
G1 X65.88 Y81.975 E18.37534
G1 X64.753 Y82.684 E18.44177
G1 X63.699 Y83.298 E18.50263
G1 X62.654 Y83.864 E18.56192
G1 X61.467 Y84.457 E18.62812
G1 X60.256 Y85.01 E18.69453
G1 X59.025 Y85.52 E18.76101
G1 X57.856 Y85.962 E18.82336
G1 X56.59 Y86.389 E18.89002
G1 X55.417 Y86.742 E18.95113
G1 X54.162 Y87.075 E19.01591
G1 X52.918 Y87.361 E19.07959
G1 X51.624 Y87.612 E19.14535
G1 X50.509 Y87.791 E19.20169
G1 X49.093 Y87.971 E19.27291
G1 X47.928 Y88.078 E19.33127
G1 X46.549 Y88.159 E19.40019
G1 X45.262 Y88.189 E19.46442
G1 X43.965 Y88.176 E19.52913
G1 X42.713 Y88.122 E19.59165
G1 X41.426 Y88.023 E19.65605
G1 X40.14 Y87.88 E19.7206
G1 X38.868 Y87.695 E19.78473
G1 X37.617 Y87.471 E19.84813
G1 X36.368 Y87.203 E19.91187
G1 X35.118 Y86.89 E19.97615
G1 X33.856 Y86.528 E20.04165
G1 X32.695 Y86.154 E20.10251
G1 X31.43 Y85.699 E20.16958
G1 X30.265 Y85.234 E20.23216
G1 X29.078 Y84.713 E20.29683
G1 X27.911 Y84.155 E20.36137
G1 X26.817 Y83.585 E20.42291
G1 X25.728 Y82.973 E20.48523
G1 X24.633 Y82.307 E20.54917
G1 X23.44 Y81.524 E20.62037
G1 X22.507 Y80.865 E20.67736
G1 X21.473 Y80.085 E20.74197
G1 X20.441 Y79.25 E20.8082
G1 X19.459 Y78.396 E20.87313
G1 X18.518 Y77.521 E20.93724
G1 X17.653 Y76.661 E20.99809
G1 X16.721 Y75.671 E21.06592
G1 X15.965 Y74.813 E21.12298
G1 X15.065 Y73.718 E21.19369
G1 X14.311 Y72.736 E21.25546
G1 X13.535 Y71.648 E21.32213
G1 X12.901 Y70.697 E21.37915
G1 X12.17 Y69.516 E21.44845
G1 X11.523 Y68.384 E21.5135
G1 X10.933 Y67.266 E21.57657
G1 X10.376 Y66.12 E21.64013
G1 X9.84 Y64.913 E21.70602
G1 X9.407 Y63.852 E21.76319
G1 X8.932 Y62.561 E21.83182
G1 X8.555 Y61.421 E21.89173
G1 X8.16 Y60.075 E21.96171
G1 X7.848 Y58.855 E22.02454
G1 X7.57 Y57.596 E22.08886
G1 X7.334 Y56.323 E22.15345
G1 X7.147 Y55.083 E22.21602
G1 X6.994 Y53.777 E22.28162
G1 X6.89 Y52.511 E22.34499
G1 X6.826 Y51.215 E22.40973
G1 X6.806 Y49.945 E22.4731
G1 X6.826 Y48.785 E22.53098
G1 X6.897 Y47.377 E22.60131
G1 X7.005 Y46.112 E22.66466
G1 X7.161 Y44.813 E22.72993
G1 X7.352 Y43.571 E22.79262
G1 X7.57 Y42.404 E22.85185
G1 X7.873 Y41.039 E22.92161
G1 X8.193 Y39.806 E22.98516
G1 X8.524 Y38.677 E23.04386
G1 X8.967 Y37.34 E23.11413
G1 X9.407 Y36.148 E23.17752
G1 X9.88 Y34.99 E23.23992
G1 X10.424 Y33.777 E23.30625
G1 X10.985 Y32.633 E23.36982
G1 X11.576 Y31.521 E23.43264
G1 X12.226 Y30.391 E23.49768
G1 X12.902 Y29.301 E23.56167
G1 X13.534 Y28.353 E23.61851
G1 X14.378 Y27.175 E23.69081
G1 X15.141 Y26.186 E23.75313
G1 X15.896 Y25.269 E23.81239
G1 X16.793 Y24.252 E23.88004
G1 X17.65 Y23.342 E23.94241
G1 X18.595 Y22.407 E24.00873
G1 X19.456 Y21.607 E24.06737
G1 F1500 E17.56737
;MESH:orta_k??s??m.stl
G0 F3600 X19.893 Y24.669
G0 X20.644 Y25.451
G0 X18.246 Y36.066
G0 X18.389 Y37.172
G0 X19.167 Y38.395
G0 X21.227 Y39.651
G0 X21.19 Y39.352
;TYPE:WALL-INNER
G1 F1500 E24.06737
G1 F1200 X20.42 Y39.256 E24.10608
G1 X19.681 Y38.97 E24.14561
G1 X19.045 Y38.495 E24.18521
G1 X18.558 Y37.915 E24.223
G1 X18.229 Y37.212 E24.26172
G1 X18.125 Y36.765 E24.28462
G1 X18.09 Y36.036 E24.32103
G1 X18.231 Y35.283 E24.35925
G1 X18.526 Y34.652 E24.394
G1 X18.814 Y34.245 E24.41888
G1 X19.352 Y33.743 E24.45559
G1 X19.754 Y33.502 E24.47897
G1 X20.396 Y33.247 E24.51344
G1 X21.12 Y33.15 E24.54988
G1 X21.59 Y33.172 E24.57335
G1 X22.327 Y33.368 E24.6114
G1 X22.997 Y33.736 E24.64954
G1 X23.328 Y34.014 E24.6711
G1 X23.771 Y34.55 E24.70579
G1 X23.994 Y34.94 E24.72821
G1 X24.228 Y35.681 E24.76698
G1 X24.276 Y36.054 E24.78574
G1 X24.234 Y36.776 E24.82182
G1 X24.124 Y37.228 E24.84503
G1 X23.818 Y37.875 E24.88074
G1 X23.555 Y38.242 E24.90326
G1 X23.017 Y38.75 E24.94018
G1 X22.636 Y38.981 E24.96241
G1 X21.95 Y39.258 E24.99931
G1 X21.19 Y39.352 E25.03752
G0 F3600 X21.227 Y39.651
G0 X17.843 Y63.54
G0 X17.893 Y64.349
G0 X18.357 Y65.543
G0 X18.891 Y66.189
G0 X19.57 Y66.683
G0 X21.142 Y67.151
G0 X21.18 Y66.854
G1 F1200 X20.424 Y66.757 E25.07555
G1 X19.683 Y66.471 E25.11517
G1 X19.057 Y66.012 E25.1539
G1 X18.556 Y65.412 E25.1929
G1 X18.228 Y64.718 E25.23119
G1 X18.124 Y64.255 E25.25487
G1 X18.085 Y63.544 E25.29039
G1 X18.234 Y62.788 E25.32884
G1 X18.526 Y62.153 E25.36371
G1 X18.794 Y61.762 E25.38736
G1 X19.348 Y61.246 E25.42513
G1 X19.704 Y61.022 E25.44611
G1 X20.413 Y60.741 E25.48416
G1 X21.159 Y60.645 E25.52168
G1 X21.585 Y60.674 E25.54299
G1 X22.322 Y60.861 E25.58092
G1 X22.995 Y61.231 E25.61924
G1 X23.346 Y61.534 E25.64237
G1 X23.783 Y62.067 E25.67676
G1 X23.99 Y62.439 E25.698
G1 X24.218 Y63.135 E25.73454
G1 X24.276 Y63.557 E25.75579
G1 X24.235 Y64.255 E25.79067
G1 X24.114 Y64.746 E25.8159
G1 X23.817 Y65.376 E25.85065
G1 X23.528 Y65.77 E25.87503
G1 X22.993 Y66.264 E25.91135
G1 X22.675 Y66.461 E25.93002
G1 X21.949 Y66.754 E25.96908
G1 X21.18 Y66.854 E26.00776
G0 F3600 X21.142 Y67.151
G0 X43.572 Y80.527
G0 X45.175 Y80.897
G0 X45.194 Y80.596
G1 F1200 X44.418 Y80.552 E26.04654
G1 X43.674 Y80.307 E26.08562
G1 X43.028 Y79.896 E26.12382
G1 X42.48 Y79.323 E26.16338
G1 X42.111 Y78.635 E26.20233
G1 X41.918 Y77.901 E26.24019
G1 X41.92 Y77.111 E26.2796
G1 X42.114 Y76.358 E26.3184
G1 X42.479 Y75.681 E26.35677
G1 X43.018 Y75.104 E26.39616
G1 X43.678 Y74.691 E26.435
G1 X44.416 Y74.444 E26.47383
G1 X45.188 Y74.404 E26.5124
G1 X45.957 Y74.544 E26.55139
G1 X46.678 Y74.894 E26.59138
G1 X47.257 Y75.369 E26.62874
G1 X47.72 Y76.008 E26.66811
G1 X48 Y76.724 E26.70647
G1 X48.1 Y77.493 E26.74516
G1 X48.008 Y78.262 E26.78379
G1 X47.718 Y78.998 E26.82326
G1 X47.257 Y79.626 E26.86213
G1 X46.649 Y80.125 E26.90137
G1 X45.954 Y80.452 E26.93969
G1 X45.194 Y80.596 E26.97828
G0 F3600 X45.175 Y80.897
G0 X44.736 Y84.098
G0 X44.737 Y84.396
G1 F1200 X45.893 Y84.387 E27.03596
G1 X47.016 Y84.341 E27.09203
G1 X48.201 Y84.247 E27.15133
G1 X49.358 Y84.119 E27.20941
G1 X50.459 Y83.96 E27.26491
G1 X51.601 Y83.759 E27.32276
G1 X52.728 Y83.519 E27.38025
G1 X53.797 Y83.252 E27.43522
G1 X54.994 Y82.913 E27.49728
G1 X56.007 Y82.587 E27.55038
G1 X57.179 Y82.17 E27.61244
G1 X58.228 Y81.75 E27.66881
G1 X59.287 Y81.289 E27.72643
G1 X60.332 Y80.79 E27.78421
G1 X61.355 Y80.259 E27.84171
G1 X62.365 Y79.693 E27.89947
G1 X63.399 Y79.064 E27.95986
G1 X64.318 Y78.459 E28.01475
G1 X65.262 Y77.795 E28.07233
G1 X66.186 Y77.095 E28.13016
G1 X67.082 Y76.372 E28.1876
G1 X67.955 Y75.613 E28.24531
G1 X68.804 Y74.826 E28.30307
G1 X69.626 Y74.012 E28.36079
G1 X70.42 Y73.171 E28.41849
G1 X71.182 Y72.303 E28.47611
G1 X71.946 Y71.374 E28.53612
G1 X72.622 Y70.498 E28.59132
G1 X73.294 Y69.559 E28.64893
G1 X73.952 Y68.568 E28.70828
G1 X74.544 Y67.612 E28.76438
G1 X75.118 Y66.61 E28.82199
G1 X75.661 Y65.587 E28.87977
G1 X76.167 Y64.55 E28.93734
G1 X76.635 Y63.497 E28.99483
G1 X77.072 Y62.423 E29.05268
G1 X77.473 Y61.338 E29.11038
G1 X77.835 Y60.241 E29.16802
G1 X78.161 Y59.132 E29.22569
G1 X78.448 Y58.012 E29.28337
G1 X78.7 Y56.883 E29.34108
G1 X78.912 Y55.747 E29.39873
G1 X79.093 Y54.559 E29.45869
G1 X79.222 Y53.46 E29.51389
G1 X79.317 Y52.308 E29.57156
G1 X79.376 Y51.151 E29.62936
G1 X79.395 Y49.997 E29.68694
G1 X79.376 Y48.841 E29.74462
G1 X79.317 Y47.688 E29.80222
G1 X79.222 Y46.537 E29.85984
