;FLAVOR:Marlin
;TIME:19476
;Filament used: 16.8752m
;Layer height: 0.2
;MINX:3.613
;MINY:10.968
;MINZ:0.36
;MAXX:83.955
;MAXY:95.848
;MAXZ:91.11
;TARGET_MACHINE.NAME:Unknown
;Generated with Cura_SteamEngine 5.7.2
M104 S200
M105
M109 S200
M82 ;absolute extrusion mode
G28 ;Home
G1 Z15.0 F6000 ;Move the platform down 15mm
;Prime the extruder
G92 E0
G1 F200 E3
G92 E0
G92 E0
G92 E0
G1 F1500 E-6.5
;LAYER_COUNT:449
;LAYER:-6
M107
G0 F7200 X9.767 Y14.076 Z0.36
;TYPE:SUPPORT-INTERFACE
G1 F1500 E0
G1 F900 X10.773 Y13.355 E0.1482
G1 X11.608 Y12.85 E0.26504
G1 X12.539 Y12.37 E0.39046
G1 X13.524 Y11.946 E0.51886
G1 X14.544 Y11.6 E0.64783
G1 X15.643 Y11.311 E0.78389
G1 X16.733 Y11.113 E0.91654
G1 X17.665 Y11.016 E1.02874
G1 X18.8 Y10.972 E1.16474
G1 X21.343 Y10.973 E1.46923
G1 X22.479 Y11.02 E1.60537
G1 X23.319 Y11.105 E1.70646
G1 X24.604 Y11.343 E1.86294
G1 X25.727 Y11.636 E2.0019
G1 X26.665 Y11.943 E2.12008
G1 X27.477 Y12.239 E2.22356
G1 X28.151 Y12.379 E2.30599
G1 X28.957 Y12.444 E2.40281
G1 X58.461 Y12.441 E5.93551
G1 X59.135 Y12.4 E6.01637
G1 X59.781 Y12.277 E6.09511
G1 X60.457 Y12.057 E6.18023
G1 X60.847 Y11.905 E6.23034
G1 X61.704 Y11.625 E6.3383
G1 X62.965 Y11.304 E6.4941
G1 X64.06 Y11.109 E6.62727
G1 X65.065 Y11.004 E6.74826
G1 X66.024 Y10.968 E6.86317
G1 X68.603 Y10.968 E7.17197
G1 X69.774 Y11.016 E7.3123
G1 X70.615 Y11.105 E7.41356
G1 X71.747 Y11.308 E7.55127
G1 X72.691 Y11.549 E7.66792
G1 X73.771 Y11.907 E7.80416
G1 X74.843 Y12.355 E7.94327
G1 X75.704 Y12.798 E8.05921
G1 X76.621 Y13.352 E8.18749
G1 X77.56 Y14.014 E8.32506
G1 X78.309 Y14.636 E8.44163
G1 X79.076 Y15.367 E8.5685
G1 X79.868 Y16.249 E8.71044
G1 X80.451 Y16.999 E8.82418
G1 X81.05 Y17.894 E8.95313
G1 X81.656 Y18.977 E9.10172
G1 X82.028 Y19.755 E9.20498
G1 X82.472 Y20.912 E9.35337
G1 X82.776 Y21.952 E9.4831
G1 X83.002 Y22.979 E9.60901
G1 X83.229 Y24.594 E9.80429
G1 X83.236 Y24.699 E9.81689
G1 X83.424 Y25.734 E9.94284
G1 X83.499 Y26.33 E10.01477
G1 X83.783 Y27.949 E10.21158
G1 X83.901 Y29.012 E10.33965
G1 X83.955 Y30.137 E10.4745
G1 X83.924 Y31.254 E10.6083
G1 X83.873 Y31.886 E10.68422
G1 X83.59 Y34.519 E11.0013
G1 X83.445 Y35.573 E11.12869
G1 X83.224 Y36.575 E11.25155
G1 X82.805 Y37.984 E11.42756
G1 X82.345 Y39.138 E11.57631
G1 X81.811 Y40.235 E11.7224
G1 X81.274 Y41.153 E11.84974
G1 X80.667 Y42.032 E11.97765
G1 X79.862 Y43.028 E12.13099
G1 X78.959 Y43.982 E12.28827
G1 X78.315 Y44.572 E12.39285
G1 X77.484 Y45.243 E12.52074
G1 X76.592 Y45.858 E12.65047
G1 X75.625 Y46.425 E12.78469
G1 X74.105 Y47.138 E12.98572
G1 X72.833 Y47.607 E13.14804
G1 X71.726 Y47.914 E13.2856
G1 X71.407 Y47.98 E13.3246
G1 X70.719 Y48.175 E13.41022
G1 X70.104 Y48.43 E13.48994
G1 X69.528 Y48.763 E13.56961
G1 X68.977 Y49.181 E13.65242
G1 X68.512 Y49.629 E13.72973
G1 X68.062 Y50.192 E13.81603
G1 X67.718 Y50.769 E13.89646
G1 X67.445 Y51.387 E13.97736
G1 X67.245 Y52.04 E14.05913
G1 X67.133 Y52.715 E14.14106
G1 X67.1 Y53.48 E14.23274
G1 X67.153 Y54.101 E14.30737
G1 X67.213 Y54.578 E14.36493
G1 X67.3 Y55.97 E14.53193
G1 X67.386 Y56.654 E14.61448
G1 X67.558 Y57.314 E14.69614
G1 X67.805 Y57.923 E14.77483
G1 X68.144 Y58.541 E14.85923
G1 X68.535 Y59.079 E14.93886
G1 X68.989 Y59.559 E15.01797
G1 X69.534 Y60.008 E15.10252
G1 X70.224 Y60.442 E15.20013
G1 X71.328 Y60.922 E15.34427
G1 X72.254 Y61.401 E15.4691
G1 X73.18 Y61.976 E15.59961
G1 X74.042 Y62.605 E15.72738
G1 X74.718 Y63.164 E15.83241
G1 X75.485 Y63.896 E15.95936
G1 X76.276 Y64.773 E16.10078
G1 X76.855 Y65.523 E16.21422
G1 X77.459 Y66.418 E16.34351
G1 X78.064 Y67.5 E16.49194
G1 X78.448 Y68.314 E16.59971
G1 X78.864 Y69.389 E16.73773
G1 X79.184 Y70.477 E16.87352
G1 X79.378 Y71.334 E16.97873
G1 X79.553 Y72.517 E17.12192
G1 X79.644 Y74.172 E17.32038
G1 X79.648 Y81.229 E18.16536
G1 X79.612 Y82.219 E18.28398
G1 X79.475 Y83.465 E18.43407
G1 X79.317 Y84.325 E18.53877
G1 X79.052 Y85.358 E18.66646
G1 X78.713 Y86.375 E18.79482
G1 X78.273 Y87.427 E18.93135
G1 X77.75 Y88.444 E19.06828
G1 X77.226 Y89.301 E19.18856
G1 X76.525 Y90.268 E19.33157
G1 X75.848 Y91.066 E19.45687
G1 X75.119 Y91.81 E19.58159
G1 X74.402 Y92.453 E19.69691
G1 X73.582 Y93.094 E19.82153
G1 X72.589 Y93.745 E19.9637
G1 X71.668 Y94.256 E20.08982
G1 X70.877 Y94.632 E20.19468
G1 X69.79 Y95.057 E20.33443
G1 X68.663 Y95.388 E20.47507
G1 X67.779 Y95.586 E20.58354
G1 X66.56 Y95.766 E20.73109
G1 X65.66 Y95.832 E20.83914
G1 X64.991 Y95.848 E20.91926
G1 X62.373 Y95.848 E21.23273
G1 X61.238 Y95.8 E21.36876
G1 X60.397 Y95.711 E21.47002
G1 X59.269 Y95.508 E21.60725
G1 X58.25 Y95.251 E21.73308
G1 X57.406 Y94.982 E21.83915
G1 X56.826 Y94.822 E21.91119
G1 X56.042 Y94.713 E22.00597
G1 X31.796 Y94.712 E24.9091
G1 X31.121 Y94.756 E24.99009
G1 X30.464 Y94.881 E25.07017
G1 X29.782 Y95.097 E25.15583
G1 X28.836 Y95.38 E25.27406
G1 X27.728 Y95.618 E25.40975
G1 X26.724 Y95.765 E25.53125
G1 X25.101 Y95.848 E25.72583
G1 X22.341 Y95.848 E26.05631
G1 X21.206 Y95.8 E26.19233
G1 X20.365 Y95.711 E26.29359
G1 X19.237 Y95.508 E26.43082
G1 X18.288 Y95.271 E26.54794
G1 X17.213 Y94.913 E26.68361
G1 X16.137 Y94.465 E26.82317
G1 X15.272 Y94.018 E26.93975
G1 X14.361 Y93.465 E27.06735
G1 X13.345 Y92.739 E27.21687
G1 X12.675 Y92.181 E27.32128
G1 X11.899 Y91.44 E27.44975
G1 X11.175 Y90.646 E27.57841
G1 X10.521 Y89.805 E27.70597
G1 X9.922 Y88.91 E27.83492
G1 X9.325 Y87.841 E27.98153
G1 X8.941 Y87.023 E28.08973
G1 X8.504 Y85.875 E28.23681
G1 X8.204 Y84.867 E28.36273
G1 X8.002 Y83.96 E28.474
G1 X7.831 Y82.753 E28.61996
G1 X7.749 Y81.598 E28.7586
G1 X7.752 Y74.151 E29.65028
G1 X7.788 Y73.113 E29.77464
G1 X7.917 Y71.931 E29.91701
G1 X8.119 Y70.85 E30.04869
G1 X8.403 Y69.798 E30.17916
G1 X8.691 Y68.958 E30.28549
G1 X9.111 Y67.95 E30.41624
G1 X9.669 Y66.873 E30.56147
G1 X10.19 Y66.022 E30.68095
G1 X10.766 Y65.22 E30.79918
G1 X11.397 Y64.445 E30.91884
G1 X12.16 Y63.647 E31.05104
G1 X12.938 Y62.943 E31.17667
G1 X13.898 Y62.198 E31.32217
G1 X14.694 Y61.669 E31.43661
G1 X15.613 Y61.148 E31.5631
G1 X16.797 Y60.595 E31.71957
G1 X17.343 Y60.33 E31.79224
G1 X17.904 Y59.971 E31.87199
G1 X18.397 Y59.559 E31.94892
G1 X18.895 Y59.027 E32.03617
G1 X19.312 Y58.443 E32.12209
G1 X19.621 Y57.858 E32.20131
G1 X19.857 Y57.252 E32.27918
G1 X20.03 Y56.563 E32.36424
G1 X20.106 Y55.842 E32.45105
G1 X20.144 Y54.959 E32.55687
G1 X20.25 Y53.996 E32.67287
G1 X20.292 Y53.423 E32.74167
G1 X20.26 Y52.674 E32.83143
G1 X20.143 Y51.907 E32.92433
G1 X19.921 Y51.168 E33.01672
G1 X19.64 Y50.544 E33.09867
G1 X19.306 Y49.988 E33.17633
G1 X18.866 Y49.432 E33.26123
G1 X18.384 Y48.963 E33.34175
G1 X17.883 Y48.581 E33.41719
G1 X17.259 Y48.219 E33.50357
G1 X16.463 Y47.896 E33.60642
G1 X14.736 Y47.456 E33.81981
G1 X13.49 Y47.019 E33.97792
G1 X12.524 Y46.602 E34.1039
G1 X11.708 Y46.178 E34.21401
G1 X10.722 Y45.582 E34.35196
G1 X9.78 Y44.897 E34.49142
G1 X8.855 Y44.112 E34.63668
G1 X8.064 Y43.329 E34.76995
G1 X7.252 Y42.4 E34.91769
G1 X6.611 Y41.537 E35.0464
G1 X6.03 Y40.613 E35.17709
G1 X5.609 Y39.842 E35.28228
G1 X5.211 Y39.004 E35.39336
G1 X4.762 Y37.874 E35.53895
G1 X4.462 Y36.917 E35.65904
G1 X4.194 Y35.807 E35.79576
G1 X3.993 Y34.438 E35.96144
G1 X3.683 Y31.494 E36.31589
G1 X3.613 Y30.393 E36.44799
G1 X3.624 Y29.335 E36.57468
G1 X3.71 Y28.319 E36.69676
G1 X3.811 Y27.728 E36.76855
G1 X3.87 Y27.209 E36.8311
G1 X3.931 Y26.319 E36.93791
G1 X4.055 Y25.462 E37.0416
G1 X4.122 Y25.106 E37.08497
G1 X4.22 Y24.434 E37.16628
G1 X4.266 Y23.878 E37.23309
G1 X4.418 Y22.868 E37.35538
G1 X4.683 Y21.741 E37.494
G1 X4.982 Y20.761 E37.61669
G1 X5.395 Y19.725 E37.75023
G1 X5.855 Y18.767 E37.87747
G1 X6.373 Y17.862 E38.00233
G1 X6.87 Y17.109 E38.11036
G1 X7.608 Y16.153 E38.25497
G1 X8.244 Y15.451 E38.36839
G1 X9.008 Y14.718 E38.49516
G1 X9.767 Y14.076 E38.61419
G0 F7200 X9.934 Y14.46
G1 F900 X79.049 Y83.574 E50.31755
G0 F7200 X78.615 Y85.404
G1 F900 X8.741 Y15.529 E62.14961
G0 F7200 X7.672 Y16.723
G1 F900 X77.997 Y87.048 E74.05795
G0 F7200 X77.225 Y88.538
G1 F900 X6.731 Y18.045 E85.99482
G0 F7200 X5.939 Y19.515
G1 F900 X76.309 Y89.885 E97.91079
G0 F7200 X75.258 Y91.097
G1 F900 X5.288 Y21.127 E109.75901
G0 F7200 X4.817 Y22.919
G1 F900 X74.088 Y92.19 E121.48888
G0 F7200 X72.778 Y93.142
G1 F900 X4.553 Y24.918 E133.04153
G0 F7200 X4.29 Y26.917
G1 F900 X71.341 Y93.968 E144.39548
G0 F7200 X69.752 Y94.642
G1 F900 X4.058 Y28.948 E155.51964
G0 F7200 X4.067 Y31.219
G1 F900 X67.978 Y95.131 E166.34196
G0 F7200 X65.99 Y95.406
G1 F900 X4.321 Y33.737 E176.78456
G0 F7200 X4.757 Y36.435
G1 F900 X15.579 Y47.257 E178.61708
G0 F7200 X11.864 Y45.805
G1 F900 X6.261 Y40.203 E179.56576
G0 F7200 X18.086 Y49.316
G0 X20.604 Y52.282
G1 F900 X63.77 Y95.448 E186.87519
G0 F7200 X61.468 Y95.409
G1 F900 X20.592 Y54.533 E193.79685
G0 F7200 X20.423 Y56.627
G1 F900 X58.764 Y94.968 E200.28924
G0 F7200 X55.847 Y94.314
G1 F900 X19.836 Y58.303 E206.38709
G0 F7200 X18.889 Y59.618
G1 F900 X53.585 Y94.314 E212.26227
G0 F7200 X51.322 Y94.314
G1 F900 X17.629 Y60.621 E217.9676
G0 F7200 X16.105 Y61.36
G1 F900 X49.058 Y94.313 E223.54763
G0 F7200 X46.796 Y94.313
G1 F900 X14.657 Y62.174 E228.98982
G0 F7200 X13.35 Y63.13
G1 F900 X44.533 Y94.313 E234.27013
G0 F7200 X42.269 Y94.312
G1 F900 X12.171 Y64.214 E239.36672
G0 F7200 X11.116 Y65.422
G1 F900 X40.007 Y94.312 E244.25883
G0 F7200 X37.743 Y94.312
G1 F900 X10.201 Y66.769 E248.92268
G0 F7200 X9.419 Y68.251
G1 F900 X35.48 Y94.312 E253.33567
G0 F7200 X33.218 Y94.312
G1 F900 X8.794 Y69.888 E257.47146
G0 F7200 X8.363 Y71.72
G1 F900 X31.013 Y94.37 E261.30685
G0 F7200 X29.226 Y94.846
G1 F900 X8.165 Y73.784 E264.87326
G0 F7200 X8.151 Y76.033
G1 F900 X27.381 Y95.264 E268.12961
G0 F7200 X25.293 Y95.437
G1 F900 X8.15 Y78.295 E271.0324
G0 F7200 X8.149 Y80.556
G1 F900 X23.04 Y95.448 E273.55403
G0 F7200 X20.67 Y95.341
G1 F900 X8.26 Y82.93 E275.65553
G0 F7200 X8.926 Y85.859
G1 F900 X17.73 Y94.663 E277.14634
G0 F7200 X67.81 Y58.759
G1 F900 X20.424 Y11.373 E285.17035
G0 F7200 X18.185 Y11.396
G1 F900 X79.122 Y72.334 E295.48908
G0 F7200 X79.245 Y74.719
G1 F900 X16.151 Y11.626 E306.17289
G0 F7200 X14.351 Y12.089
G1 F900 X79.245 Y76.983 E317.16158
G0 F7200 X79.247 Y79.247
G1 F900 X12.726 Y12.726 E328.42578
G0 F7200 X11.264 Y13.526
G1 F900 X79.238 Y81.5 E339.93602
G0 F7200 X78.433 Y69.382
G1 F900 X69.526 Y60.475 E341.44427
G0 F7200 X66.875 Y55.561
G1 F900 X22.765 Y11.451 E348.91354
G0 F7200 X25.591 Y12.014
G1 F900 X66.714 Y53.138 E355.87711
G0 F7200 X67.075 Y51.236
G1 F900 X28.66 Y12.821 E362.38203
G0 F7200 X30.946 Y12.844
G1 F900 X67.882 Y49.78 E368.63652
G0 F7200 X69.015 Y48.65
G1 F900 X33.209 Y12.844 E374.69965
G0 F7200 X35.471 Y12.844
G1 F900 X70.472 Y47.844 E380.62639
G0 F7200 X72.245 Y47.355
G1 F900 X37.733 Y12.843 E386.47041
G0 F7200 X39.996 Y12.843
G1 F900 X73.929 Y46.777 E392.21647
G0 F7200 X75.469 Y46.053
G1 F900 X42.259 Y12.843 E397.84002
G0 F7200 X44.521 Y12.842
G1 F900 X76.863 Y45.184 E403.31658
G0 F7200 X78.135 Y44.193
G1 F900 X46.784 Y12.842 E408.62534
G0 F7200 X49.046 Y12.842
G1 F900 X79.273 Y43.069 E413.74377
G0 F7200 X80.308 Y41.841
G1 F900 X51.308 Y12.842 E418.65434
G0 F7200 X53.571 Y12.842
G1 F900 X81.206 Y40.477 E423.33386
G0 F7200 X81.976 Y38.984
G1 F900 X55.834 Y12.842 E427.76056
G0 F7200 X58.097 Y12.842
G1 F900 X82.584 Y37.329 E431.90702
G0 F7200 X83.046 Y35.529
G1 F900 X60.108 Y12.591 E435.79118
G0 F7200 X61.796 Y12.016
G1 F900 X83.296 Y33.515 E439.43175
G0 F7200 X83.506 Y31.463
G1 F900 X63.634 Y11.591 E442.79673
G0 F7200 X65.687 Y11.381
G1 F900 X83.51 Y29.204 E445.81476
G0 F7200 X83.135 Y26.567
G1 F900 X67.936 Y11.367 E448.38853
G0 F7200 X70.306 Y11.475
G1 F900 X82.727 Y23.896 E450.49182
G0 F7200 X82.068 Y20.973
G1 F900 X73.251 Y12.157 E451.98474
G0 F600 X73.251 Y12.157 Z0.66
G0 F7200 X76.382 Y45.521
;TIME_ELAPSED:257.883455
;LAYER:-5
;TYPE:SUPPORT
G1 F900 X77.243 Y44.927 E452.08911
G1 X78.061 Y44.268 E452.19392
G1 X78.693 Y43.686 E452.27965
G1 X79.568 Y42.763 E452.40656
G1 X80.436 Y41.674 E452.54551
G1 X80.943 Y40.929 E452.63543
G1 X81.3 Y40.323 E452.70561
G1 X75.647 Y45.976 E453.50331
G1 X73.968 Y46.765 E453.68841
G1 X73.137 Y47.071 E453.77677
G1 X82.449 Y37.759 E455.0908
G1 X82.818 Y36.567 E455.2153
G1 X82.984 Y35.81 E455.29263
G1 X71.158 Y47.636 E456.96141
G1 X70.593 Y47.795 E457.01997
G1 X69.923 Y48.076 E457.09247
G1 X69.312 Y48.427 E457.16278
G1 X68.722 Y48.873 E457.23658
G1 X68.211 Y49.372 E457.30784
G1 X67.728 Y49.98 E457.38532
G1 X67.351 Y50.612 E457.45875
G1 X67.071 Y51.243 E457.52763
G0 F7200 X67.838 Y56.553
G0 X78.625 Y85.423
G1 F900 X78.509 Y85.54 E457.54407
G0 F7200 X77.593 Y87.87
G1 F900 X71.652 Y93.811 E458.38241
G0 F7200 X72.395 Y93.397
G1 F900 X73.248 Y92.838 E458.48417
G1 X74.146 Y92.153 E458.59687
G1 X74.971 Y91.401 E458.70825
G1 X75.698 Y90.636 E458.81356
G1 X76.354 Y89.836 E458.91679
G1 X76.85 Y89.14 E459.00206
G1 X77.387 Y88.271 E459.10399
G1 X77.942 Y87.19 E459.22524
G1 X78.298 Y86.343 E459.31692
G1 X78.338 Y85.711 E459.3801
G1 X69.374 Y94.675 E460.64502
G1 X68.933 Y94.73 E460.68937
G1 X68.983 Y94.881 E460.70524
G1 X68.572 Y95.002 E460.74799
G1 X67.706 Y95.197 E460.83656
G1 X67.389 Y95.246 E460.86857
G1 X79.042 Y83.593 E462.51293
G1 X79.11 Y83.209 E462.55184
G1 X79.236 Y81.984 E462.67472
G1 X65.785 Y95.436 E464.57287
G1 X64.357 Y95.45 E464.71536
G1 X79.248 Y80.558 E466.81671
G1 X79.247 Y79.145 E466.9577
G1 X62.944 Y95.448 E469.25823
G1 X62.393 Y95.447 E469.31321
G1 X61.563 Y95.415 E469.39609
G1 X79.246 Y77.732 E471.89135
G1 X79.245 Y76.319 E472.03234
G1 X60.276 Y95.288 E474.70907
G1 X59.08 Y95.07 E474.83038
G1 X79.244 Y74.905 E477.67581
G1 X79.244 Y74.802 E477.68608
G1 X79.132 Y74.802 E477.69726
G1 X79.237 Y73.961 E477.78183
G1 X79.212 Y73.523 E477.8256
G1 X57.985 Y94.75 E480.82096
G1 X57.575 Y94.613 E480.86409
G1 X56.892 Y94.429 E480.93467
G1 X79.108 Y72.213 E484.06959
G1 X78.991 Y71.439 E484.1477
G1 X78.895 Y71.012 E484.19137
G1 X55.593 Y94.313 E487.47946
G1 X54.179 Y94.313 E487.62055
G1 X78.505 Y69.987 E491.05321
G1 X78.466 Y69.901 E491.06264
G1 X78.607 Y69.854 E491.07747
G1 X78.224 Y68.854 E491.18431
G1 X52.765 Y94.313 E494.77685
G1 X51.351 Y94.313 E494.91794
G1 X77.807 Y67.857 E498.65117
G1 X77.299 Y66.951 E498.75481
G1 X49.937 Y94.313 E502.61589
G1 X48.522 Y94.313 E502.75708
G1 X76.752 Y66.083 E506.74063
G1 X76.531 Y65.755 E506.7801
G1 X76.152 Y65.269 E506.84159
G1 X47.108 Y94.313 E510.94001
G1 X45.694 Y94.313 E511.0811
G1 X75.516 Y64.491 E515.28931
G1 X74.799 Y63.794 E515.38909
G1 X44.28 Y94.313 E519.69565
G1 X42.865 Y94.314 E519.83684
G1 X74.048 Y63.13 E524.23716
G1 X73.781 Y62.906 E524.27194
G1 X73.246 Y62.518 E524.33788
G1 X41.451 Y94.314 E528.82457
G1 X40.036 Y94.314 E528.96576
G1 X72.327 Y62.023 E533.52237
G1 X71.973 Y61.704 E533.56992
G1 X71.444 Y61.492 E533.62678
G1 X38.622 Y94.314 E538.25832
G1 X37.208 Y94.314 E538.39941
G1 X70.518 Y61.004 E543.09981
G1 X69.904 Y60.714 E543.16757
G1 X69.591 Y60.517 E543.20447
G1 X35.794 Y94.314 E547.97359
G1 X34.38 Y94.314 E548.11468
G1 X68.777 Y59.917 E552.96847
G1 X68.241 Y59.347 E553.04654
G1 X68.111 Y59.169 E553.06853
G1 X32.965 Y94.314 E558.02794
G1 X31.551 Y94.314 E558.16903
G1 X67.559 Y58.306 E563.25015
G1 X67.428 Y58.064 E563.27761
G1 X67.132 Y57.318 E563.35769
G1 X29.767 Y94.684 E568.63037
G1 X28.651 Y95.014 E568.74649
G1 X27.847 Y95.19 E568.82861
G1 X66.916 Y56.12 E574.34174
G1 X66.828 Y54.794 E574.47434
G1 X26.23 Y95.392 E580.20315
G1 X25.103 Y95.45 E580.31576
G1 X24.758 Y95.45 E580.35018
G1 X66.703 Y53.505 E586.26907
G1 X66.733 Y52.699 E586.34955
G1 X66.865 Y51.929 E586.4275
G1 X23.344 Y95.45 E592.56879
G1 X21.931 Y95.449 E592.70978
G1 X83.226 Y34.153 E601.35923
G1 X83.394 Y32.571 E601.51797
G1 X20.632 Y95.334 E610.37444
G1 X20.189 Y95.282 E610.41895
