;FLAVOR:Marlin
;TIME:5676
;Filament used: 4.54707m
;Layer height: 0.2
;MINX:7.802
;MINY:12.844
;MINZ:0.3
;MAXX:82.189
;MAXY:87.157
;MAXZ:16.9
;TARGET_MACHINE.NAME:Unknown
;Generated with Cura_SteamEngine 5.7.2
M104 S200
M105
M109 S200
M82 ;absolute extrusion mode
G28 ;Home
G1 Z15.0 F6000 ;Move the platform down 15mm
;Prime the extruder
G92 E0
G1 F200 E3
G92 E0
G92 E0
G92 E0
G1 F1500 E-6.5
;LAYER_COUNT:84
;LAYER:0
M107
G0 F3600 X19.977 Y22.49 Z0.3
;TYPE:SKIRT
G1 F1500 E0
G1 F1200 X22.317 Y20.53 E0.15229
G1 X23.175 Y19.888 E0.20575
G1 X26.015 Y18.017 E0.37542
G1 X26.981 Y17.471 E0.43078
G1 X29.647 Y16.132 E0.57962
G1 X30.266 Y15.85 E0.61356
G1 X30.878 Y15.599 E0.64656
G1 X34.007 Y14.463 E0.81263
G1 X34.963 Y14.195 E0.86217
G1 X38.197 Y13.436 E1.0279
G1 X39.033 Y13.293 E1.07021
G1 X42.29 Y12.91 E1.23382
G1 X42.852 Y12.868 E1.26194
G1 X43.506 Y12.844 E1.29459
G1 X45.853 Y12.85 E1.41168
G1 X46.54 Y12.844 E1.44596
G1 X47.085 Y12.864 E1.47317
G1 X47.81 Y12.92 E1.50944
G1 X50.649 Y13.249 E1.65203
G1 X51.862 Y13.441 E1.7133
G1 X55.059 Y14.2 E1.87723
G1 X55.791 Y14.408 E1.9152
G1 X56.291 Y14.569 E1.9414
G1 X59.18 Y15.623 E2.09483
G1 X59.759 Y15.863 E2.1261
G1 X60.326 Y16.12 E2.15716
G1 X63.263 Y17.6 E2.32124
G1 X64.16 Y18.129 E2.37319
G1 X66.734 Y19.825 E2.52698
G1 X67.212 Y20.17 E2.55639
G1 X67.726 Y20.565 E2.58873
G1 X69.937 Y22.417 E2.73262
G1 X70.811 Y23.214 E2.79163
G1 X73.136 Y25.681 E2.96076
G1 X73.79 Y26.458 E3.01143
G1 X75.872 Y29.258 E3.18551
G1 X76.422 Y30.111 E3.23614
G1 X78.007 Y32.863 E3.39458
G1 X78.267 Y33.365 E3.42279
G1 X78.517 Y33.892 E3.45189
G1 X79.744 Y36.74 E3.6066
G1 X80.161 Y37.895 E3.66786
G1 X81.044 Y40.846 E3.82154
G1 X81.327 Y42.05 E3.88324
G1 X81.897 Y45.317 E4.0487
G1 X82.005 Y46.313 E4.09868
G1 X82.189 Y49.609 E4.26337
G1 X82.181 Y50.641 E4.31486
G1 X81.999 Y53.759 E4.47069
G1 X81.855 Y54.965 E4.53128
G1 X81.356 Y57.799 E4.67484
G1 X81.104 Y58.957 E4.73397
G1 X80.444 Y61.183 E4.8498
G1 X80.182 Y62.032 E4.89413
G1 X79.921 Y62.795 E4.93436
G1 X79.708 Y63.348 E4.96393
G1 X78.49 Y66.168 E5.11718
G1 X78.019 Y67.115 E5.16995
G1 X76.422 Y69.89 E5.32968
G1 X75.711 Y70.97 E5.39419
G1 X73.688 Y73.683 E5.56303
G1 X73.065 Y74.399 E5.61038
G1 X71.45 Y76.1 E5.7274
G1 X70.864 Y76.73 E5.77033
G1 X70.068 Y77.47 E5.82455
G1 X67.548 Y79.576 E5.9884
G1 X66.677 Y80.215 E6.04229
G1 X64.076 Y81.924 E6.19756
G1 X63.027 Y82.525 E6.25788
G1 X60.271 Y83.908 E6.41171
G1 X59.138 Y84.395 E6.47324
G1 X56.3 Y85.428 E6.62392
G1 X55.673 Y85.63 E6.65678
G1 X55.032 Y85.807 E6.68996
G1 X51.813 Y86.562 E6.85491
G1 X50.968 Y86.707 E6.89769
G1 X47.71 Y87.09 E7.06135
G1 X47.148 Y87.132 E7.08946
G1 X46.494 Y87.156 E7.12211
G1 X44.146 Y87.15 E7.23926
G1 X43.338 Y87.157 E7.27957
G1 X42.19 Y87.08 E7.33697
G1 X39.351 Y86.751 E7.47956
G1 X38.138 Y86.559 E7.54083
G1 X34.941 Y85.8 E7.70476
G1 X34.209 Y85.592 E7.74273
G1 X33.71 Y85.432 E7.76887
G1 X30.844 Y84.387 E7.92106
G1 X30.234 Y84.134 E7.95401
G1 X29.674 Y83.88 E7.98469
G1 X26.891 Y82.483 E8.14004
G1 X25.836 Y81.869 E8.20094
G1 X23.497 Y80.331 E8.3406
G1 X22.477 Y79.603 E8.40312
G1 X20.089 Y77.6 E8.55862
G1 X19.185 Y76.781 E8.61948
G1 X16.838 Y74.29 E8.79023
G1 X16.499 Y73.896 E8.81616
G1 X16.079 Y73.376 E8.84951
G1 X14.229 Y70.887 E9.00423
G1 X13.665 Y70.03 E9.05541
G1 X12.051 Y67.241 E9.21618
G1 X11.479 Y66.103 E9.27972
G1 X10.197 Y63.113 E9.44202
G1 X9.837 Y62.102 E9.49557
G1 X8.96 Y59.168 E9.64834
G1 X8.708 Y58.116 E9.70231
G1 X8.103 Y54.681 E9.87632
G1 X7.995 Y53.684 E9.92635
G1 X7.802 Y50.313 E10.09481
G1 X7.814 Y49.488 E10.13597
G1 X8.007 Y46.176 E10.30149
G1 X8.124 Y45.171 E10.35197
G1 X8.745 Y41.672 E10.52926
G1 X8.965 Y40.815 E10.5734
G1 X9.824 Y37.95 E10.72263
G1 X10.09 Y37.179 E10.76332
G1 X10.292 Y36.654 E10.79138
G1 X11.502 Y33.851 E10.9437
G1 X12.069 Y32.724 E11.00664
G1 X13.592 Y30.089 E11.15848
G1 X14.284 Y29.037 E11.2213
G1 X16.144 Y26.54 E11.37664
G1 X16.919 Y25.619 E11.43669
G1 X19.233 Y23.181 E11.60439
G1 X19.977 Y22.49 E11.65504
G0 F3600 X20.234 Y22.797
G1 F1200 X22.557 Y20.85 E11.80626
G1 X23.395 Y20.222 E11.85851
G1 X26.212 Y18.365 E12.02684
G1 X27.161 Y17.828 E12.08124
G1 X29.813 Y16.496 E12.2293
G1 X30.418 Y16.22 E12.26247
G1 X31.015 Y15.975 E12.29467
G1 X34.144 Y14.839 E12.46075
G1 X35.054 Y14.584 E12.50789
G1 X38.265 Y13.83 E12.67245
G1 X39.08 Y13.69 E12.71371
G1 X42.32 Y13.309 E12.87646
G1 X42.867 Y13.268 E12.90383
G1 X43.505 Y13.244 E12.93568
G1 X45.856 Y13.25 E13.05297
G1 X46.526 Y13.244 E13.0864
G1 X47.055 Y13.263 E13.11281
G1 X47.764 Y13.317 E13.14829
G1 X50.587 Y13.644 E13.29007
G1 X51.77 Y13.83 E13.34981
G1 X54.95 Y14.585 E13.51287
G1 X55.669 Y14.789 E13.55016
G1 X56.154 Y14.945 E13.57558
G1 X59.027 Y15.993 E13.72815
G1 X59.594 Y16.227 E13.75875
G1 X60.146 Y16.477 E13.78899
G1 X63.06 Y17.945 E13.95177
G1 X63.94 Y18.463 E14.00272
G1 X66.5 Y20.15 E14.15567
G1 X66.968 Y20.487 E14.18445
G1 X67.469 Y20.872 E14.21597
G1 X69.667 Y22.713 E14.35901
G1 X70.541 Y23.51 E14.41802
G1 X72.83 Y25.939 E14.58454
G1 X73.469 Y26.697 E14.634
G1 X75.551 Y29.497 E14.80808
G1 X76.075 Y30.311 E14.85637
G1 X77.66 Y33.063 E15.01481
G1 X77.906 Y33.537 E15.04146
G1 X78.15 Y34.05 E15.0698
G1 X79.368 Y36.876 E15.22333
G1 X79.778 Y38.01 E15.28349
G1 X80.661 Y40.961 E15.43716
G1 X80.933 Y42.119 E15.49651
G1 X81.499 Y45.36 E15.66065
G1 X81.607 Y46.356 E15.71063
G1 X81.789 Y49.606 E15.87303
G1 X81.782 Y50.618 E15.92352
G1 X81.602 Y53.712 E16.07814
G1 X81.461 Y54.896 E16.13763
G1 X80.965 Y57.714 E16.28038
G1 X80.72 Y58.843 E16.33801
G1 X80.062 Y61.065 E16.45363
G1 X79.803 Y61.903 E16.49739
G1 X79.548 Y62.651 E16.53681
G1 X79.341 Y63.189 E16.56557
G1 X78.132 Y65.99 E16.71778
G1 X77.672 Y66.915 E16.76932
G1 X76.075 Y69.69 E16.92905
G1 X75.39 Y70.731 E16.99122
G1 X73.386 Y73.42 E17.15854
G1 X72.763 Y74.136 E17.20589
G1 X71.16 Y75.825 E17.32206
G1 X70.592 Y76.437 E17.36372
G1 X69.811 Y77.163 E17.41692
G1 X67.291 Y79.269 E17.58076
G1 X66.457 Y79.881 E17.63237
G1 X63.877 Y81.577 E17.78641
G1 X62.828 Y82.178 E17.84673
G1 X60.113 Y83.541 E17.99829
G1 X59.001 Y84.019 E18.05867
G1 X56.177 Y85.047 E18.20861
G1 X55.55 Y85.249 E18.24147
G1 X54.941 Y85.418 E18.273
G1 X51.745 Y86.168 E18.43678
G1 X50.921 Y86.31 E18.4785
G1 X47.68 Y86.691 E18.64131
G1 X47.133 Y86.732 E18.66867
G1 X46.495 Y86.756 E18.70053
G1 X44.144 Y86.75 E18.81782
G1 X43.335 Y86.757 E18.85818
G1 X42.236 Y86.683 E18.91314
G1 X39.413 Y86.356 E19.05492
G1 X38.23 Y86.17 E19.11466
G1 X35.05 Y85.415 E19.27772
G1 X34.331 Y85.211 E19.31501
G1 X33.847 Y85.056 E19.34037
G1 X30.997 Y84.017 E19.49171
G1 X30.399 Y83.77 E19.52399
G1 X29.853 Y83.523 E19.55388
G1 X27.092 Y82.137 E19.70801
G1 X26.056 Y81.535 E19.76779
G1 X23.729 Y80.005 E19.90673
G1 X22.709 Y79.277 E19.96925
G1 X20.358 Y77.304 E20.12237
G1 X19.454 Y76.485 E20.18323
G1 X17.141 Y74.029 E20.35155
G1 X16.81 Y73.645 E20.37684
G1 X16.4 Y73.137 E20.40941
G1 X14.563 Y70.667 E20.56298
G1 X14.011 Y69.83 E20.613
G1 X12.408 Y67.061 E20.77263
G1 X11.847 Y65.945 E20.83494
G1 X10.565 Y62.955 E20.99725
G1 X10.22 Y61.987 E21.04852
G1 X9.349 Y59.075 E21.20016
G1 X9.102 Y58.047 E21.2529
G1 X8.501 Y54.638 E21.4256
G1 X8.393 Y53.641 E21.47564
G1 X8.202 Y50.318 E21.64169
G1 X8.213 Y49.511 E21.68196
G1 X8.404 Y46.222 E21.84632
G1 X8.518 Y45.241 E21.8956
G1 X9.133 Y41.771 E22.07141
G1 X9.348 Y40.93 E22.11472
G1 X10.202 Y38.08 E22.26315
G1 X10.463 Y37.322 E22.30315
G1 X10.659 Y36.812 E22.33041
G1 X11.859 Y34.031 E22.48152
G1 X12.415 Y32.924 E22.54332
G1 X13.926 Y30.309 E22.694
G1 X14.605 Y29.276 E22.75567
G1 X16.45 Y26.798 E22.9098
G1 X17.225 Y25.877 E22.96985
G1 X19.505 Y23.474 E23.13512
G1 X20.234 Y22.797 E23.18475
G1 F1500 E16.68475
;MESH:54_t.stl
G0 F3600 X21.601 Y24.972
G0 X22.344 Y25.757
G0 X42.388 Y52.612
G0 X45.059 Y54.151
G0 X45.031 Y53.852
;TYPE:WALL-INNER
G1 F1500 E23.18475
G1 F1200 X44.262 Y53.78 E23.22328
G1 X43.528 Y53.563 E23.26147
G1 X42.879 Y53.218 E23.29814
G1 X42.291 Y52.74 E23.33595
G1 X41.792 Y52.143 E23.37476
G1 X41.445 Y51.488 E23.41174
G1 X41.311 Y51.11 E23.43175
G1 X41.164 Y50.399 E23.46798
G1 X41.148 Y49.973 E23.48924
G1 X41.217 Y49.237 E23.52612
G1 X41.438 Y48.514 E23.56384
G1 X41.793 Y47.856 E23.60114
G1 X42.263 Y47.288 E23.63792
G1 X42.851 Y46.797 E23.67614
G1 X43.487 Y46.455 E23.71217
G1 X43.879 Y46.313 E23.73297
G1 X44.614 Y46.16 E23.77042
G1 X45.364 Y46.161 E23.80784
G1 X46.125 Y46.312 E23.84655
G1 X46.809 Y46.597 E23.88352
G1 X47.433 Y47.013 E23.92093
G1 X47.951 Y47.526 E23.9573
G1 X48.208 Y47.864 E23.97849
G1 X48.55 Y48.501 E24.01456
G1 X48.78 Y49.259 E24.05408
G1 X48.852 Y50.023 E24.09236
G1 X48.78 Y50.737 E24.12817
G1 X48.57 Y51.446 E24.16506
G1 X48.209 Y52.132 E24.20373
G1 X47.709 Y52.74 E24.243
G1 X47.145 Y53.202 E24.27938
G1 X46.474 Y53.562 E24.31737
G1 X45.739 Y53.78 E24.35562
G1 X45.031 Y53.852 E24.39112
G0 F3600 X45.059 Y54.151
G0 X45.974 Y80.328
G0 X45.834 Y80.608
G1 F1200 X45.985 Y80.796 E24.40315
G1 X46.201 Y81.226 E24.42716
G1 X46.471 Y82.017 E24.46886
G1 X46.886 Y82.94 E24.51935
G1 X46.957 Y82.935 E24.5229
G1 X47.117 Y82.464 E24.54771
G1 X47.369 Y81.48 E24.59839
G1 X47.533 Y80.775 E24.6345
G1 X47.621 Y80.625 E24.64318
G1 X47.926 Y80.334 E24.66421
G1 X48.061 Y80.258 E24.67194
G1 X48.564 Y80.117 E24.698
G1 X49.078 Y80.157 E24.72372
G1 X49.391 Y80.31 E24.7411
G1 X49.561 Y80.48 E24.7531
G1 X49.773 Y80.8 E24.77225
G1 X50.154 Y81.579 E24.81551
G1 X50.7 Y82.498 E24.86884
G1 X50.766 Y82.486 E24.87219
G1 X50.873 Y81.991 E24.89745
G1 X51.009 Y80.991 E24.9478
G1 X51.091 Y80.279 E24.98356
G1 X51.159 Y80.121 E24.99214
G1 X51.417 Y79.797 E25.01281
G1 X51.565 Y79.684 E25.0221
G1 X52.117 Y79.471 E25.05161
G1 X52.581 Y79.489 E25.07478
G1 X52.876 Y79.594 E25.0904
G1 X53.066 Y79.743 E25.10245
G1 X53.365 Y80.105 E25.12587
G1 X53.793 Y80.784 E25.16592
G1 X54.433 Y81.617 E25.21833
G1 X54.499 Y81.597 E25.22177
G1 X54.544 Y81.115 E25.24592
G1 X54.569 Y79.353 E25.33383
G1 X54.616 Y79.196 E25.34201
G1 X54.915 Y78.761 E25.36834
G1 X55.261 Y78.54 E25.38883
G1 X55.616 Y78.422 E25.40749
G1 X56.158 Y78.452 E25.43457
G1 X56.355 Y78.523 E25.44502
G1 X56.745 Y78.864 E25.47087
G1 X57.299 Y79.546 E25.5147
G1 X58.039 Y80.309 E25.56773
G1 X58.105 Y80.28 E25.57133
G1 X58.095 Y79.78 E25.59628
G1 X57.912 Y78.054 E25.68287
G1 X57.94 Y77.889 E25.69122
G1 X58.161 Y77.455 E25.71552
G1 X58.495 Y77.158 E25.73782
G1 X58.869 Y76.989 E25.75829
G1 X59.408 Y76.966 E25.78521
G1 X59.58 Y77.008 E25.79404
G1 X60.079 Y77.362 E25.82456
G1 X60.648 Y77.915 E25.86415
G1 X61.472 Y78.591 E25.91732
G1 X61.532 Y78.557 E25.92076
G1 X61.462 Y78.056 E25.946
G1 X61.246 Y77.065 E25.9966
G1 X61.079 Y76.365 E26.03251
G1 X61.09 Y76.186 E26.04145
G1 X61.232 Y75.788 E26.06254
G1 X61.554 Y75.416 E26.08708
G1 X62.014 Y75.163 E26.11327
G1 X62.403 Y75.113 E26.13284
G1 X62.611 Y75.134 E26.14327
G1 X63.16 Y75.43 E26.17439
G1 X63.783 Y75.913 E26.21372
G1 X64.677 Y76.483 E26.26661
G1 X64.734 Y76.44 E26.27017
G1 X64.622 Y76.018 E26.29196
G1 X64.283 Y75.008 E26.34511
G1 X64.03 Y74.32 E26.38168
G1 X64.021 Y74.141 E26.39062
G1 X64.118 Y73.722 E26.41208
G1 X64.408 Y73.303 E26.4375
G1 X64.748 Y73.05 E26.45865
G1 X65.207 Y72.922 E26.48242
G1 X65.421 Y72.92 E26.4931
G1 X65.986 Y73.146 E26.52345
G1 X66.659 Y73.552 E26.56267
G1 X67.621 Y74.02 E26.61604
G1 X67.671 Y73.972 E26.6195
G1 X67.489 Y73.503 E26.6446
G1 X67.051 Y72.588 E26.69521
G1 X66.727 Y71.951 E26.73086
G1 X66.697 Y71.78 E26.73952
G1 X66.781 Y71.226 E26.76748
G1 X66.969 Y70.909 E26.78587
G1 X67.245 Y70.634 E26.8053
G1 X67.515 Y70.478 E26.82086
G1 X67.703 Y70.433 E26.8305
G1 X68.229 Y70.427 E26.85675
G1 X68.867 Y70.713 E26.89163
G1 X69.796 Y71.091 E26.94167
G1 X70.251 Y71.24 E26.96555
G1 X70.302 Y71.179 E26.96952
G1 X70.074 Y70.745 E26.99398
G1 X69.162 Y69.32 E27.07839
G1 X69.084 Y69.134 E27.08845
G1 X69.096 Y68.569 E27.11664
G1 X69.261 Y68.197 E27.13695
G1 X69.614 Y67.816 E27.16286
G1 X69.858 Y67.673 E27.17697
G1 X70.368 Y67.588 E27.20276
G1 X72.086 Y68.073 E27.29182
G1 X72.544 Y68.164 E27.31512
G1 X72.588 Y68.098 E27.31908
G1 X72.309 Y67.695 E27.34353
G1 X71.245 Y66.411 E27.42673
G1 X71.125 Y66.173 E27.44003
G1 X71.08 Y65.742 E27.46164
G1 X71.194 Y65.288 E27.485
G1 X71.483 Y64.864 E27.5106
G1 X72.072 Y64.528 E27.54443
G1 X72.337 Y64.522 E27.55765
G1 X73.984 Y64.804 E27.64102
G1 X74.467 Y64.844 E27.6652
G1 X74.502 Y64.774 E27.6691
G1 X74.167 Y64.392 E27.69445
G1 X72.971 Y63.236 E27.77744
G1 X72.849 Y63.07 E27.78771
G1 X72.731 Y62.617 E27.81107
G1 X72.814 Y62.091 E27.83763
G1 X73.05 Y61.674 E27.86154
G1 X73.218 Y61.498 E27.87368
G1 X73.727 Y61.258 E27.90175
G1 X75.225 Y61.34 E27.9766
G1 X75.995 Y61.319 E28.01503
G1 X76.03 Y61.227 E28.01994
G1 X74.212 Y59.815 E28.13479
G1 X74.086 Y59.545 E28.14965
G1 X73.993 Y58.93 E28.18068
G1 X74.147 Y58.443 E28.20616
G1 X74.457 Y58.052 E28.23106
G1 X74.653 Y57.93 E28.24258
G1 X75.536 Y57.801 E28.2871
G1 X76.629 Y57.721 E28.34177
G1 X77.096 Y57.649 E28.36535
G1 X77.114 Y57.575 E28.36915
G1 X76.466 Y57.123 E28.40856
G1 X75.316 Y56.488 E28.4741
G1 X74.923 Y55.995 E28.50556
G1 X74.872 Y55.781 E28.51653
G1 X74.881 Y55.218 E28.54462
G1 X75.031 Y54.788 E28.56734
G1 X75.294 Y54.488 E28.58725
G1 X75.499 Y54.376 E28.5989
G1 X75.957 Y54.238 E28.62277
G1 X76.768 Y54.115 E28.66369
G1 X77.768 Y53.86 E28.71518
G1 X77.776 Y53.788 E28.71879
G1 X77.343 Y53.55 E28.74344
G1 X75.749 Y52.845 E28.8304
G1 X75.618 Y52.736 E28.8389
G1 X75.335 Y52.275 E28.86589
G1 X75.276 Y51.794 E28.89006
G1 X75.364 Y51.333 E28.91348
G1 X75.458 Y51.135 E28.92441
G1 X75.864 Y50.747 E28.95243
G1 X76.916 Y50.431 E29.00723
G1 X77.996 Y50.027 E29.06476
G1 X77.996 Y49.961 E29.06805
G1 X77.518 Y49.768 E29.09377
G1 X75.942 Y49.291 E29.17592
G1 X75.662 Y49.133 E29.19196
G1 X75.333 Y48.536 E29.22597
G1 X75.288 Y48.371 E29.2345
G1 X75.316 Y47.734 E29.26631
G1 X75.505 Y47.39 E29.28589
G1 X75.696 Y47.216 E29.29878
G1 X76.109 Y46.984 E29.32242
G1 X76.836 Y46.686 E29.36162
G1 X77.775 Y46.198 E29.41441
G1 X77.767 Y46.126 E29.41803
G1 X77.293 Y45.996 E29.44255
G1 X76.283 Y45.802 E29.49386
G1 X75.582 Y45.68 E29.52936
G1 X75.419 Y45.597 E29.53848
G1 X75.119 Y45.316 E29.55899
G1 X75.015 Y45.161 E29.5683
G1 X74.88 Y44.794 E29.58781
G1 X74.852 Y44.29 E29.61299
G1 X74.916 Y44.04 E29.62587
G1 X75.261 Y43.563 E29.65524
G1 X76.463 Y42.879 E29.72424
G1 X77.114 Y42.425 E29.76383
G1 X77.096 Y42.349 E29.76773
G1 X76.612 Y42.277 E29.79214
G1 X75.602 Y42.198 E29.84269
G1 X74.868 Y42.155 E29.87937
G1 X74.638 Y42.054 E29.8919
G1 X74.333 Y41.819 E29.91111
G1 X74.132 Y41.514 E29.92933
G1 X73.99 Y40.924 E29.95961
G1 X73.993 Y40.724 E29.96959
G1 X74.084 Y40.415 E29.98566
G1 X74.217 Y40.221 E29.99739
G1 X74.569 Y39.89 E30.0215
G1 X75.202 Y39.442 E30.06019
G1 X76.019 Y38.739 E30.11396
G1 X75.994 Y38.674 E30.11744
G1 X75.507 Y38.656 E30.14175
G1 X73.751 Y38.74 E30.22946
G1 X73.588 Y38.699 E30.23784
G1 X73.156 Y38.438 E30.26302
G1 X72.911 Y38.129 E30.2827
G1 X72.733 Y37.624 E30.30941
G1 X72.757 Y37.19 E30.3311
G1 X72.808 Y37.017 E30.34009
G1 X73.194 Y36.53 E30.3711
G1 X73.781 Y36.001 E30.41052
G1 X74.499 Y35.217 E30.46356
G1 X74.467 Y35.153 E30.46713
G1 X73.984 Y35.193 E30.49131
G1 X72.967 Y35.353 E30.54267
G1 X72.252 Y35.48 E30.5789
G1 X72.07 Y35.457 E30.58805
G1 X71.687 Y35.291 E30.60888
G1 X71.323 Y34.93 E30.63445
G1 X71.069 Y34.358 E30.66568
G1 X71.094 Y34.076 E30.6798
G1 X71.236 Y33.601 E30.70454
G1 X71.674 Y33.093 E30.738
G1 X72.315 Y32.294 E30.78911
G1 X72.589 Y31.898 E30.81313
G1 X72.544 Y31.832 E30.81712
G1 X72.056 Y31.93 E30.84195
G1 X70.38 Y32.414 E30.92898
G1 X70.064 Y32.375 E30.94487
G1 X69.474 Y32.077 E30.97784
G1 X69.154 Y31.599 E31.00654
