;FLAVOR:Marlin
;TIME:7976
;Filament used: 6.15721m
;Layer height: 0.2
;MINX:19.403
;MINY:17.608
;MINZ:0.3
;MAXX:70.597
;MAXY:82.385
;MAXZ:60.3
;TARGET_MACHINE.NAME:Unknown
;Generated with Cura_SteamEngine 5.7.2
M104 S200
M105
M109 S200
M82 ;absolute extrusion mode
G28 ;Home
G1 Z15.0 F6000 ;Move the platform down 15mm
;Prime the extruder
G92 E0
G1 F200 E3
G92 E0
G92 E0
G92 E0
G1 F1500 E-6.5
;LAYER_COUNT:301
;LAYER:0
M107
G0 F3600 X20.538 Y18.64 Z0.3
;TYPE:SKIRT
G1 F1500 E0
G1 F1200 X20.98 Y18.284 E0.02831
G1 X21.474 Y18 E0.05674
G1 X22.006 Y17.799 E0.08512
G1 X22.641 Y17.662 E0.11752
G1 X23.973 Y17.631 E0.184
G1 X30.201 Y17.608 E0.49471
G1 X32.362 Y17.616 E0.60253
G1 X33.099 Y17.631 E0.63931
G1 X33.664 Y17.691 E0.66765
G1 X34.281 Y17.857 E0.69953
G1 X35.885 Y18.568 E0.78706
G1 X38.407 Y19.632 E0.92362
G1 X40.953 Y20.623 E1.05993
G1 X43.539 Y21.546 E1.19692
G1 X46.111 Y22.382 E1.33184
G1 X48.736 Y23.154 E1.46835
G1 X51.369 Y23.85 E1.60422
G1 X54.036 Y24.472 E1.74085
G1 X56.721 Y25.02 E1.87757
G1 X59.382 Y25.485 E2.01234
G1 X62.089 Y25.881 E2.14883
G1 X64.777 Y26.195 E2.28384
G1 X67.343 Y26.428 E2.41239
G1 X67.903 Y26.528 E2.44077
G1 X68.44 Y26.716 E2.46915
G1 X68.94 Y26.986 E2.4975
G1 X69.393 Y27.331 E2.52591
G1 X69.784 Y27.743 E2.55425
G1 X70.106 Y28.212 E2.58263
G1 X70.35 Y28.725 E2.61097
G1 X70.511 Y29.276 E2.63961
G1 X70.596 Y29.992 E2.67558
G1 X70.597 Y69.309 E4.63712
G1 X70.588 Y70.036 E4.67339
G1 X70.53 Y70.633 E4.70331
G1 X70.384 Y71.183 E4.7317
G1 X70.154 Y71.702 E4.76003
G1 X69.845 Y72.18 E4.78842
G1 X69.464 Y72.603 E4.81682
G1 X69.023 Y72.96 E4.84513
G1 X68.529 Y73.244 E4.87356
G1 X67.988 Y73.447 E4.90239
G1 X67.296 Y73.578 E4.93753
G1 X66.367 Y73.658 E4.98405
G1 X63.623 Y73.935 E5.12164
G1 X60.897 Y74.287 E5.25877
G1 X58.192 Y74.714 E5.39539
G1 X55.537 Y75.212 E5.53016
G1 X52.866 Y75.791 E5.66651
G1 X50.248 Y76.435 E5.80102
G1 X47.591 Y77.171 E5.93857
G1 X45.005 Y77.966 E6.07355
G1 X42.38 Y78.856 E6.21183
G1 X39.86 Y79.789 E6.34589
G1 X37.303 Y80.821 E6.48346
G1 X34.432 Y82.075 E6.63976
G1 X33.888 Y82.264 E6.66849
G1 X33.011 Y82.385 E6.71266
G1 X23.618 Y82.382 E7.18128
G1 X22.921 Y82.369 E7.21606
G1 X22.357 Y82.309 E7.24436
G1 X21.807 Y82.162 E7.27276
G1 X21.288 Y81.93 E7.30112
G1 X20.813 Y81.619 E7.32945
G1 X20.435 Y81.283 E7.35468
G1 X20.036 Y80.793 E7.38621
G1 X19.755 Y80.299 E7.41456
G1 X19.555 Y79.767 E7.44291
G1 X19.441 Y79.211 E7.47123
G1 X19.404 Y78.528 E7.50536
G1 X19.403 Y21.886 E10.33124
G1 X19.412 Y21.207 E10.36511
G1 X19.471 Y20.609 E10.39509
G1 X19.617 Y20.059 E10.42348
G1 X19.848 Y19.539 E10.45187
G1 X20.157 Y19.063 E10.48018
G1 X20.538 Y18.64 E10.50859
G0 F3600 X20.792 Y18.949
G1 F1200 X21.182 Y18.629 E10.53375
G1 X21.619 Y18.373 E10.55902
G1 X22.09 Y18.19 E10.58423
G1 X22.687 Y18.061 E10.6147
G1 X23.974 Y18.031 E10.67893
G1 X30.2 Y18.008 E10.98955
G1 X32.355 Y18.016 E11.09706
G1 X33.06 Y18.029 E11.13224
G1 X33.563 Y18.078 E11.15745
G1 X34.119 Y18.223 E11.18612
G1 X35.73 Y18.937 E11.27403
G1 X38.255 Y20.002 E11.41075
G1 X40.81 Y20.997 E11.54755
G1 X43.405 Y21.923 E11.68501
G1 X45.998 Y22.766 E11.82104
G1 X48.626 Y23.539 E11.9577
G1 X51.278 Y24.24 E12.09456
G1 X53.945 Y24.862 E12.23119
G1 X56.644 Y25.413 E12.36862
G1 X59.324 Y25.881 E12.50435
G1 X62.031 Y26.277 E12.64084
G1 X64.735 Y26.592 E12.77665
G1 X67.276 Y26.822 E12.90394
G1 X67.774 Y26.907 E12.92915
G1 X68.253 Y27.07 E12.95439
G1 X68.7 Y27.306 E12.97961
G1 X69.105 Y27.609 E13.00484
G1 X69.456 Y27.972 E13.03003
G1 X69.746 Y28.387 E13.05529
G1 X69.967 Y28.841 E13.08048
G1 X70.114 Y29.325 E13.10572
G1 X70.196 Y29.992 E13.13925
G1 X70.197 Y69.304 E15.10053
G1 X70.188 Y70.031 E15.1368
G1 X70.142 Y70.534 E15.162
G1 X70.017 Y71.024 E15.18723
G1 X69.816 Y71.488 E15.21246
G1 X69.545 Y71.915 E15.23769
G1 X69.21 Y72.294 E15.26293
G1 X68.82 Y72.615 E15.28813
G1 X68.384 Y72.871 E15.31335
G1 X67.913 Y73.054 E15.33856
G1 X67.262 Y73.179 E15.37163
G1 X66.333 Y73.259 E15.41815
G1 X63.572 Y73.538 E15.5566
G1 X60.846 Y73.89 E15.69373
G1 X58.122 Y74.32 E15.83131
G1 X55.452 Y74.821 E15.96685
G1 X52.781 Y75.4 E16.1032
G1 X50.152 Y76.047 E16.23827
G1 X47.484 Y76.786 E16.37639
G1 X44.877 Y77.587 E16.51246
G1 X42.252 Y78.477 E16.65074
G1 X39.71 Y79.418 E16.78597
G1 X37.143 Y80.454 E16.92408
G1 X34.272 Y81.708 E17.08038
G1 X33.794 Y81.873 E17.10561
G1 X33.011 Y81.985 E17.14507
G1 X23.625 Y81.982 E17.61334
G1 X22.96 Y81.971 E17.64652
G1 X22.457 Y81.922 E17.67173
G1 X21.967 Y81.795 E17.69699
G1 X21.504 Y81.593 E17.72219
G1 X21.079 Y81.32 E17.74739
G1 X20.701 Y80.984 E17.77262
G1 X20.382 Y80.592 E17.79784
G1 X20.128 Y80.155 E17.82305
G1 X19.946 Y79.683 E17.84829
G1 X19.84 Y79.189 E17.8735
G1 X19.804 Y78.528 E17.90652
G1 X19.803 Y21.891 E20.73216
G1 X19.812 Y21.212 E20.76603
G1 X19.859 Y20.708 E20.79129
G1 X19.984 Y20.218 E20.81652
G1 X20.185 Y19.754 E20.84174
G1 X20.457 Y19.328 E20.86696
G1 X20.792 Y18.949 E20.8922
G1 F1500 E14.3922
;MESH:pot_tutucu.stl
G0 F3600 X23.403 Y21.448
G0 X23.417 Y22.526
G0 X32.103 Y69.819
G0 X32.427 Y69.819
;TYPE:WALL-INNER
G1 F1500 E20.8922
G1 F1200 X32.503 Y69.662 E20.9009
G1 X32.669 Y69.499 E20.91251
G1 X32.952 Y69.401 E20.92745
G1 X66.396 Y69.4 E22.59597
G1 X66.396 Y30.6 E24.53171
G1 X32.951 Y30.599 E26.20029
G1 X32.729 Y30.536 E26.21181
G1 X32.503 Y30.338 E26.2268
G1 X32.427 Y30.181 E26.2355
G1 X32.4 Y30 E26.24463
G1 X32.4 Y22.78 E26.60484
G1 X26.749 Y22.78 E26.88676
G1 X26.563 Y22.711 E26.89666
G1 X25.905 Y22.681 E26.92952
G1 X23.6 Y22.709 E27.04453
G1 X23.6 Y77.216 E29.76389
G1 X32.4 Y77.216 E30.20293
G1 X32.4 Y70 E30.56294
G1 X32.427 Y69.819 E30.57207
G0 F3600 X32.809 Y69.939
;TYPE:WALL-OUTER
G1 F1200 X32.851 Y69.865 E30.57631
G1 X32.966 Y69.802 E30.58285
G1 X66.796 Y69.8 E32.27064
G1 X66.796 Y30.2 E34.24629
G1 X32.983 Y30.2 E35.93323
G1 X32.889 Y30.167 E35.9382
G1 X32.802 Y30.031 E35.94625
G1 X32.8 Y22.38 E36.32796
G1 X26.8 Y22.375 E36.6273
G1 X26.657 Y22.315 E36.63504
G1 X25.912 Y22.281 E36.67225
G1 X23.2 Y22.314 E36.80756
G1 X23.2 Y77.616 E39.56659
G1 X32.8 Y77.616 E40.04553
G1 X32.809 Y69.939 E40.42854
G0 F3600 X32.851 Y69.865
G0 X32.951 Y69.81
G0 X32.291 Y69.318
;TYPE:SKIN
G1 F1200 X32.114 Y69.575 E40.44411
G1 X32.02 Y69.885 E40.46027
G1 X32.02 Y76.836 E40.80706
G1 X23.98 Y76.836 E41.20818
G1 X23.981 Y23.082 E43.88997
G1 X25.896 Y23.061 E43.98552
G1 X26.494 Y23.088 E44.01538
G1 X26.809 Y23.156 E44.03146
G1 X32.02 Y23.16 E44.29144
G1 X32.022 Y30.118 E44.63858
G1 X32.118 Y30.433 E44.655
G1 X32.358 Y30.741 E44.67448
G1 X32.591 Y30.885 E44.68815
G1 X32.918 Y30.976 E44.70508
G1 X66.016 Y30.98 E46.35635
G1 X66.016 Y69.02 E48.25417
G1 X32.893 Y69.024 E49.90669
G1 X32.481 Y69.167 E49.92844
G1 X32.291 Y69.318 E49.94055
G0 F3600 X32.103 Y69.318
G0 X24.18 Y76.223
G1 F1200 X24.593 Y76.636 E49.96969
G0 F3600 X25.159 Y76.636
G1 F1200 X24.18 Y75.658 E50.03873
G0 F3600 X24.18 Y75.092
G1 F1200 X25.725 Y76.636 E50.1477
G0 F3600 X26.29 Y76.636
G1 F1200 X24.18 Y74.526 E50.29657
G0 F3600 X24.18 Y73.961
G1 F1200 X26.856 Y76.636 E50.48535
G0 F3600 X27.422 Y76.636
G1 F1200 X24.18 Y73.395 E50.71405
G0 F3600 X24.18 Y72.829
G1 F1200 X27.987 Y76.636 E50.98266
G0 F3600 X28.553 Y76.636
G1 F1200 X24.18 Y72.263 E51.29119
G0 F3600 X24.18 Y71.698
G1 F1200 X29.119 Y76.636 E51.63963
G0 F3600 X29.684 Y76.636
G1 F1200 X24.18 Y71.132 E52.02797
G0 F3600 X24.18 Y70.566
G1 F1200 X30.25 Y76.636 E52.45624
G0 F3600 X30.816 Y76.636
G1 F1200 X24.18 Y70.001 E52.92441
G0 F3600 X24.18 Y69.435
G1 F1200 X31.381 Y76.636 E53.43248
G0 F3600 X31.821 Y76.51
G1 F1200 X24.18 Y68.869 E53.97159
G0 F3600 X24.18 Y68.304
G1 F1200 X31.821 Y75.944 E54.51067
G0 F3600 X31.821 Y75.379
G1 F1200 X24.18 Y67.738 E55.04979
G0 F3600 X24.18 Y67.172
G1 F1200 X31.822 Y74.814 E55.58897
G0 F3600 X31.823 Y74.249
G1 F1200 X24.18 Y66.607 E56.12819
G0 F3600 X24.18 Y66.041
G1 F1200 X31.823 Y73.683 E56.66741
G0 F3600 X31.823 Y73.118
G1 F1200 X24.18 Y65.475 E57.20666
G0 F3600 X24.18 Y64.91
G1 F1200 X31.824 Y72.553 E57.74596
G0 F3600 X31.825 Y71.988
G1 F1200 X24.18 Y64.344 E58.28532
G0 F3600 X24.18 Y63.778
G1 F1200 X31.825 Y71.423 E58.82471
G0 F3600 X31.825 Y70.858
G1 F1200 X24.18 Y63.213 E59.36411
G0 F3600 X24.18 Y62.647
G1 F1200 X31.826 Y70.293 E59.90357
G0 F3600 X31.854 Y69.755
G1 F1200 X24.18 Y62.081 E60.44502
G0 F3600 X24.18 Y61.515
G1 F1200 X32.021 Y69.357 E60.99828
G0 F3600 X32.291 Y69.061
G1 F1200 X24.18 Y60.95 E61.57055
G0 F3600 X24.18 Y60.384
G1 F1200 X32.685 Y68.888 E62.17059
G0 F3600 X33.182 Y68.82
G1 F1200 X24.18 Y59.818 E62.80573
G0 F3600 X24.18 Y59.253
G1 F1200 X33.747 Y68.82 E63.48073
G0 F3600 X34.313 Y68.82
G1 F1200 X24.18 Y58.687 E64.19567
G0 F3600 X24.18 Y58.121
G1 F1200 X34.879 Y68.82 E64.95054
G0 F3600 X35.444 Y68.82
G1 F1200 X24.18 Y57.556 E65.74528
G0 F3600 X24.18 Y56.99
G1 F1200 X36.01 Y68.82 E66.57995
G0 F3600 X36.576 Y68.82
G1 F1200 X24.18 Y56.424 E67.45455
G0 F3600 X24.18 Y55.859
G1 F1200 X37.141 Y68.82 E68.36902
G0 F3600 X37.707 Y68.82
G1 F1200 X24.18 Y55.293 E69.32343
G0 F3600 X24.18 Y54.727
G1 F1200 X38.273 Y68.82 E70.31776
G0 F3600 X38.839 Y68.82
G1 F1200 X24.18 Y54.162 E71.352
G0 F3600 X24.18 Y53.596
G1 F1200 X39.404 Y68.82 E72.42614
G0 F3600 X39.97 Y68.82
G1 F1200 X24.18 Y53.03 E73.5402
G0 F3600 X24.18 Y52.464
G1 F1200 X40.536 Y68.82 E74.69421
G0 F3600 X41.101 Y68.82
G1 F1200 X24.18 Y51.899 E75.88808
G0 F3600 X24.18 Y51.333
G1 F1200 X41.667 Y68.82 E77.12188
G0 F3600 X42.233 Y68.82
G1 F1200 X24.18 Y50.767 E78.39562
G0 F3600 X24.18 Y50.202
G1 F1200 X42.798 Y68.82 E79.70922
G0 F3600 X43.364 Y68.82
G1 F1200 X24.18 Y49.636 E81.06275
G0 F3600 X24.18 Y49.07
G1 F1200 X43.93 Y68.82 E82.45622
G0 F3600 X44.495 Y68.82
G1 F1200 X24.18 Y48.505 E83.88955
G0 F3600 X24.18 Y47.939
G1 F1200 X45.061 Y68.82 E85.36282
G0 F3600 X45.627 Y68.82
G1 F1200 X24.18 Y47.373 E86.87602
G0 F3600 X24.18 Y46.808
G1 F1200 X46.192 Y68.82 E88.42909
G0 F3600 X46.758 Y68.82
G1 F1200 X24.18 Y46.242 E90.02209
G0 F3600 X24.18 Y45.676
G1 F1200 X47.324 Y68.82 E91.65502
G0 F3600 X47.89 Y68.82
G1 F1200 X24.18 Y45.111 E93.32786
G0 F3600 X24.18 Y44.545
G1 F1200 X48.455 Y68.82 E95.04059
G0 F3600 X49.021 Y68.82
G1 F1200 X24.18 Y43.979 E96.79325
G0 F3600 X24.18 Y43.414
G1 F1200 X49.587 Y68.82 E98.58582
G0 F3600 X50.152 Y68.82
G1 F1200 X24.18 Y42.848 E100.41828
G0 F3600 X24.18 Y42.282
G1 F1200 X50.718 Y68.82 E102.29068
G0 F3600 X51.284 Y68.82
G1 F1200 X24.18 Y41.716 E104.20302
G0 F3600 X24.18 Y41.151
G1 F1200 X51.849 Y68.82 E106.15522
G0 F3600 X52.415 Y68.82
G1 F1200 X24.18 Y40.585 E108.14735
G0 F3600 X24.18 Y40.019
G1 F1200 X52.981 Y68.82 E110.17941
G0 F3600 X53.546 Y68.82
G1 F1200 X24.18 Y39.454 E112.25134
G0 F3600 X24.18 Y38.888
G1 F1200 X54.112 Y68.82 E114.36321
G0 F3600 X54.678 Y68.82
G1 F1200 X24.18 Y38.322 E116.51501
G0 F3600 X24.18 Y37.757
G1 F1200 X55.243 Y68.82 E118.70667
G0 F3600 X55.809 Y68.82
G1 F1200 X24.18 Y37.191 E120.93827
G0 F3600 X24.18 Y36.625
G1 F1200 X56.375 Y68.82 E123.2098
G0 F3600 X56.94 Y68.82
G1 F1200 X24.18 Y36.06 E125.52119
G0 F3600 X24.18 Y35.494
G1 F1200 X57.506 Y68.82 E127.87252
G0 F3600 X58.072 Y68.82
G1 F1200 X24.18 Y34.928 E130.26378
G0 F3600 X24.18 Y34.363
G1 F1200 X58.638 Y68.82 E132.69495
G0 F3600 X59.203 Y68.82
G1 F1200 X24.18 Y33.797 E135.16601
G0 F3600 X24.18 Y33.231
G1 F1200 X59.769 Y68.82 E137.677
G0 F3600 X60.335 Y68.82
G1 F1200 X24.18 Y32.666 E140.2279
G0 F3600 X24.18 Y32.1
G1 F1200 X60.9 Y68.82 E142.81869
G0 F3600 X61.466 Y68.82
G1 F1200 X24.18 Y31.534 E145.44942
G0 F3600 X24.18 Y30.968
G1 F1200 X62.032 Y68.82 E148.12009
G0 F3600 X62.597 Y68.82
G1 F1200 X24.18 Y30.403 E150.83061
G0 F3600 X24.18 Y29.837
G1 F1200 X63.163 Y68.82 E153.58107
G0 F3600 X63.729 Y68.82
G1 F1200 X24.18 Y29.271 E156.37147
G0 F3600 X24.18 Y28.706
G1 F1200 X64.294 Y68.82 E159.20173
G0 F3600 X64.86 Y68.82
G1 F1200 X24.18 Y28.14 E162.07192
G0 F3600 X24.18 Y27.574
G1 F1200 X65.426 Y68.82 E164.98205
G0 F3600 X65.816 Y68.645
G1 F1200 X24.18 Y27.009 E167.9197
G0 F3600 X24.18 Y26.443
G1 F1200 X65.816 Y68.079 E170.85734
G0 F3600 X65.816 Y67.513
G1 F1200 X24.18 Y25.877 E173.79498
G0 F3600 X24.18 Y25.312
G1 F1200 X65.816 Y66.947 E176.73259
G0 F3600 X65.816 Y66.382
G1 F1200 X24.18 Y24.746 E179.67024
G0 F3600 X24.18 Y24.18
G1 F1200 X65.816 Y65.816 E182.60788
G0 F3600 X65.816 Y65.25
G1 F1200 X24.18 Y23.615 E185.54549
G0 F3600 X24.409 Y23.278
G1 F1200 X65.816 Y64.685 E188.46698
G0 F3600 X65.816 Y64.119
G1 F1200 X32.862 Y31.165 E190.79206
G0 F3600 X33.439 Y31.176
G1 F1200 X65.816 Y63.553 E193.07644
G0 F3600 X65.816 Y62.988
G1 F1200 X34.005 Y31.176 E195.32091
G0 F3600 X34.57 Y31.176
G1 F1200 X65.816 Y62.422 E197.52548
G0 F3600 X65.816 Y61.856
G1 F1200 X35.136 Y31.176 E199.69012
G0 F3600 X35.702 Y31.176
G1 F1200 X65.816 Y61.291 E201.81486
G0 F3600 X65.816 Y60.725
G1 F1200 X36.268 Y31.176 E203.89967
G0 F3600 X36.833 Y31.176
G1 F1200 X65.816 Y60.159 E205.94458
G0 F3600 X65.816 Y59.594
G1 F1200 X37.399 Y31.176 E207.94958
G0 F3600 X37.965 Y31.177
G1 F1200 X65.816 Y59.028 E209.91462
G0 F3600 X65.816 Y58.462
G1 F1200 X38.531 Y31.177 E211.83973
G0 F3600 X39.097 Y31.177
G1 F1200 X65.816 Y57.896 E213.7249
G0 F3600 X65.816 Y57.331
G1 F1200 X39.662 Y31.177 E215.5702
G0 F3600 X40.228 Y31.177
G1 F1200 X65.816 Y56.765 E217.37557
G0 F3600 X65.816 Y56.199
G1 F1200 X40.794 Y31.177 E219.14101
G0 F3600 X41.359 Y31.177
G1 F1200 X65.816 Y55.634 E220.86659
G0 F3600 X65.816 Y55.068
G1 F1200 X41.925 Y31.177 E222.55222
G0 F3600 X42.491 Y31.178
G1 F1200 X65.816 Y54.502 E224.19789
G0 F3600 X65.816 Y53.937
G1 F1200 X43.057 Y31.178 E225.80366
G0 F3600 X43.623 Y31.178
G1 F1200 X65.816 Y53.371 E227.3695
G0 F3600 X65.816 Y52.805
G1 F1200 X44.189 Y31.178 E228.8954
G0 F3600 X44.754 Y31.178
G1 F1200 X65.816 Y52.24 E230.38144
G0 F3600 X65.816 Y51.674
G1 F1200 X45.32 Y31.178 E231.82754
G0 F3600 X45.886 Y31.178
G1 F1200 X65.816 Y51.108 E233.23371
G0 F3600 X65.816 Y50.543
G1 F1200 X46.451 Y31.178 E234.60002
G0 F3600 X47.018 Y31.178
G1 F1200 X65.816 Y49.977 E235.92635
G0 F3600 X65.816 Y49.411
G1 F1200 X47.583 Y31.178 E237.21279
G0 F3600 X48.149 Y31.178
G1 F1200 X65.816 Y48.846 E238.45933
G0 F3600 X65.816 Y48.28
G1 F1200 X48.715 Y31.178 E239.66593
G0 F3600 X49.28 Y31.178
G1 F1200 X65.816 Y47.714 E240.83263
G0 F3600 X65.816 Y47.148
G1 F1200 X49.846 Y31.178 E241.9594
G0 F3600 X50.412 Y31.178
G1 F1200 X65.816 Y46.583 E243.04628
G0 F3600 X65.816 Y46.017
G1 F1200 X50.977 Y31.178 E244.09325
G0 F3600 X51.543 Y31.178
G1 F1200 X65.816 Y45.451 E245.10028
G0 F3600 X65.816 Y44.886
G1 F1200 X52.11 Y31.179 E246.06735
G0 F3600 X52.675 Y31.179
G1 F1200 X65.816 Y44.32 E246.99452
G0 F3600 X65.816 Y43.754
G1 F1200 X53.241 Y31.179 E247.88175
G0 F3600 X53.807 Y31.179
G1 F1200 X65.816 Y43.189 E248.72909
G0 F3600 X65.816 Y42.623
G1 F1200 X54.372 Y31.179 E249.53653
G0 F3600 X54.938 Y31.179
G1 F1200 X65.816 Y42.057 E250.30403
G0 F3600 X65.816 Y41.492
G1 F1200 X55.504 Y31.179 E251.03163
G0 F3600 X56.069 Y31.179
G1 F1200 X65.816 Y40.926 E251.71933
G0 F3600 X65.816 Y40.36
G1 F1200 X56.636 Y31.18 E252.36703
G0 F3600 X57.201 Y31.18
G1 F1200 X65.816 Y39.795 E252.97487
G0 F3600 X65.816 Y39.229
G1 F1200 X57.767 Y31.18 E253.54277
G0 F3600 X58.333 Y31.18
G1 F1200 X65.816 Y38.663 E254.07073
G0 F3600 X65.816 Y38.097
G1 F1200 X58.898 Y31.18 E254.5588
G0 F3600 X59.464 Y31.18
G1 F1200 X65.816 Y37.532 E255.00697
G0 F3600 X65.816 Y36.966
G1 F1200 X60.03 Y31.18 E255.4152
G0 F3600 X60.596 Y31.18
G1 F1200 X65.816 Y36.4 E255.7835
G0 F3600 X65.816 Y35.835
G1 F1200 X61.162 Y31.181 E256.11187
G0 F3600 X61.728 Y31.181
G1 F1200 X65.816 Y35.269 E256.4003
G0 F3600 X65.816 Y34.703
G1 F1200 X62.293 Y31.181 E256.64883
G0 F3600 X62.859 Y31.181
