;FLAVOR:Marlin
;TIME:1925
;Filament used: 1.45248m
;Layer height: 0.2
;Generated with Cura_SteamEngine 3.6.0
M104 S200
M105
M109 S200
M82 ;absolute extrusion mode
G28 ;Home
G1 Z15.0 F6000 ;Move the platform down 15mm
;Prime the extruder
G92 E0
G1 F200 E3
G92 E0
G92 E0
G1 F1500 E-6.5
;LAYER_COUNT:68
;LAYER:0
M107
G0 F3600 X30.956 Y38.167 Z0.3
;TYPE:SKIRT
G1 F1500 E0
G1 F1200 X34.814 Y34.738 E0.25751
G1 X35.262 Y34.393 E0.28572
G1 X35.531 Y34.23 E0.30142
G1 X36.243 Y33.835 E0.34204
G1 X36.95 Y33.528 E0.38049
G1 X41.525 Y32.045 E0.62043
G1 X42.242 Y31.883 E0.65711
G1 X43.394 Y31.733 E0.71506
G1 X43.958 Y31.7 E0.74325
G1 X44.327 Y31.722 E0.76169
G1 X47.849 Y32.091 E0.93837
G1 X49.237 Y32.234 E1.00798
G1 X49.794 Y32.332 E1.0362
G1 X50.074 Y32.412 E1.05073
G1 X51.074 Y32.74 E1.10323
G1 X51.827 Y33.077 E1.14439
G1 X56.082 Y35.534 E1.38952
G1 X56.751 Y36.018 E1.43072
G1 X57.537 Y36.722 E1.48336
G1 X57.93 Y37.128 E1.51155
G1 X58.105 Y37.353 E1.52577
G1 X61.004 Y41.348 E1.77203
G1 X61.303 Y41.828 E1.80024
G1 X61.501 Y42.264 E1.82413
G1 X61.983 Y43.52 E1.89125
G1 X62.167 Y44.148 E1.9239
G1 X63.144 Y48.902 E2.16603
G1 X63.219 Y49.462 E2.19422
G1 X63.226 Y49.746 E2.2084
G1 X63.218 Y50.559 E2.24896
G1 X63.131 Y51.352 E2.28876
G1 X62.105 Y56.177 E2.53486
G1 X61.849 Y56.965 E2.5762
G1 X61.43 Y57.911 E2.62781
G1 X61.165 Y58.41 E2.656
G1 X61.006 Y58.646 E2.6702
G1 X58.06 Y62.69 E2.91981
G1 X57.696 Y63.123 E2.94804
G1 X57.45 Y63.355 E2.96491
G1 X56.637 Y64.061 E3.01863
G1 X56.012 Y64.506 E3.0569
G1 X51.816 Y66.926 E3.29856
G1 X51.116 Y67.245 E3.33694
G1 X50.358 Y67.505 E3.37692
G1 X49.811 Y67.65 E3.40515
G1 X49.51 Y67.696 E3.42035
G1 X44.358 Y68.279 E3.67902
G1 X43.793 Y68.302 E3.70723
G1 X43.455 Y68.278 E3.72414
G1 X42.402 Y68.158 E3.77701
G1 X41.62 Y67.989 E3.81693
G1 X36.947 Y66.472 E4.06204
G1 X36.183 Y66.132 E4.10376
G1 X35.285 Y65.614 E4.15548
G1 X34.609 Y65.123 E4.19716
G1 X30.926 Y61.81 E4.44431
G1 X30.385 Y61.215 E4.48443
G1 X29.919 Y60.585 E4.52353
G1 X29.495 Y59.864 E4.56526
G1 X27.342 Y55.138 E4.82435
G1 X27.145 Y54.609 E4.85252
G1 X27.068 Y54.303 E4.86826
G1 X26.864 Y53.333 E4.91771
G1 X26.778 Y52.516 E4.9587
G1 X26.77 Y47.546 E5.20665
G1 X26.856 Y46.715 E5.24833
G1 X27.073 Y45.685 E5.30084
G1 X27.334 Y44.881 E5.34302
G1 X29.343 Y40.376 E5.58911
G1 X29.762 Y39.652 E5.63084
G1 X30.379 Y38.804 E5.68316
G1 X30.743 Y38.371 E5.71138
G1 X30.956 Y38.167 E5.7261
G0 F3600 X31.221 Y38.466
G1 F1200 X35.079 Y35.037 E5.98361
G1 X35.725 Y34.58 E6.02309
G1 X36.437 Y34.185 E6.06371
G1 X37.073 Y33.908 E6.09832
G1 X41.648 Y32.425 E6.33826
G1 X42.293 Y32.28 E6.37124
G1 X43.445 Y32.13 E6.4292
G1 X43.981 Y32.101 E6.45598
G1 X44.285 Y32.12 E6.47118
G1 X47.808 Y32.489 E6.6479
G1 X49.196 Y32.632 E6.71752
G1 X49.949 Y32.792 E6.75592
G1 X50.949 Y33.12 E6.80843
G1 X51.627 Y33.423 E6.84548
G1 X55.882 Y35.88 E7.09061
G1 X56.484 Y36.316 E7.12769
G1 X57.27 Y37.02 E7.18034
G1 X57.782 Y37.588 E7.21849
G1 X60.681 Y41.583 E7.46475
G1 X60.962 Y42.039 E7.49147
G1 X61.128 Y42.407 E7.51161
G1 X61.61 Y43.663 E7.57873
G1 X61.775 Y44.228 E7.60809
G1 X62.752 Y48.982 E7.85023
G1 X62.826 Y49.742 E7.88832
G1 X62.818 Y50.555 E7.92889
G1 X62.739 Y51.269 E7.96473
G1 X61.713 Y56.094 E8.21083
G1 X61.484 Y56.803 E8.248
G1 X61.065 Y57.749 E8.29962
G1 X60.683 Y58.411 E8.33775
G1 X57.737 Y62.455 E8.58736
G1 X57.39 Y62.863 E8.61409
G1 X57.187 Y63.053 E8.62796
G1 X56.374 Y63.759 E8.68168
G1 X55.813 Y64.16 E8.71608
G1 X51.617 Y66.58 E8.95774
G1 X50.986 Y66.866 E8.9923
G1 X50.228 Y67.126 E9.03228
G1 X49.465 Y67.298 E9.07131
G1 X44.313 Y67.881 E9.32998
G1 X43.777 Y67.902 E9.35674
G1 X43.5 Y67.881 E9.3706
G1 X42.447 Y67.761 E9.42348
G1 X41.743 Y67.608 E9.45942
G1 X37.07 Y66.091 E9.70453
G1 X36.383 Y65.785 E9.74205
G1 X35.485 Y65.267 E9.79377
G1 X34.876 Y64.825 E9.83132
G1 X31.193 Y61.512 E10.07846
G1 X30.707 Y60.977 E10.11452
G1 X30.241 Y60.347 E10.15362
G1 X29.859 Y59.698 E10.19119
G1 X27.706 Y54.972 E10.45028
G1 X27.459 Y54.221 E10.48973
G1 X27.255 Y53.251 E10.53918
G1 X27.178 Y52.516 E10.57605
G1 X27.17 Y47.546 E10.824
G1 X27.247 Y46.798 E10.86152
G1 X27.464 Y45.768 E10.91403
G1 X27.699 Y45.044 E10.95201
G1 X29.708 Y40.539 E11.1981
G1 X30.085 Y39.887 E11.23568
G1 X30.702 Y39.039 E11.288
G1 X31.221 Y38.466 E11.32657
G0 F3600 X31.487 Y38.765
G1 F1200 X35.345 Y35.336 E11.58408
G1 X35.919 Y34.93 E11.61916
G1 X36.631 Y34.535 E11.65978
G1 X37.196 Y34.289 E11.69052
G1 X41.771 Y32.806 E11.93046
G1 X42.345 Y32.677 E11.95981
G1 X43.497 Y32.527 E12.01777
G1 X44.244 Y32.517 E12.05504
G1 X47.773 Y32.887 E12.23207
G1 X47.773 Y32.888 E12.23212
G1 X49.155 Y33.03 E12.30143
G1 X49.824 Y33.172 E12.33555
G1 X50.824 Y33.5 E12.38806
G1 X51.427 Y33.77 E12.42102
G1 X55.682 Y36.227 E12.66615
G1 X56.217 Y36.614 E12.69909
G1 X57.003 Y37.318 E12.75174
G1 X57.458 Y37.823 E12.78565
G1 X60.357 Y41.818 E13.03191
G1 X60.621 Y42.249 E13.05712
G1 X60.755 Y42.55 E13.07356
G1 X61.237 Y43.806 E13.14068
G1 X61.383 Y44.309 E13.16681
G1 X62.36 Y49.063 E13.40895
G1 X62.426 Y49.738 E13.44278
G1 X62.418 Y50.551 E13.48334
G1 X62.348 Y51.186 E13.51522
G1 X61.322 Y56.011 E13.76132
G1 X61.118 Y56.641 E13.79436
G1 X60.699 Y57.587 E13.84598
G1 X60.359 Y58.175 E13.87986
G1 X57.413 Y62.219 E14.12948
G1 X56.925 Y62.751 E14.16549
G1 X56.112 Y63.457 E14.21921
G1 X55.613 Y63.813 E14.24979
G1 X51.417 Y66.233 E14.49145
G1 X50.856 Y66.488 E14.5222
G1 X50.098 Y66.748 E14.56218
G1 X49.42 Y66.901 E14.59685
G1 X44.268 Y67.484 E14.85553
G1 X43.546 Y67.483 E14.89155
G1 X42.493 Y67.363 E14.94442
G1 X41.867 Y67.228 E14.97637
G1 X37.194 Y65.711 E15.22149
G1 X36.583 Y65.439 E15.25485
G1 X35.685 Y64.921 E15.30658
G1 X35.144 Y64.528 E15.33994
G1 X31.461 Y61.215 E15.58708
G1 X31.028 Y60.739 E15.61919
G1 X30.562 Y60.109 E15.65828
G1 X30.223 Y59.533 E15.69163
G1 X28.07 Y54.807 E15.95072
G1 X27.851 Y54.139 E15.98579
G1 X27.647 Y53.169 E16.03525
G1 X27.578 Y52.515 E16.06805
G1 X27.57 Y47.545 E16.31601
G1 X27.639 Y46.88 E16.34936
G1 X27.856 Y45.85 E16.40188
G1 X28.064 Y45.207 E16.4356
G1 X30.073 Y40.702 E16.68169
G1 X30.408 Y40.122 E16.7151
G1 X31.025 Y39.274 E16.76742
G1 X31.487 Y38.765 E16.80172
G1 F1500 E10.30172
;MESH:15T dişli.stl(1)
G0 F3600 X32.872 Y41.008
G0 X33.879 Y41.798
G0 X35.855 Y44.422
G0 X38.815 Y53.509
G0 X44.893 Y57.079
G0 X44.893 Y56.979
;TYPE:WALL-INNER
G1 F1500 E16.80172
G1 F1200 X50.936 Y53.489 E17.14987
G1 X50.936 Y46.511 E17.49801
G1 X44.893 Y43.021 E17.84616
G1 X38.849 Y46.511 E18.19435
G1 X38.849 Y53.489 E18.54249
G1 X44.893 Y56.979 E18.89069
G0 F3600 X44.893 Y57.079
G0 X50.97 Y53.508
G0 X54.476 Y47.506
G0 X54.575 Y47.498
G1 F1200 X54.756 Y48.341 E18.9337
G1 X54.831 Y48.522 E18.94348
G1 X54.925 Y48.686 E18.95291
G1 X55.043 Y48.835 E18.96239
G1 X55.176 Y48.964 E18.97163
G1 X55.328 Y49.075 E18.98102
G1 X55.493 Y49.163 E18.99035
G1 X55.667 Y49.227 E18.9996
G1 X55.849 Y49.267 E19.0089
G1 X56.028 Y49.282 E19.01786
G1 X56.187 Y49.274 E19.0258
G1 X56.804 Y49.208 E19.05676
G1 X56.956 Y49.218 E19.06436
G1 X57.203 Y49.259 E19.07685
G1 X57.503 Y49.336 E19.0923
G1 X57.779 Y49.427 E19.1068
G1 X58.064 Y49.541 E19.12212
G1 X58.341 Y49.671 E19.13738
G1 X58.59 Y49.803 E19.15144
G1 X58.636 Y49.827 E19.15403
G1 X58.639 Y50.171 E19.17119
G1 X58.593 Y50.195 E19.17378
G1 X58.352 Y50.323 E19.1874
G1 X58.073 Y50.453 E19.20275
G1 X57.78 Y50.572 E19.21853
G1 X57.513 Y50.661 E19.23257
G1 X57.224 Y50.736 E19.24747
G1 X56.968 Y50.78 E19.26043
G1 X56.806 Y50.791 E19.26853
G1 X56.185 Y50.726 E19.29968
G1 X56.023 Y50.718 E19.30777
G1 X55.838 Y50.734 E19.31704
G1 X55.653 Y50.777 E19.32651
G1 X55.481 Y50.843 E19.3357
G1 X55.317 Y50.932 E19.34501
G1 X55.164 Y51.046 E19.35453
G1 X55.033 Y51.176 E19.36374
G1 X54.918 Y51.325 E19.37313
G1 X54.826 Y51.489 E19.38251
G1 X54.76 Y51.652 E19.39128
G1 X54.718 Y51.812 E19.39954
G1 X54.576 Y52.502 E19.43468
G1 X54.573 Y52.698 E19.44446
G1 X54.592 Y52.883 E19.45374
G1 X54.639 Y53.065 E19.46312
G1 X54.709 Y53.236 E19.47234
G1 X54.801 Y53.397 E19.48159
G1 X54.917 Y53.546 E19.49101
G1 X55.051 Y53.677 E19.50036
G1 X55.198 Y53.785 E19.50946
G1 X55.354 Y53.873 E19.51839
G1 X55.508 Y53.932 E19.52662
G1 X56.05 Y54.103 E19.55498
G1 X56.127 Y54.136 E19.55915
G1 X56.327 Y54.252 E19.57069
G1 X56.564 Y54.424 E19.5853
G1 X56.776 Y54.604 E19.59917
G1 X57.008 Y54.828 E19.61526
G1 X57.198 Y55.035 E19.62928
G1 X57.398 Y55.276 E19.64491
G1 X57.481 Y55.39 E19.65194
G1 X57.514 Y55.435 E19.65473
G1 X57.381 Y55.746 E19.6716
G1 X57.325 Y55.749 E19.6744
G1 X57.06 Y55.768 E19.68765
G1 X56.745 Y55.776 E19.70337
G1 X56.434 Y55.765 E19.7189
G1 X56.147 Y55.737 E19.73329
G1 X55.87 Y55.691 E19.74729
G1 X55.592 Y55.62 E19.76161
G1 X55.457 Y55.572 E19.76876
G1 X54.913 Y55.255 E19.80017
G1 X54.764 Y55.181 E19.80847
G1 X54.59 Y55.122 E19.81764
G1 X54.409 Y55.087 E19.82683
G1 X54.221 Y55.077 E19.83623
G1 X54.038 Y55.093 E19.84539
G1 X53.853 Y55.132 E19.85482
G1 X53.676 Y55.2 E19.86428
G1 X53.511 Y55.289 E19.87364
G1 X53.364 Y55.398 E19.88277
G1 X53.228 Y55.527 E19.89212
G1 X52.808 Y56.098 E19.92748
G1 X52.72 Y56.232 E19.93548
G1 X52.639 Y56.399 E19.94474
G1 X52.582 Y56.58 E19.95421
G1 X52.551 Y56.762 E19.96342
G1 X52.544 Y56.949 E19.97275
G1 X52.564 Y57.134 E19.98204
G1 X52.608 Y57.318 E19.99148
G1 X52.678 Y57.491 E20.00079
G1 X52.767 Y57.649 E20.00983
G1 X52.874 Y57.792 E20.01874
G1 X52.99 Y57.91 E20.027
G1 X53.402 Y58.272 E20.05436
G1 X53.484 Y58.361 E20.0604
G1 X53.545 Y58.442 E20.06546
G1 X53.688 Y58.665 E20.07867
G1 X53.819 Y58.914 E20.09271
G1 X53.941 Y59.191 E20.10781
G1 X54.047 Y59.483 E20.12331
G1 X54.134 Y59.763 E20.13794
G1 X54.204 Y60.045 E20.15243
G1 X54.217 Y60.097 E20.15511
G1 X53.967 Y60.327 E20.17206
G1 X53.916 Y60.311 E20.17472
G1 X53.785 Y60.268 E20.1816
G1 X53.516 Y60.162 E20.19603
G1 X53.226 Y60.029 E20.21194
G1 X52.955 Y59.886 E20.22723
G1 X52.692 Y59.724 E20.24264
G1 X52.495 Y59.581 E20.25479
G1 X52.292 Y59.401 E20.26832
G1 X52.238 Y59.34 E20.27239
G1 X51.907 Y58.875 E20.30086
G1 X51.806 Y58.751 E20.30884
G1 X51.667 Y58.622 E20.3183
G1 X51.514 Y58.517 E20.32756
G1 X51.35 Y58.433 E20.33675
G1 X51.172 Y58.37 E20.34617
G1 X50.991 Y58.335 E20.35537
G1 X50.804 Y58.322 E20.36472
G1 X50.615 Y58.338 E20.37418
G1 X50.432 Y58.378 E20.38353
G1 X50.255 Y58.443 E20.39294
G1 X49.516 Y58.868 E20.43547
G1 X49.364 Y59 E20.44551
G1 X49.242 Y59.139 E20.45474
G1 X49.139 Y59.291 E20.4639
G1 X49.056 Y59.459 E20.47325
G1 X48.998 Y59.639 E20.48268
G1 X48.966 Y59.822 E20.49195
G1 X48.957 Y60.006 E20.50114
G1 X48.974 Y60.191 E20.51041
G1 X49.015 Y60.369 E20.51952
G1 X49.075 Y60.522 E20.52772
G1 X49.313 Y61.044 E20.55635
G1 X49.331 Y61.099 E20.55923
G1 X49.383 Y61.347 E20.57187
G1 X49.412 Y61.625 E20.58582
G1 X49.422 Y61.912 E20.60015
G1 X49.413 Y62.224 E20.61572
G1 X49.386 Y62.51 E20.63005
G1 X49.338 Y62.839 E20.64664
G1 X49.31 Y62.968 E20.65322
G1 X49.299 Y63.022 E20.65597
G1 X48.978 Y63.126 E20.67281
G1 X48.938 Y63.088 E20.67556
G1 X48.736 Y62.893 E20.68957
G1 X48.533 Y62.675 E20.70443
G1 X48.336 Y62.44 E20.71973
G1 X48.158 Y62.201 E20.73459
G1 X48.006 Y61.959 E20.74885
G1 X47.882 Y61.723 E20.76215
G1 X47.8 Y61.509 E20.77359
G1 X47.692 Y60.964 E20.80131
G1 X47.648 Y60.802 E20.80968
G1 X47.575 Y60.638 E20.81864
G1 X47.482 Y60.476 E20.82796
G1 X47.361 Y60.33 E20.83742
G1 X47.225 Y60.201 E20.84677
G1 X47.071 Y60.094 E20.85612
G1 X46.908 Y60.008 E20.86532
G1 X46.731 Y59.945 E20.87469
G1 X46.549 Y59.907 E20.88397
G1 X46.358 Y59.894 E20.89352
G1 X45.511 Y59.983 E20.93601
G1 X45.321 Y60.039 E20.94589
G1 X45.149 Y60.116 E20.95529
G1 X44.992 Y60.216 E20.96458
G1 X44.85 Y60.333 E20.97376
G1 X44.722 Y60.475 E20.9833
G1 X44.618 Y60.629 E20.99257
G1 X44.534 Y60.798 E21.00198
G1 X44.476 Y60.973 E21.01118
G1 X44.442 Y61.147 E21.02002
G1 X44.433 Y61.31 E21.02817
G1 X44.44 Y61.875 E21.05636
G1 X44.432 Y61.958 E21.06052
G1 X44.377 Y62.207 E21.07324
G1 X44.288 Y62.477 E21.08742
G1 X44.181 Y62.737 E21.10145
G1 X44.049 Y63.004 E21.11631
G1 X43.891 Y63.285 E21.13239
G1 X43.728 Y63.541 E21.14754
G1 X43.656 Y63.642 E21.15372
G1 X43.624 Y63.686 E21.15644
G1 X43.286 Y63.654 E21.17338
G1 X43.266 Y63.603 E21.17611
G1 X43.162 Y63.345 E21.18999
G1 X43.057 Y63.043 E21.20594
G1 X42.973 Y62.747 E21.22129
G1 X42.911 Y62.459 E21.23599
G1 X42.869 Y62.173 E21.25041
G1 X42.859 Y62.053 E21.25642
G1 X42.857 Y61.796 E21.26924
G1 X42.869 Y61.701 E21.27402
G1 X42.991 Y61.156 E21.30188
G1 X43.017 Y60.993 E21.31011
G1 X43.018 Y60.806 E21.31944
G1 X42.996 Y60.622 E21.32869
G1 X42.947 Y60.44 E21.33809
G1 X42.873 Y60.266 E21.34753
G1 X42.779 Y60.108 E21.3567
G1 X42.663 Y59.963 E21.36596
G1 X42.528 Y59.834 E21.37528
G1 X42.377 Y59.724 E21.3846
G1 X42.207 Y59.634 E21.39419
G1 X41.396 Y59.37 E21.43675
G1 X41.198 Y59.345 E21.4467
G1 X41.011 Y59.346 E21.45603
G1 X40.829 Y59.373 E21.46521
G1 X40.649 Y59.423 E21.47453
G1 X40.476 Y59.501 E21.484
G1 X40.319 Y59.598 E21.49321
G1 X40.175 Y59.716 E21.50249
G1 X40.048 Y59.855 E21.51189
G1 X39.946 Y60.002 E21.52081
G1 X39.872 Y60.145 E21.52885
G1 X39.647 Y60.669 E21.5573
G1 X39.612 Y60.732 E21.56089
G1 X39.469 Y60.927 E21.57296
G1 X39.28 Y61.137 E21.58705
G1 X39.059 Y61.347 E21.60226
G1 X38.841 Y61.532 E21.61653
G1 X38.594 Y61.715 E21.63186
G1 X38.332 Y61.89 E21.64758
G1 X38.214 Y61.959 E21.6544
G1 X38.169 Y61.985 E21.65699
G1 X37.871 Y61.819 E21.67401
G1 X37.872 Y61.766 E21.67666
G1 X37.881 Y61.503 E21.68979
G1 X37.909 Y61.179 E21.70601
G1 X37.947 Y60.901 E21.72001
G1 X38.015 Y60.573 E21.73672
G1 X38.13 Y60.188 E21.75677
G1 X38.23 Y59.957 E21.76933
G1 X38.28 Y59.87 E21.77433
G1 X38.618 Y59.418 E21.80249
G1 X38.707 Y59.276 E21.81085
G1 X38.783 Y59.111 E21.81991
G1 X38.838 Y58.932 E21.82926
G1 X38.868 Y58.748 E21.83856
G1 X38.873 Y58.559 E21.84799
G1 X38.85 Y58.373 E21.85734
G1 X38.803 Y58.194 E21.86657
G1 X38.731 Y58.018 E21.87606
G1 X38.638 Y57.86 E21.88521
G1 X38.523 Y57.712 E21.89456
G1 X38 Y57.235 E21.92987
G1 X37.874 Y57.132 E21.93799
G1 X37.718 Y57.036 E21.94713
G1 X37.548 Y56.961 E21.9564
G1 X37.369 Y56.909 E21.9657
G1 X37.183 Y56.883 E21.97507
G1 X36.994 Y56.882 E21.9845
G1 X36.807 Y56.909 E21.99393
G1 X36.63 Y56.958 E22.00309
G1 X36.46 Y57.033 E22.01236
G1 X36.308 Y57.124 E22.0212
G1 X36.18 Y57.226 E22.02936
G1 X35.756 Y57.617 E22.05814
G1 X35.701 Y57.658 E22.06156
G1 X35.477 Y57.784 E22.07438
G1 X35.217 Y57.9 E22.08859
G1 X34.958 Y57.992 E22.1023
G1 X34.656 Y58.078 E22.11796
G1 X34.355 Y58.144 E22.13334
G1 X34.06 Y58.194 E22.14827
G1 X33.927 Y58.209 E22.15494
G1 X33.873 Y58.214 E22.15765
G1 X33.671 Y57.942 E22.17455
G1 X33.694 Y57.893 E22.17725
G1 X33.804 Y57.666 E22.18984
G1 X33.961 Y57.38 E22.20611
G1 X34.129 Y57.113 E22.22185
G1 X34.292 Y56.883 E22.23592
G1 X34.477 Y56.66 E22.25037
G1 X34.671 Y56.46 E22.26427
G1 X34.791 Y56.359 E22.2721
G1 X35.331 Y56.05 E22.30314
G1 X35.467 Y55.962 E22.31122
G1 X35.609 Y55.837 E22.32066
G1 X35.729 Y55.697 E22.32986
G1 X35.83 Y55.543 E22.33904
G1 X35.912 Y55.373 E22.34846
G1 X35.967 Y55.192 E22.3579
G1 X35.998 Y55.007 E22.36726
G1 X36.003 Y54.818 E22.37669
G1 X35.982 Y54.638 E22.38573
G1 X35.938 Y54.453 E22.39522
G1 X35.589 Y53.671 E22.43794
G1 X35.476 Y53.508 E22.44784
G1 X35.351 Y53.37 E22.45713
G1 X35.208 Y53.251 E22.46641
G1 X35.048 Y53.151 E22.47582
G1 X34.877 Y53.075 E22.48516
G1 X34.698 Y53.023 E22.49446
G1 X34.512 Y52.996 E22.50383
G1 X34.33 Y52.995 E22.51291
G1 X34.152 Y53.016 E22.52186
G1 X33.993 Y53.058 E22.53006
G1 X33.456 Y53.24 E22.55835
G1 X33.369 Y53.26 E22.5628
G1 X33.129 Y53.282 E22.57483
G1 X32.843 Y53.281 E22.58909
G1 X32.563 Y53.26 E22.6031
G1 X32.264 Y53.217 E22.61817
G1 X31.965 Y53.156 E22.6334
G1 X31.642 Y53.073 E22.65004
