;FLAVOR:Marlin
;TIME:13812
;Filament used: 12.9411m
;Layer height: 0.2
;Generated with Cura_SteamEngine 3.6.0
M104 S200
M105
M109 S200
M82 ;absolute extrusion mode
G28 ;Home
G1 Z15.0 F6000 ;Move the platform down 15mm
;Prime the extruder
G92 E0
G1 F200 E3
G92 E0
G92 E0
G1 F1500 E-6.5
;LAYER_COUNT:460
;LAYER:0
M107
G0 F3600 X17.756 Y19.28 Z0.3
;TYPE:SKIRT
G1 F1500 E0
G1 F1200 X18.198 Y18.977 E0.02674
G1 X18.681 Y18.742 E0.05353
G1 X19.192 Y18.582 E0.08025
G1 X19.722 Y18.499 E0.10701
G1 X20.01 Y18.488 E0.12139
G1 X29.999 Y18.491 E0.61974
G1 X30.534 Y18.531 E0.64651
G1 X31.274 Y18.725 E0.68468
G1 X38.161 Y21.336 E1.05213
G1 X43.366 Y22.931 E1.32373
G1 X48.709 Y24.244 E1.59823
G1 X51.312 Y24.765 E1.73067
G1 X56.718 Y25.615 E2.00369
G1 X62.124 Y26.154 E2.27473
G1 X70.108 Y26.413 E2.67326
G1 X70.641 Y26.47 E2.7
G1 X71.16 Y26.606 E2.72677
G1 X71.653 Y26.817 E2.75353
G1 X72.109 Y27.1 E2.7803
G1 X72.518 Y27.447 E2.80706
G1 X72.871 Y27.85 E2.83379
G1 X73.16 Y28.302 E2.86055
G1 X73.378 Y28.792 E2.88731
G1 X73.522 Y29.309 E2.91409
G1 X73.591 Y30.011 E2.94928
G1 X73.591 Y69.991 E4.94389
G1 X73.551 Y70.526 E4.97065
G1 X73.432 Y71.049 E4.99741
G1 X73.237 Y71.548 E5.02414
G1 X72.969 Y72.013 E5.05092
G1 X72.636 Y72.433 E5.07766
G1 X72.244 Y72.799 E5.10441
G1 X71.802 Y73.102 E5.13115
G1 X71.319 Y73.337 E5.15795
G1 X70.808 Y73.497 E5.18466
G1 X70.082 Y73.59 E5.22118
G1 X63.52 Y73.756 E5.54866
G1 X58.097 Y74.217 E5.82019
G1 X52.703 Y74.986 E6.09202
G1 X47.314 Y76.066 E6.36623
G1 X44.726 Y76.702 E6.49918
G1 X42.101 Y77.423 E6.635
G1 X36.896 Y79.097 E6.90777
G1 X31.298 Y81.266 E7.20729
G1 X30.784 Y81.422 E7.23409
G1 X29.998 Y81.509 E7.27354
G1 X20.01 Y81.511 E7.77185
G1 X19.475 Y81.471 E7.79861
G1 X18.952 Y81.352 E7.82537
G1 X18.452 Y81.157 E7.85215
G1 X17.988 Y80.89 E7.87885
G1 X17.567 Y80.557 E7.90563
G1 X17.202 Y80.164 E7.93239
G1 X16.898 Y79.722 E7.95916
G1 X16.663 Y79.24 E7.98591
G1 X16.503 Y78.728 E8.01267
G1 X16.42 Y78.198 E8.03944
G1 X16.409 Y77.911 E8.05376
G1 X16.409 Y22.088 E10.83878
G1 X16.449 Y21.553 E10.86555
G1 X16.568 Y21.03 E10.89231
G1 X16.763 Y20.531 E10.91904
G1 X17.031 Y20.066 E10.94581
G1 X17.364 Y19.646 E10.97256
G1 X17.756 Y19.28 E10.99931
G0 F3600 X18.145 Y19.487
G1 F1200 X18.578 Y19.226 E11.02454
G1 X19.046 Y19.036 E11.04973
G1 X19.539 Y18.923 E11.07497
G1 X20.01 Y18.888 E11.09853
G1 X29.999 Y18.891 E11.59688
G1 X30.503 Y18.931 E11.62211
G1 X31.132 Y19.099 E11.65459
G1 X38.028 Y21.713 E12.02252
G1 X43.254 Y23.314 E12.29521
G1 X48.627 Y24.635 E12.57125
G1 X51.245 Y25.159 E12.70445
G1 X56.67 Y26.012 E12.97843
G1 X62.101 Y26.553 E13.25073
G1 X70.095 Y26.813 E13.64976
G1 X70.597 Y26.869 E13.67496
G1 X71.085 Y27.004 E13.70022
G1 X71.545 Y27.213 E13.72543
G1 X71.966 Y27.493 E13.75065
G1 X72.338 Y27.835 E13.77586
G1 X72.651 Y28.232 E13.80109
G1 X72.898 Y28.673 E13.8263
G1 X73.072 Y29.148 E13.85154
G1 X73.17 Y29.644 E13.87677
G1 X73.191 Y30.011 E13.8951
G1 X73.191 Y69.991 E15.88972
G1 X73.151 Y70.495 E15.91494
G1 X73.032 Y70.986 E15.94014
G1 X72.838 Y71.453 E15.96537
G1 X72.572 Y71.883 E15.9906
G1 X72.242 Y72.266 E16.01582
G1 X71.855 Y72.592 E16.04107
G1 X71.422 Y72.853 E16.06629
G1 X70.954 Y73.043 E16.09149
G1 X70.461 Y73.156 E16.11672
G1 X70.072 Y73.19 E16.1362
G1 X63.509 Y73.356 E16.46374
G1 X58.043 Y73.821 E16.73742
G1 X52.637 Y74.592 E17.00986
G1 X47.232 Y75.675 E17.28488
G1 X44.638 Y76.311 E17.41812
G1 X41.971 Y77.045 E17.55613
G1 X36.76 Y78.721 E17.82922
G1 X31.153 Y80.893 E18.12921
G1 X30.669 Y81.038 E18.15442
G1 X29.998 Y81.109 E18.18808
G1 X20.01 Y81.111 E18.68638
G1 X19.506 Y81.071 E18.71161
G1 X19.014 Y80.952 E18.73686
G1 X18.548 Y80.758 E18.76204
G1 X18.117 Y80.492 E18.78731
G1 X17.735 Y80.162 E18.8125
G1 X17.408 Y79.776 E18.83774
G1 X17.147 Y79.343 E18.86296
G1 X16.957 Y78.874 E18.88821
G1 X16.844 Y78.382 E18.91339
G1 X16.809 Y77.911 E18.93695
G1 X16.809 Y22.088 E21.72197
G1 X16.849 Y21.584 E21.7472
G1 X16.968 Y21.093 E21.7724
G1 X17.162 Y20.626 E21.79763
G1 X17.428 Y20.196 E21.82286
G1 X17.758 Y19.813 E21.84808
G1 X18.145 Y19.487 E21.87333
G1 F1500 E15.37333
;MESH:Pot Tutucu.stl
G0 F3600 X20.614 Y21.414
G0 X20.614 Y22.693
G0 X29.33 Y30.67
G0 X29.4 Y30.6
;TYPE:WALL-INNER
G1 F1500 E21.87333
G1 F1200 X69.4 Y30.6 E23.86893
G1 X69.4 Y69.4 E25.80467
G1 X29.4 Y69.4 E27.80028
G1 X29.4 Y77.32 E28.19541
G1 X20.6 Y77.32 E28.63445
G1 X20.6 Y22.879 E31.35052
G1 X20.6 Y22.679 E31.3605
G1 X20.8 Y22.679 E31.36696
G1 X29.4 Y22.68 E31.79601
G1 X29.4 Y30.6 E32.19114
G0 F3600 X29.8 Y30.2
;TYPE:WALL-OUTER
G1 F1200 X69.8 Y30.2 E34.18675
G1 X69.8 Y69.8 E36.1624
G1 X29.8 Y69.8 E38.15801
G1 X29.8 Y77.72 E38.55314
G1 X20.2 Y77.72 E39.03209
G1 X20.2 Y22.479 E41.78807
G1 X20.2 Y22.279 E41.79805
G1 X20.4 Y22.279 E41.80451
G1 X29.8 Y22.28 E42.27348
G1 X29.8 Y30.2 E42.66861
G0 F3600 X30 Y30.2
G0 X30 Y30.7
G0 X29.01 Y30.99
;TYPE:SKIN
G1 F1200 X69.01 Y30.99 E44.66422
G1 X69.01 Y69.01 E46.56104
G1 X29.01 Y69.01 E48.55665
G1 X29.01 Y76.93 E48.95178
G1 X20.99 Y76.93 E49.3519
G1 X20.99 Y23.069 E52.03904
G1 X29.01 Y23.07 E52.43916
G1 X29.01 Y30.99 E52.83429
G0 F3600 X68.829 Y31.494
G1 F1200 X68.505 Y31.169 E52.85718
G0 F3600 X67.939 Y31.169
G1 F1200 X68.829 Y32.06 E52.92001
G0 F3600 X68.829 Y32.625
G1 F1200 X67.373 Y31.169 E53.02274
G0 F3600 X66.808 Y31.169
G1 F1200 X68.829 Y33.191 E53.16537
G0 F3600 X68.829 Y33.757
G1 F1200 X66.242 Y31.169 E53.34793
G0 F3600 X65.676 Y31.169
G1 F1200 X68.829 Y34.322 E53.57039
G0 F3600 X68.829 Y34.888
G1 F1200 X65.111 Y31.169 E53.83275
G0 F3600 X64.545 Y31.169
G1 F1200 X68.829 Y35.454 E54.13505
G0 F3600 X68.829 Y36.02
G1 F1200 X63.979 Y31.169 E54.47728
G0 F3600 X63.414 Y31.169
G1 F1200 X68.829 Y36.585 E54.85937
G0 F3600 X68.829 Y37.151
G1 F1200 X62.848 Y31.169 E55.2814
G0 F3600 X62.282 Y31.169
G1 F1200 X68.829 Y37.717 E55.74336
G0 F3600 X68.829 Y38.282
G1 F1200 X61.716 Y31.169 E56.24522
G0 F3600 X61.151 Y31.169
G1 F1200 X68.829 Y38.848 E56.78698
G0 F3600 X68.829 Y39.414
G1 F1200 X60.585 Y31.169 E57.36867
G0 F3600 X60.019 Y31.169
G1 F1200 X68.829 Y39.979 E57.99026
G0 F3600 X68.829 Y40.545
G1 F1200 X59.454 Y31.169 E58.65176
G0 F3600 X58.888 Y31.169
G1 F1200 X68.829 Y41.111 E59.35318
G0 F3600 X68.829 Y41.676
G1 F1200 X58.322 Y31.169 E60.09451
G0 F3600 X57.757 Y31.169
G1 F1200 X68.829 Y42.242 E60.87573
G0 F3600 X68.829 Y42.808
G1 F1200 X57.191 Y31.169 E61.69689
G0 F3600 X56.625 Y31.169
G1 F1200 X68.829 Y43.373 E62.55795
G0 F3600 X68.829 Y43.939
G1 F1200 X56.06 Y31.169 E63.45891
G0 F3600 X55.494 Y31.169
G1 F1200 X68.829 Y44.505 E64.3998
G0 F3600 X68.829 Y45.07
G1 F1200 X54.928 Y31.169 E65.38059
G0 F3600 X54.363 Y31.169
G1 F1200 X68.829 Y45.636 E66.40128
G0 F3600 X68.829 Y46.202
G1 F1200 X53.797 Y31.169 E67.4619
G0 F3600 X53.231 Y31.169
G1 F1200 X68.829 Y46.768 E68.56246
G0 F3600 X68.829 Y47.333
G1 F1200 X52.666 Y31.169 E69.70288
G0 F3600 X52.1 Y31.169
G1 F1200 X68.829 Y47.899 E70.88324
G0 F3600 X68.829 Y48.465
G1 F1200 X51.534 Y31.169 E72.10353
G0 F3600 X50.968 Y31.169
G1 F1200 X68.829 Y49.03 E73.36372
G0 F3600 X68.829 Y49.596
G1 F1200 X50.403 Y31.169 E74.66381
G0 F3600 X49.837 Y31.169
G1 F1200 X68.829 Y50.162 E76.00383
G0 F3600 X68.829 Y50.727
G1 F1200 X49.271 Y31.169 E77.38376
G0 F3600 X48.706 Y31.169
G1 F1200 X68.829 Y51.293 E78.80358
G0 F3600 X68.829 Y51.859
G1 F1200 X48.14 Y31.169 E80.26333
G0 F3600 X47.574 Y31.169
G1 F1200 X68.829 Y52.424 E81.76299
G0 F3600 X68.829 Y52.99
G1 F1200 X47.009 Y31.169 E83.30254
G0 F3600 X46.443 Y31.169
G1 F1200 X68.829 Y53.556 E84.88203
G0 F3600 X68.829 Y54.121
G1 F1200 X45.877 Y31.169 E86.50142
G0 F3600 X45.312 Y31.169
G1 F1200 X68.829 Y54.687 E88.16071
G0 F3600 X68.829 Y55.253
G1 F1200 X44.746 Y31.169 E89.85993
G0 F3600 X44.18 Y31.169
G1 F1200 X68.829 Y55.819 E91.59908
G0 F3600 X68.829 Y56.384
G1 F1200 X43.615 Y31.169 E93.3781
G0 F3600 X43.049 Y31.169
G1 F1200 X68.829 Y56.95 E95.19706
G0 F3600 X68.829 Y57.516
G1 F1200 X42.483 Y31.169 E97.05594
G0 F3600 X41.917 Y31.169
G1 F1200 X68.829 Y58.081 E98.95473
G0 F3600 X68.829 Y58.647
G1 F1200 X41.352 Y31.169 E100.89342
G0 F3600 X40.786 Y31.169
G1 F1200 X68.829 Y59.213 E102.87204
G0 F3600 X68.829 Y59.778
G1 F1200 X40.22 Y31.169 E104.89056
G0 F3600 X39.655 Y31.169
G1 F1200 X68.829 Y60.344 E106.94897
G0 F3600 X68.829 Y60.91
G1 F1200 X39.089 Y31.169 E109.04733
G0 F3600 X38.523 Y31.169
G1 F1200 X68.829 Y61.475 E111.18558
G0 F3600 X68.829 Y62.041
G1 F1200 X37.958 Y31.169 E113.36373
G0 F3600 X37.392 Y31.169
G1 F1200 X68.829 Y62.607 E115.58182
G0 F3600 X68.829 Y63.172
G1 F1200 X36.826 Y31.169 E117.8398
G0 F3600 X36.261 Y31.169
G1 F1200 X68.829 Y63.738 E120.13768
G0 F3600 X68.829 Y64.304
G1 F1200 X35.695 Y31.169 E122.4755
G0 F3600 X35.129 Y31.169
G1 F1200 X68.829 Y64.869 E124.85322
G0 F3600 X68.829 Y65.435
G1 F1200 X34.564 Y31.169 E127.27084
G0 F3600 X33.998 Y31.169
G1 F1200 X68.829 Y66.001 E129.72839
G0 F3600 X68.829 Y66.567
G1 F1200 X33.432 Y31.169 E132.22587
G0 F3600 X32.867 Y31.169
G1 F1200 X68.829 Y67.132 E134.76322
G0 F3600 X68.829 Y67.698
G1 F1200 X32.301 Y31.169 E137.3405
G0 F3600 X31.735 Y31.169
G1 F1200 X68.829 Y68.264 E139.95772
G0 F3600 X68.829 Y68.829
G1 F1200 X31.169 Y31.169 E142.61484
G0 F3600 X30.604 Y31.169
G1 F1200 X68.264 Y68.829 E145.27195
G0 F3600 X67.698 Y68.829
G1 F1200 X30.038 Y31.169 E147.92907
G0 F3600 X29.472 Y31.169
G1 F1200 X67.132 Y68.829 E150.58619
G0 F3600 X66.567 Y68.829
G1 F1200 X28.907 Y31.169 E153.2433
G0 F3600 X28.83 Y31.092
G1 F1200 X21.169 Y23.432 E153.78379
G0 F3600 X21.551 Y23.248
G1 F1200 X28.83 Y30.527 E154.29736
G0 F3600 X28.83 Y29.961
G1 F1200 X22.117 Y23.248 E154.771
G0 F3600 X22.683 Y23.248
G1 F1200 X28.83 Y29.395 E155.20471
G0 F3600 X28.83 Y28.83
G1 F1200 X23.248 Y23.248 E155.59855
G0 F3600 X23.815 Y23.249
G1 F1200 X28.83 Y28.264 E155.95238
G0 F3600 X28.83 Y27.698
G1 F1200 X24.381 Y23.249 E156.26628
G0 F3600 X24.946 Y23.249
G1 F1200 X28.83 Y27.133 E156.54032
G0 F3600 X28.83 Y26.567
G1 F1200 X25.512 Y23.249 E156.77442
G0 F3600 X26.078 Y23.249
G1 F1200 X28.83 Y26.001 E156.96859
G0 F3600 X28.83 Y25.436
G1 F1200 X26.644 Y23.25 E157.12283
G0 F3600 X27.21 Y23.25
G1 F1200 X28.83 Y24.87 E157.23713
G0 F3600 X28.83 Y24.304
G1 F1200 X27.775 Y23.25 E157.31153
G0 F3600 X28.341 Y23.25
G1 F1200 X28.83 Y23.738 E157.34599
G0 F3600 X21.169 Y23.997
G1 F1200 X66.001 Y68.829 E160.50913
G0 F3600 X65.435 Y68.829
G1 F1200 X21.169 Y24.563 E163.63234
G0 F3600 X21.169 Y25.129
G1 F1200 X64.869 Y68.829 E166.71561
G0 F3600 X64.304 Y68.829
G1 F1200 X21.169 Y25.694 E169.75902
G0 F3600 X21.169 Y26.26
G1 F1200 X63.738 Y68.829 E172.76249
G0 F3600 X63.172 Y68.829
G1 F1200 X21.169 Y26.826 E175.72603
G0 F3600 X21.169 Y27.391
G1 F1200 X62.607 Y68.829 E178.6497
G0 F3600 X62.041 Y68.829
G1 F1200 X21.169 Y27.957 E181.53344
G0 F3600 X21.169 Y28.523
G1 F1200 X61.475 Y68.829 E184.37725
G0 F3600 X60.91 Y68.829
G1 F1200 X21.169 Y29.088 E187.18119
G0 F3600 X21.169 Y29.654
G1 F1200 X60.344 Y68.829 E189.9452
G0 F3600 X59.778 Y68.829
G1 F1200 X21.169 Y30.22 E192.66927
G0 F3600 X21.169 Y30.786
G1 F1200 X59.213 Y68.829 E195.35345
G0 F3600 X58.647 Y68.829
G1 F1200 X21.169 Y31.351 E197.99772
G0 F3600 X21.169 Y31.917
G1 F1200 X58.081 Y68.829 E200.60206
G0 F3600 X57.516 Y68.829
G1 F1200 X21.169 Y32.483 E203.1665
G0 F3600 X21.169 Y33.048
G1 F1200 X56.95 Y68.829 E205.69105
G0 F3600 X56.384 Y68.829
G1 F1200 X21.169 Y33.614 E208.17566
G0 F3600 X21.169 Y34.18
G1 F1200 X55.819 Y68.829 E210.62036
G0 F3600 X55.253 Y68.829
G1 F1200 X21.169 Y34.745 E213.02518
G0 F3600 X21.169 Y35.311
G1 F1200 X54.687 Y68.829 E215.39005
G0 F3600 X54.121 Y68.829
G1 F1200 X21.169 Y35.877 E217.71499
G0 F3600 X21.169 Y36.442
G1 F1200 X53.556 Y68.829 E220.00007
G0 F3600 X52.99 Y68.829
G1 F1200 X21.169 Y37.008 E222.24521
G0 F3600 X21.169 Y37.574
G1 F1200 X52.424 Y68.829 E224.45042
G0 F3600 X51.859 Y68.829
G1 F1200 X21.169 Y38.139 E226.61577
G0 F3600 X21.169 Y38.705
G1 F1200 X51.293 Y68.829 E228.74118
G0 F3600 X50.727 Y68.829
G1 F1200 X21.169 Y39.271 E230.82666
G0 F3600 X21.169 Y39.836
G1 F1200 X50.162 Y68.829 E232.87227
G0 F3600 X49.596 Y68.829
G1 F1200 X21.169 Y40.402 E234.87795
G0 F3600 X21.169 Y40.968
G1 F1200 X49.03 Y68.829 E236.84369
G0 F3600 X48.465 Y68.829
G1 F1200 X21.169 Y41.534 E238.76954
G0 F3600 X21.169 Y42.099
G1 F1200 X47.899 Y68.829 E240.65548
G0 F3600 X47.333 Y68.829
G1 F1200 X21.169 Y42.665 E242.50149
G0 F3600 X21.169 Y43.231
G1 F1200 X46.768 Y68.829 E244.30761
G0 F3600 X46.202 Y68.829
G1 F1200 X21.169 Y43.796 E246.07382
G0 F3600 X21.169 Y44.362
G1 F1200 X45.636 Y68.829 E247.8001
G0 F3600 X45.07 Y68.829
G1 F1200 X21.169 Y44.928 E249.48644
G0 F3600 X21.169 Y45.493
G1 F1200 X44.505 Y68.829 E251.13292
G0 F3600 X43.939 Y68.829
G1 F1200 X21.169 Y46.059 E252.73947
G0 F3600 X21.169 Y46.625
G1 F1200 X43.373 Y68.829 E254.30608
G0 F3600 X42.808 Y68.829
G1 F1200 X21.169 Y47.19 E255.83283
G0 F3600 X21.169 Y47.756
G1 F1200 X42.242 Y68.829 E257.31964
G0 F3600 X41.676 Y68.829
G1 F1200 X21.169 Y48.322 E258.76652
G0 F3600 X21.169 Y48.887
G1 F1200 X41.111 Y68.829 E260.17354
G0 F3600 X40.545 Y68.829
G1 F1200 X21.169 Y49.453 E261.54062
G0 F3600 X21.169 Y50.019
G1 F1200 X39.979 Y68.829 E262.86777
G0 F3600 X39.414 Y68.829
G1 F1200 X21.169 Y50.585 E264.15502
G0 F3600 X21.169 Y51.15
G1 F1200 X38.848 Y68.829 E265.40237
G0 F3600 X38.282 Y68.829
G1 F1200 X21.169 Y51.716 E266.60978
G0 F3600 X21.169 Y52.282
G1 F1200 X37.717 Y68.829 E267.7773
G0 F3600 X37.151 Y68.829
G1 F1200 X21.169 Y52.847 E268.90491
G0 F3600 X21.169 Y53.413
G1 F1200 X36.585 Y68.829 E269.99259
G0 F3600 X36.02 Y68.829
G1 F1200 X21.169 Y53.979 E271.04038
G0 F3600 X21.169 Y54.544
G1 F1200 X35.454 Y68.829 E272.04826
G0 F3600 X34.888 Y68.829
G1 F1200 X21.169 Y55.11 E273.01621
G0 F3600 X21.169 Y55.676
G1 F1200 X34.322 Y68.829 E273.94423
G0 F3600 X33.757 Y68.829
G1 F1200 X21.169 Y56.241 E274.83238
G0 F3600 X21.169 Y56.807
G1 F1200 X33.191 Y68.829 E275.68059
G0 F3600 X32.625 Y68.829
G1 F1200 X21.169 Y57.373 E276.48888
G0 F3600 X21.169 Y57.938
G1 F1200 X32.06 Y68.829 E277.2573
G0 F3600 X31.494 Y68.829
G1 F1200 X21.169 Y58.504 E277.98578
G0 F3600 X21.169 Y59.07
G1 F1200 X30.928 Y68.829 E278.67433
G0 F3600 X30.363 Y68.829
G1 F1200 X21.169 Y59.635 E279.32302
G0 F3600 X21.169 Y60.201
G1 F1200 X29.797 Y68.829 E279.93177
G0 F3600 X29.231 Y68.829
G1 F1200 X21.169 Y60.767 E280.50059
G0 F3600 X21.169 Y61.333
G1 F1200 X28.83 Y68.993 E281.04108
G0 F3600 X28.83 Y69.559
G1 F1200 X21.169 Y61.898 E281.5816
G0 F3600 X21.169 Y62.464
G1 F1200 X28.83 Y70.125 E282.12213
G0 F3600 X28.83 Y70.69
G1 F1200 X21.169 Y63.03 E282.66262
G0 F3600 X21.169 Y63.595
G1 F1200 X28.83 Y71.256 E283.20314
G0 F3600 X28.83 Y71.822
G1 F1200 X21.169 Y64.161 E283.74366
G0 F3600 X21.169 Y64.727
G1 F1200 X28.83 Y72.387 E284.28415
G0 F3600 X28.83 Y72.953
G1 F1200 X21.169 Y65.292 E284.82468
G0 F3600 X21.169 Y65.858
G1 F1200 X28.83 Y73.519 E285.3652
G0 F3600 X28.83 Y74.084
G1 F1200 X21.169 Y66.424 E285.90569
G0 F3600 X21.169 Y66.989
G1 F1200 X28.83 Y74.65 E286.44622
G0 F3600 X28.83 Y75.216
G1 F1200 X21.169 Y67.555 E286.98674
G0 F3600 X21.169 Y68.121
G1 F1200 X28.83 Y75.782 E287.52727
G0 F3600 X28.83 Y76.347
G1 F1200 X21.169 Y68.686 E288.06779
G0 F3600 X21.169 Y69.252
G1 F1200 X28.665 Y76.748 E288.59668
G0 F3600 X28.099 Y76.748
G1 F1200 X21.169 Y69.818 E289.08563
G0 F3600 X21.169 Y70.383
G1 F1200 X27.534 Y76.748 E289.53471
G0 F3600 X26.968 Y76.748
G1 F1200 X21.169 Y70.949 E289.94386
G0 F3600 X21.169 Y71.515
G1 F1200 X26.402 Y76.748 E290.31308
G0 F3600 X25.836 Y76.748
G1 F1200 X21.169 Y72.081 E290.64236
G0 F3600 X21.169 Y72.646
G1 F1200 X25.271 Y76.748 E290.93178
G0 F3600 X24.705 Y76.748
G1 F1200 X21.169 Y73.212 E291.18126
