;FLAVOR:Marlin
;TIME:925
;Filament used: 0.695101m
;Layer height: 0.2
;Generated with Cura_SteamEngine 3.6.0
M104 S200
M105
M109 S200
M82 ;absolute extrusion mode
G28 ;Home
G1 Z15.0 F6000 ;Move the platform down 15mm
;Prime the extruder
G92 E0
G1 F200 E3
G92 E0
G92 E0
G1 F1500 E-6.5
;LAYER_COUNT:27
;LAYER:-6
M107
G0 F2400 X34.867 Y38.177 Z0.36
;TYPE:SUPPORT-INTERFACE
G1 F1500 E0
G1 F900 X35.239 Y37.865 E0.05813
G1 X36.098 Y37.223 E0.18654
G1 X36.514 Y36.942 E0.24665
G1 X37.406 Y36.409 E0.37107
G1 X37.785 Y36.202 E0.42278
G1 X38.755 Y35.737 E0.55158
G1 X39.179 Y35.557 E0.60673
G1 X40.194 Y35.189 E0.736
G1 X40.648 Y35.048 E0.79293
G1 X41.675 Y34.788 E0.91977
G1 X42.127 Y34.695 E0.97503
G1 X43.184 Y34.535 E1.10303
G1 X43.618 Y34.489 E1.15529
G1 X44.693 Y34.432 E1.28419
G1 X45.15 Y34.428 E1.33891
G1 X46.254 Y34.479 E1.47124
G1 X46.699 Y34.521 E1.52476
G1 X47.852 Y34.692 E1.66432
G1 X48.223 Y34.765 E1.7096
G1 X49.216 Y35.011 E1.83209
G1 X49.699 Y35.154 E1.8924
G1 X50.671 Y35.498 E2.01586
G1 X51.103 Y35.673 E2.07167
G1 X52.073 Y36.129 E2.20001
G1 X52.583 Y36.401 E2.26922
G1 X53.471 Y36.933 E2.39316
G1 X53.891 Y37.216 E2.4538
G1 X54.74 Y37.85 E2.58068
G1 X55.111 Y38.158 E2.63841
G1 X55.856 Y38.833 E2.75879
G1 X56.21 Y39.19 E2.81898
G1 X56.936 Y39.998 E2.94905
G1 X57.207 Y40.332 E3.00055
G1 X57.83 Y41.174 E3.12596
G1 X58.098 Y41.577 E3.18391
G1 X58.589 Y42.401 E3.29876
G1 X58.788 Y42.767 E3.34865
G1 X59.244 Y43.714 E3.4745
G1 X59.45 Y44.196 E3.53726
G1 X59.813 Y45.198 E3.66487
G1 X59.948 Y45.634 E3.71952
G1 X60.212 Y46.675 E3.84811
G1 X60.304 Y47.12 E3.90252
G1 X60.465 Y48.184 E4.03137
G1 X60.511 Y48.618 E4.08362
G1 X60.568 Y49.684 E4.21145
G1 X60.572 Y50.15 E4.26724
G1 X60.517 Y51.325 E4.40809
G1 X60.466 Y51.809 E4.46636
G1 X60.308 Y52.852 E4.59267
G1 X60.235 Y53.223 E4.63795
G1 X59.988 Y54.218 E4.7607
G1 X59.847 Y54.698 E4.8206
G1 X59.51 Y55.651 E4.94164
G1 X59.33 Y56.094 E4.99889
G1 X58.864 Y57.087 E5.13023
G1 X58.603 Y57.575 E5.19649
G1 X58.063 Y58.478 E5.32247
G1 X57.779 Y58.898 E5.38318
G1 X57.137 Y59.756 E5.51149
G1 X56.846 Y60.106 E5.56599
G1 X56.147 Y60.876 E5.69051
G1 X55.809 Y61.211 E5.74749
G1 X55.041 Y61.905 E5.87143
G1 X54.632 Y62.236 E5.93443
G1 X53.812 Y62.84 E6.05638
G1 X53.423 Y63.097 E6.1122
G1 X52.483 Y63.654 E6.24303
G1 X52.066 Y63.873 E6.29943
G1 X51.122 Y64.318 E6.42439
G1 X50.662 Y64.504 E6.4838
G1 X49.715 Y64.842 E6.6042
G1 X49.253 Y64.979 E6.66189
G1 X48.197 Y65.24 E6.79214
G1 X47.744 Y65.326 E6.84735
G1 X46.65 Y65.482 E6.97967
G1 X46.213 Y65.523 E7.03222
G1 X45.318 Y65.569 E7.13953
G1 X44.85 Y65.572 E7.19557
G1 X43.746 Y65.521 E7.3279
G1 X43.301 Y65.479 E7.38141
G1 X42.148 Y65.308 E7.52098
G1 X41.777 Y65.235 E7.56626
G1 X40.784 Y64.989 E7.68875
G1 X40.301 Y64.846 E7.74906
G1 X39.327 Y64.501 E7.87279
G1 X38.895 Y64.326 E7.92859
G1 X37.905 Y63.86 E8.05961
G1 X37.425 Y63.603 E8.1248
G1 X36.504 Y63.051 E8.25337
G1 X36.123 Y62.796 E8.30826
G1 X35.282 Y62.17 E8.4338
G1 X34.898 Y61.85 E8.49365
G1 X34.11 Y61.134 E8.62113
G1 X33.792 Y60.813 E8.67523
G1 X33.075 Y60.018 E8.80342
G1 X32.769 Y59.637 E8.86193
G1 X32.158 Y58.809 E8.98514
G1 X31.898 Y58.415 E9.04167
G1 X31.344 Y57.48 E9.1718
G1 X31.116 Y57.043 E9.23081
G1 X30.678 Y56.112 E9.35401
G1 X30.502 Y55.683 E9.40953
G1 X30.159 Y54.722 E9.53171
G1 X30.053 Y54.367 E9.57607
G1 X29.788 Y53.325 E9.70481
G1 X29.694 Y52.869 E9.76055
G1 X29.534 Y51.809 E9.88891
G1 X29.488 Y51.374 E9.94129
G1 X29.432 Y50.307 E10.06922
G1 X29.428 Y49.85 E10.12394
G1 X29.478 Y48.757 E10.25495
G1 X29.52 Y48.306 E10.30919
G1 X29.692 Y47.148 E10.44936
G1 X29.765 Y46.777 E10.49464
G1 X30.016 Y45.766 E10.61937
G1 X30.152 Y45.303 E10.67715
G1 X30.55 Y44.195 E10.81811
G1 X30.666 Y43.914 E10.85451
G1 X31.129 Y42.927 E10.98505
G1 X31.346 Y42.515 E11.04081
G1 X31.892 Y41.593 E11.16911
G1 X32.146 Y41.21 E11.22414
G1 X32.764 Y40.37 E11.349
G1 X33.069 Y39.991 E11.40725
G1 X33.786 Y39.194 E11.53562
G1 X34.122 Y38.855 E11.59277
G1 X34.867 Y38.177 E11.71338
G0 F2400 X35.2 Y37.897
G1 F900 X35.2 Y62.101 E14.61148
G0 F2400 X36.8 Y63.228
G1 F900 X36.8 Y36.771 E17.77935
G0 F2400 X38.4 Y35.907
G1 F900 X38.4 Y64.093 E21.15424
G0 F2400 X40 Y64.739
G1 F900 X40 Y35.259 E24.68408
G0 F2400 X41.6 Y34.806
G1 F900 X41.6 Y65.191 E28.32227
G0 F2400 X43.2 Y65.464
G1 F900 X43.2 Y34.533 E32.02584
G0 F2400 X44.8 Y34.431
G1 F900 X44.8 Y65.569 E35.75419
G0 F2400 X46.4 Y65.506
G1 F900 X46.4 Y34.493 E39.46758
G0 F2400 X48 Y34.722
G1 F900 X48 Y65.278 E43.12625
G0 F2400 X49.6 Y64.877
G1 F900 X49.6 Y35.125 E46.68865
G0 F2400 X51.2 Y35.719
G1 F900 X51.2 Y64.282 E50.10868
G0 F2400 X52.8 Y63.467
G1 F900 X52.8 Y36.532 E53.33378
G0 F2400 X54.4 Y37.597
G1 F900 X54.4 Y62.407 E56.30445
G0 F2400 X56 Y61.022
G1 F900 X56 Y38.979 E58.9438
G0 F2400 X57.6 Y40.864
G1 F900 X57.6 Y59.138 E61.13186
G0 F2400 X59.2 Y56.372
G1 F900 X59.2 Y43.623 E62.65838
G0 F2400 X33.6 Y39.4
G1 F900 X33.6 Y60.6 E65.1968
G0 F2400 X32 Y58.569
G1 F900 X32 Y41.43 E67.24896
G0 F2400 X30.4 Y44.612
G1 F900 X30.4 Y55.397 E68.54032
G0 F2400 X32.78 Y59.65
;TIME_ELAPSED:48.276109
;LAYER:-5
G0 X32.78 Y59.65 Z0.66
;TYPE:SUPPORT
G1 F900 X35.347 Y62.217 E68.90255
G1 X35.281 Y62.168 E68.91075
G1 X34.898 Y61.849 E68.96049
G1 X34.11 Y61.132 E69.06679
G1 X33.791 Y60.811 E69.11195
G1 X33.074 Y60.017 E69.21869
G0 F2400 X35.347 Y62.217
G1 F900 X36.123 Y62.795 E69.31524
G1 X36.504 Y63.05 E69.36099
G1 X37.425 Y63.602 E69.46813
G1 X37.905 Y63.858 E69.52241
G1 X38.846 Y64.302 E69.62623
G1 X30.697 Y56.153 E70.77614
G1 X30.677 Y56.111 E70.78078
G1 X30.501 Y55.681 E70.82714
G1 X30.158 Y54.72 E70.92895
G1 X30.052 Y54.365 E70.96592
G1 X29.959 Y54.001 E71.00341
G1 X40.999 Y65.041 E72.56127
G1 X41.776 Y65.234 E72.64116
G1 X42.147 Y65.306 E72.67887
G1 X42.772 Y65.399 E72.74192
G1 X29.596 Y52.224 E74.60112
G1 X29.534 Y51.808 E74.64309
G1 X29.488 Y51.373 E74.68674
G1 X29.45 Y50.663 E74.75768
G1 X44.334 Y65.547 E76.85797
G1 X44.85 Y65.571 E76.90952
G1 X45.317 Y65.567 E76.95612
G1 X45.746 Y65.545 E76.99898
G1 X29.455 Y49.254 E79.29781
G1 X29.477 Y48.756 E79.34755
G1 X29.52 Y48.305 E79.39276
G1 X29.571 Y47.956 E79.42795
G1 X47.04 Y65.425 E81.89302
G1 X47.743 Y65.325 E81.96387
G1 X48.197 Y65.239 E82.00997
G1 X48.254 Y65.224 E82.01585
G1 X29.772 Y46.743 E84.62379
G1 X30.015 Y45.764 E84.72444
G1 X30.059 Y45.615 E84.73994
G1 X49.382 Y64.939 E87.4667
G1 X49.715 Y64.841 E87.50133
G1 X50.44 Y64.582 E87.57815
G1 X30.417 Y44.559 E90.40361
G1 X30.549 Y44.194 E90.44234
G1 X30.666 Y43.913 E90.47271
G1 X30.831 Y43.559 E90.51169
G1 X51.439 Y64.167 E93.4197
G1 X52.066 Y63.872 E93.48884
G1 X52.388 Y63.702 E93.52517
G1 X31.295 Y42.608 E96.50169
G1 X31.346 Y42.514 E96.51236
G1 X31.817 Y41.717 E96.60474
G1 X53.281 Y63.18 E99.63347
G1 X53.423 Y63.096 E99.64993
G1 X53.812 Y62.839 E99.69645
G1 X54.124 Y62.609 E99.73513
G1 X32.39 Y40.875 E102.80203
G1 X32.763 Y40.369 E102.86475
G1 X33.002 Y40.073 E102.90271
G1 X54.925 Y61.997 E105.99636
G1 X55.041 Y61.904 E106.01119
G1 X55.674 Y61.33 E106.09645
G1 X33.667 Y39.324 E109.20181
G1 X33.785 Y39.193 E109.2194
G1 X34.122 Y38.854 E109.2671
G1 X34.378 Y38.621 E109.30164
G1 X56.378 Y60.62 E112.406
G1 X56.845 Y60.105 E112.47537
G1 X57.041 Y59.87 E112.5059
G1 X35.129 Y37.957 E115.59799
G1 X35.239 Y37.864 E115.61237
G1 X35.932 Y37.346 E115.6987
G1 X57.652 Y59.066 E118.76362
G1 X57.779 Y58.897 E118.78472
G1 X58.062 Y58.477 E118.83525
G1 X58.218 Y58.218 E118.86542
G1 X36.782 Y36.782 E121.89027
G1 X37.405 Y36.409 E121.96272
G1 X37.676 Y36.261 E121.99353
G1 X58.737 Y57.323 E124.96554
G1 X58.863 Y57.086 E124.99232
G1 X59.199 Y56.371 E125.07115
G1 X38.626 Y35.797 E127.97429
G1 X38.754 Y35.736 E127.98844
G1 X39.178 Y35.556 E128.0344
G1 X39.634 Y35.392 E128.08276
G1 X59.609 Y55.367 E130.90144
G1 X59.845 Y54.698 E130.97223
G1 X59.961 Y54.305 E131.01312
G1 X40.693 Y35.037 E133.73204
G1 X41.674 Y34.788 E133.83303
G1 X41.828 Y34.757 E133.8487
G1 X60.244 Y53.173 E136.4474
G1 X60.307 Y52.851 E136.48014
G1 X60.443 Y51.958 E136.57027
G1 X43.042 Y34.557 E139.02574
G1 X43.183 Y34.535 E139.03998
G1 X43.617 Y34.488 E139.08353
G1 X44.349 Y34.45 E139.15667
G1 X60.548 Y50.648 E141.44245
G1 X60.571 Y50.15 E141.4922
G1 X60.567 Y49.683 E141.5388
G1 X60.543 Y49.229 E141.58416
G1 X45.77 Y34.456 E143.66879
G1 X46.253 Y34.478 E143.71703
G1 X46.698 Y34.52 E143.76163
G1 X47.345 Y34.617 E143.82691
G1 X60.384 Y47.656 E145.66686
G1 X60.303 Y47.12 E145.72095
G1 X60.211 Y46.674 E145.76639
G1 X60.005 Y45.863 E145.84988
G1 X49.132 Y34.99 E147.38418
G1 X49.215 Y35.01 E147.39269
G1 X49.698 Y35.154 E147.44298
G1 X50.669 Y35.498 E147.54577
G1 X51.101 Y35.672 E147.59224
G1 X51.342 Y35.785 E147.6188
G1 X59.218 Y43.662 E148.73026
G1 X58.787 Y42.767 E148.82938
G1 X58.588 Y42.4 E148.87104
G1 X58.097 Y41.576 E148.96674
G1 X57.829 Y41.174 E149.01495
G1 X57.206 Y40.331 E149.11955
G1 X56.934 Y39.998 E149.16245
G1 X56.635 Y39.664 E149.20718
G1 X55.304 Y38.334 E149.39493
G1 X55.855 Y38.832 E149.46903
G1 X56.208 Y39.189 E149.51913
G0 F2400 X46.843 Y34.337
;TIME_ELAPSED:102.840868
;LAYER:-4
G0 X46.843 Y34.337 Z0.86
;TYPE:SUPPORT-INTERFACE
G1 F1200 X46.345 Y34.285 E149.53578
G1 X45.155 Y34.228 E149.57541
G1 X44.683 Y34.232 E149.59111
G1 X43.75 Y34.277 E149.62217
G1 X43.243 Y34.325 E149.63911
G1 X42.745 Y34.4 E149.65586
G1 X47.26 Y34.4 E149.80603
G1 X47.888 Y34.495 E149.82716
G1 X48.343 Y34.587 E149.8426
G1 X49.185 Y34.8 E149.87148
G1 X40.814 Y34.8 E150.1499
G1 X40.585 Y34.858 E150.15776
G1 X40.123 Y35.001 E150.17385
G1 X39.57 Y35.2 E150.19339
G1 X50.432 Y35.2 E150.55467
G1 X50.743 Y35.311 E150.56565
G1 X51.191 Y35.493 E150.58173
G1 X51.417 Y35.6 E150.59005
G1 X38.586 Y35.6 E151.01681
G1 X37.846 Y35.948 E151.04401
G1 X37.747 Y36 E151.04773
G1 X52.26 Y36 E151.53043
G1 X52.287 Y36.013 E151.53143
G1 X52.689 Y36.232 E151.54665
G1 X52.97 Y36.4 E151.55754
G1 X37.034 Y36.4 E152.08758
G1 X36.486 Y36.724 E152.10875
G1 X36.372 Y36.8 E152.11331
G1 X53.632 Y36.8 E152.68738
G1 X54.01 Y37.056 E152.70256
G1 X54.203 Y37.2 E152.71057
G1 X35.793 Y37.2 E153.32289
G1 X35.255 Y37.6 E153.34519
G1 X54.739 Y37.6 E153.99323
G1 X54.866 Y37.695 E153.9985
G1 X55.234 Y38 E154.0144
G1 X34.768 Y38 E154.6951
G1 X34.737 Y38.025 E154.69643
G1 X34.325 Y38.4 E154.71496
G1 X55.676 Y38.4 E155.42509
G1 X56.001 Y38.695 E155.43969
G1 X56.107 Y38.8 E155.44465
G1 X33.894 Y38.8 E156.18346
G1 X33.7 Y38.994 E156.19259
G1 X33.513 Y39.2 E156.20184
G1 X56.488 Y39.2 E156.96599
G1 X56.852 Y39.6 E156.98398
G1 X33.15 Y39.6 E157.77231
G1 X33.005 Y39.759 E157.77947
G1 X32.805 Y40 E157.78988
G1 X57.195 Y40 E158.6011
G1 X57.3 Y40.126 E158.60655
G1 X57.505 Y40.4 E158.61794
G1 X32.495 Y40.4 E159.44977
G1 X32.197 Y40.8 E159.46636
G1 X57.804 Y40.8 E160.31805
G1 X57.942 Y40.986 E160.32576
G1 X58.087 Y41.2 E160.33436
G1 X31.914 Y41.2 E161.20487
G1 X31.765 Y41.418 E161.21366
G1 X31.657 Y41.6 E161.22069
G1 X58.343 Y41.6 E162.10827
G1 X58.583 Y42 E162.12379
G1 X31.417 Y42 E163.02733
G1 X31.24 Y42.295 E163.03878
G1 X31.183 Y42.4 E163.04275
G1 X58.817 Y42.4 E163.96186
G1 X58.963 Y42.668 E163.97201
G1 X59.026 Y42.8 E163.97688
G1 X30.971 Y42.8 E164.90999
G1 X30.779 Y43.2 E164.92475
G1 X59.216 Y43.2 E165.87057
G1 X59.406 Y43.6 E165.88529
G1 X30.588 Y43.6 E166.84378
G1 X30.544 Y43.691 E166.84715
G1 X30.484 Y43.83 E166.85218
G1 X30.415 Y44 E166.85828
G1 X59.585 Y44 E167.82848
G1 X59.684 Y44.242 E167.83718
G1 X59.741 Y44.4 E167.84277
G1 X30.259 Y44.4 E168.82334
G1 X30.116 Y44.8 E168.83747
G1 X59.885 Y44.8 E169.82759
G1 X60.001 Y45.125 E169.83907
G1 X60.024 Y45.2 E169.84168
G1 X29.976 Y45.2 E170.84108
G1 X29.861 Y45.571 E170.854
G1 X29.854 Y45.6 E170.85499
G1 X60.146 Y45.6 E171.8625
G1 X60.173 Y45.69 E171.86563
G1 X60.251 Y46 E171.87626
G1 X29.753 Y46 E172.89063
G1 X29.652 Y46.4 E172.90435
G1 X60.35 Y46.4 E173.92537
G1 X60.409 Y46.637 E173.93349
G1 X60.443 Y46.8 E173.93903
G1 X29.557 Y46.8 E174.9663
G1 X29.493 Y47.115 E174.977
G1 X29.481 Y47.2 E174.97985
G1 X60.519 Y47.2 E176.01218
G1 X60.579 Y47.6 E176.02563
G1 X29.42 Y47.6 E177.06198
G1 X29.36 Y48 E177.07544
G1 X60.639 Y48 E178.11578
G1 X60.675 Y48.242 E178.12392
G1 X60.69 Y48.4 E178.1292
G1 X29.311 Y48.4 E179.17287
G1 X29.284 Y48.655 E179.1814
G1 X29.278 Y48.8 E179.18622
G1 X60.726 Y48.8 E180.23219
G1 X60.745 Y49.2 E180.24551
G1 X29.258 Y49.2 E181.29277
G1 X29.239 Y49.6 E181.30609
G1 X60.765 Y49.6 E182.35465
G1 X60.768 Y49.677 E182.35721
G1 X60.771 Y50 E182.36795
G1 X29.228 Y50 E183.41708
G1 X29.231 Y50.317 E183.42762
G1 X29.235 Y50.4 E183.43038
G1 X60.76 Y50.4 E184.47891
G1 X60.742 Y50.8 E184.49223
G1 X29.254 Y50.8 E185.53952
G1 X29.273 Y51.2 E185.55284
G1 X60.723 Y51.2 E186.59887
G1 X60.721 Y51.26 E186.60087
G1 X60.689 Y51.6 E186.61223
G1 X29.311 Y51.6 E187.65587
G1 X29.335 Y51.838 E187.66382
G1 X29.359 Y52 E187.66927
G1 X60.637 Y52 E188.70958
G1 X60.579 Y52.4 E188.72302
G1 X29.418 Y52.4 E189.75944
G1 X29.478 Y52.8 E189.77289
G1 X60.52 Y52.8 E190.80535
G1 X60.442 Y53.2 E190.81891
G1 X29.555 Y53.2 E191.84622
G1 X29.569 Y53.268 E191.84852
G1 X29.651 Y53.6 E191.8599
G1 X60.347 Y53.6 E192.88085
G1 X60.248 Y54 E192.89456
G1 X29.75 Y54 E193.90892
G1 X29.818 Y54.272 E193.91825
G1 X29.855 Y54.4 E193.92268
G1 X60.143 Y54.4 E194.93006
G1 X60.04 Y54.751 E194.94223
G1 X60.022 Y54.8 E194.94397
G1 X29.974 Y54.8 E195.94337
G1 X30.117 Y55.2 E195.9575
G1 X59.881 Y55.2 E196.94745
G1 X59.74 Y55.6 E196.96156
G1 X30.259 Y55.6 E197.9421
G1 X30.312 Y55.746 E197.94727
G1 X30.415 Y56 E197.95638
G1 X59.581 Y56 E198.92645
G1 X59.454 Y56.307 E198.9375
G1 X59.409 Y56.4 E198.94093
G1 X30.59 Y56.4 E199.89946
G1 X30.779 Y56.8 E199.91417
G1 X59.22 Y56.8 E200.86012
G1 X59.03 Y57.2 E200.87485
G1 X30.971 Y57.2 E201.8081
G1 X31.169 Y57.579 E201.82232
G1 X31.181 Y57.6 E201.82312
G1 X58.819 Y57.6 E202.74237
G1 X58.581 Y58 E202.75785
G1 X31.418 Y58 E203.66129
G1 X31.655 Y58.4 E203.67676
G1 X58.343 Y58.4 E204.5644
G1 X58.281 Y58.506 E204.56849
G1 X58.087 Y58.8 E204.5802
G1 X31.911 Y58.8 E205.45082
G1 X31.988 Y58.916 E205.45545
G1 X32.197 Y59.2 E205.46718
G1 X57.799 Y59.2 E206.31871
G1 X57.501 Y59.6 E206.3353
G1 X32.492 Y59.6 E207.1671
G1 X32.608 Y59.757 E207.17359
G1 X32.803 Y60 E207.18395
G1 X57.195 Y60 E207.99524
G1 X57.104 Y60.111 E208.00001
G1 X56.845 Y60.4 E208.01292
G1 X33.149 Y60.4 E208.80105
G1 X33.509 Y60.8 E208.81895
G1 X56.487 Y60.8 E209.5832
G1 X56.386 Y60.914 E209.58827
G1 X56.104 Y61.2 E209.60162
G1 X33.893 Y61.2 E210.34037
G1 X33.971 Y61.278 E210.34403
G1 X34.324 Y61.6 E210.35993
G1 X55.673 Y61.6 E211.07
G1 X55.231 Y62 E211.08982
G1 X34.763 Y62 E211.77059
G0 F2400 X34.765 Y62.001
G1 F1200 X35.16 Y62.329 E211.78767
G1 X35.255 Y62.4 E211.79161
G1 X54.737 Y62.4 E212.43959
G1 X54.202 Y62.8 E212.4618
G1 X35.792 Y62.8 E213.07412
G1 X36.012 Y62.963 E213.08323
G1 X36.364 Y63.2 E213.09734
G1 X53.631 Y63.2 E213.67165
G1 X53.593 Y63.226 E213.67318
G1 X52.968 Y63.6 E213.6974
G1 X37.029 Y63.6 E214.22754
G1 X37.318 Y63.773 E214.23874
G1 X37.742 Y64 E214.25474
G1 X52.252 Y64 E214.73734
G1 X52.151 Y64.054 E214.74115
G1 X51.42 Y64.4 E214.76805
G1 X38.575 Y64.4 E215.19528
G1 X38.698 Y64.458 E215.1998
G1 X39.256 Y64.689 E215.21989
G1 X39.567 Y64.8 E215.23087
G1 X50.418 Y64.8 E215.59177
G1 X49.766 Y65.035 E215.61483
G1 X49.414 Y65.142 E215.62706
G1 X49.185 Y65.2 E215.63492
G1 X40.801 Y65.2 E215.91377
G1 X41.731 Y65.43 E215.94564
G1 X42.222 Y65.525 E215.96227
G1 X42.741 Y65.6 E215.97971
G1 X47.244 Y65.6 E216.12948
G1 X46.827 Y65.662 E216.1435
G1 X46.233 Y65.722 E216.16336
G1 X45.176 Y65.772 E216.19856
G1 X44.688 Y65.768 E216.21479
G1 X43.735 Y65.722 E216.24652
G1 X43.281 Y65.678 E216.26169
G0 F2400 X29.586 Y46.657
;TIME_ELAPSED:203.919523
;LAYER:-3
G0 X29.586 Y46.657 Z1.06
;TYPE:SUPPORT-INTERFACE
G1 F1200 X29.493 Y47.115 E216.27724
G1 X29.335 Y48.162 E216.31245
G1 X29.284 Y48.655 E216.32894
G1 X29.227 Y49.845 E216.36856
G1 X29.231 Y50.317 E216.38426
G1 X29.276 Y51.25 E216.41533
G1 X29.335 Y51.838 E216.43499
G1 X29.477 Y52.792 E216.46706
G1 X29.569 Y53.268 E216.48319
G1 X29.599 Y53.388 E216.4873
G1 X29.599 Y46.605 E216.71291
G1 X29.861 Y45.57 E216.74842
G1 X29.993 Y45.143 E216.76328
G1 X29.999 Y45.126 E216.76388
G1 X29.999 Y54.866 E217.08784
G1 X30.312 Y55.745 E217.11887
