;FLAVOR:Marlin
;TIME:1793
;Filament used: 1.27928m
;Layer height: 0.2
;Generated with Cura_SteamEngine 3.6.0
M104 S200
M105
M109 S200
M82 ;absolute extrusion mode
G28 ;Home
G1 Z15.0 F6000 ;Move the platform down 15mm
;Prime the extruder
G92 E0
G1 F200 E3
G92 E0
G92 E0
G1 F1500 E-6.5
;LAYER_COUNT:13
;LAYER:0
M107
G0 F3600 X11.531 Y18.954 Z0.3
;TYPE:SKIRT
G1 F1500 E0
G1 F1200 X11.999 Y18.764 E0.0252
G1 X12.492 Y18.651 E0.05043
G1 X12.962 Y18.616 E0.07395
G1 X77.039 Y18.617 E3.27076
G1 X77.543 Y18.657 E3.29598
G1 X78.034 Y18.776 E3.32119
G1 X78.501 Y18.971 E3.34644
G1 X78.931 Y19.236 E3.37164
G1 X79.314 Y19.566 E3.39686
G1 X79.64 Y19.953 E3.42211
G1 X79.901 Y20.386 E3.44733
G1 X80.091 Y20.854 E3.47253
G1 X80.204 Y21.347 E3.49776
G1 X80.239 Y21.817 E3.52127
G1 X80.239 Y78.184 E6.33344
G1 X80.199 Y78.688 E6.35866
G1 X80.08 Y79.179 E6.38386
G1 X79.886 Y79.646 E6.40909
G1 X79.62 Y80.076 E6.43432
G1 X79.29 Y80.459 E6.45954
G1 X78.903 Y80.785 E6.48479
G1 X78.47 Y81.046 E6.51001
G1 X78.002 Y81.236 E6.53521
G1 X77.509 Y81.349 E6.56044
G1 X77.039 Y81.384 E6.58396
G1 X12.962 Y81.384 E9.78077
G1 X12.458 Y81.344 E9.806
G1 X11.967 Y81.225 E9.8312
G1 X11.5 Y81.031 E9.85643
G1 X11.07 Y80.765 E9.88166
G1 X10.687 Y80.435 E9.90688
G1 X10.361 Y80.048 E9.93212
G1 X10.1 Y79.615 E9.95735
G1 X9.91 Y79.147 E9.98255
G1 X9.797 Y78.654 E10.00778
G1 X9.762 Y78.184 E10.03129
G1 X9.762 Y21.816 E12.8435
G1 X9.802 Y21.312 E12.86873
G1 X9.921 Y20.821 E12.89393
G1 X10.115 Y20.354 E12.91916
G1 X10.381 Y19.924 E12.94439
G1 X10.711 Y19.541 E12.96961
G1 X11.098 Y19.215 E12.99485
G1 X11.531 Y18.954 E13.02008
G1 F1500 E6.52008
;MESH:ÜstKapak-1x.stl
G0 F3600 X13.567 Y21.142
G0 X13.567 Y22.421
G0 X18.673 Y24.614
G0 X18.703 Y24.709
;TYPE:WALL-INNER
G1 F1500 E13.02008
G1 F1200 X17.964 Y25.017 E13.06002
G1 X17.281 Y25.435 E13.09997
G1 X16.672 Y25.954 E13.13989
G1 X16.152 Y26.563 E13.17984
G1 X15.733 Y27.246 E13.21982
G1 X15.427 Y27.986 E13.25977
G1 X15.241 Y28.764 E13.29968
G1 X15.18 Y29.538 E13.33841
G1 X15.18 Y70.586 E15.38631
G1 X15.241 Y71.36 E15.42504
G1 X15.427 Y72.139 E15.465
G1 X15.734 Y72.878 E15.50492
G1 X16.152 Y73.561 E15.54487
G1 X16.672 Y74.17 E15.58482
G1 X17.281 Y74.69 E15.62477
G1 X17.964 Y75.107 E15.6647
G1 X18.703 Y75.415 E15.70464
G1 X19.482 Y75.601 E15.7446
G1 X20.256 Y75.662 E15.78333
G1 X21.304 Y75.662 E15.83562
G1 X22.078 Y75.601 E15.87435
G1 X22.856 Y75.415 E15.91426
G1 X23.596 Y75.107 E15.95425
G1 X24.279 Y74.69 E15.99417
G1 X24.888 Y74.17 E16.03413
G1 X25.407 Y73.561 E16.07405
G1 X25.825 Y72.878 E16.114
G1 X26.132 Y72.139 E16.15392
G1 X26.318 Y71.36 E16.19388
G1 X26.38 Y70.586 E16.23262
G1 X26.38 Y55.961 E16.96226
G1 X26.38 Y55.662 E16.97718
G1 X26.532 Y55.662 E16.98476
G1 X26.743 Y55.873 E16.99538
G1 X31.18 Y60.31 E17.30844
G1 X31.18 Y70.586 E17.82111
G1 X31.241 Y71.36 E17.85984
G1 X31.427 Y72.139 E17.8998
G1 X31.734 Y72.878 E17.93972
G1 X32.152 Y73.561 E17.97967
G1 X32.672 Y74.17 E18.01962
G1 X33.281 Y74.69 E18.05958
G1 X33.964 Y75.108 E18.09953
G1 X34.703 Y75.415 E18.13945
G1 X35.482 Y75.601 E18.17941
G1 X36.256 Y75.662 E18.21814
G1 X37.304 Y75.662 E18.27043
G1 X38.078 Y75.601 E18.30916
G1 X38.856 Y75.415 E18.34907
G1 X39.596 Y75.109 E18.38902
G1 X40.279 Y74.69 E18.429
G1 X40.888 Y74.17 E18.46895
G1 X41.407 Y73.561 E18.50887
G1 X41.825 Y72.878 E18.54882
G1 X42.132 Y72.139 E18.58874
G1 X42.318 Y71.36 E18.6287
G1 X42.38 Y70.586 E18.66744
G1 X42.38 Y55.961 E19.39708
G1 X42.38 Y55.662 E19.412
G1 X42.532 Y55.662 E19.41958
G1 X42.743 Y55.873 E19.4302
G1 X47.18 Y60.31 E19.74326
G1 X47.18 Y70.586 E20.25593
G1 X47.241 Y71.36 E20.29466
G1 X47.427 Y72.139 E20.33462
G1 X47.734 Y72.878 E20.37454
G1 X48.152 Y73.561 E20.41449
G1 X48.672 Y74.17 E20.45445
G1 X49.281 Y74.69 E20.4944
G1 X49.964 Y75.108 E20.53435
G1 X50.703 Y75.415 E20.57427
G1 X51.482 Y75.601 E20.61423
G1 X52.256 Y75.662 E20.65296
G1 X53.304 Y75.662 E20.70525
G1 X54.078 Y75.601 E20.74398
G1 X54.856 Y75.415 E20.78389
G1 X55.596 Y75.109 E20.82384
G1 X56.279 Y74.69 E20.86382
G1 X56.888 Y74.17 E20.90377
G1 X57.407 Y73.561 E20.94369
G1 X57.825 Y72.878 E20.98364
G1 X58.132 Y72.139 E21.02356
G1 X58.318 Y71.36 E21.06352
G1 X58.38 Y70.586 E21.10226
G1 X58.38 Y55.662 E21.84682
G1 X62.804 Y55.662 E22.06754
G1 X64.594 Y55.521 E22.15712
G1 X66.365 Y55.097 E22.24797
G1 X68.047 Y54.399 E22.33882
G1 X69.599 Y53.448 E22.42963
G1 X70.984 Y52.266 E22.52047
G1 X72.166 Y50.882 E22.61128
G1 X73.118 Y49.329 E22.70215
G1 X73.814 Y47.647 E22.79297
G1 X74.238 Y45.877 E22.88377
G1 X74.38 Y44.086 E22.97341
G1 X74.38 Y29.538 E23.69921
G1 X74.318 Y28.763 E23.738
G1 X74.132 Y27.986 E23.77786
G1 X73.826 Y27.246 E23.81781
G1 X73.407 Y26.563 E23.85778
G1 X72.888 Y25.954 E23.8977
G1 X72.279 Y25.435 E23.93762
G1 X71.596 Y25.017 E23.97757
G1 X70.856 Y24.709 E24.01756
G1 X70.078 Y24.524 E24.05746
G1 X69.304 Y24.462 E24.0962
G1 X68.256 Y24.462 E24.14848
G1 X67.482 Y24.524 E24.18722
G1 X66.703 Y24.709 E24.22717
G1 X65.964 Y25.017 E24.26711
G1 X65.281 Y25.435 E24.30706
G1 X64.672 Y25.954 E24.34698
G1 X64.152 Y26.563 E24.38693
G1 X63.733 Y27.246 E24.42691
G1 X63.427 Y27.986 E24.46686
G1 X63.241 Y28.764 E24.50677
G1 X63.18 Y29.538 E24.5455
G1 X63.18 Y42.043 E25.16938
G1 X63.148 Y42.439 E25.1892
G1 X63.062 Y42.799 E25.20767
G1 X62.915 Y43.154 E25.22684
G1 X62.722 Y43.47 E25.24531
G1 X62.475 Y43.757 E25.2642
G1 X62.188 Y44.004 E25.28309
G1 X61.872 Y44.197 E25.30156
G1 X61.517 Y44.344 E25.32073
G1 X61.157 Y44.43 E25.3392
G1 X60.758 Y44.462 E25.35917
G1 X58.38 Y44.462 E25.47781
G1 X58.38 Y29.538 E26.22237
G1 X58.318 Y28.763 E26.26116
G1 X58.132 Y27.986 E26.30102
G1 X57.826 Y27.246 E26.34097
G1 X57.407 Y26.563 E26.38094
G1 X56.888 Y25.954 E26.42086
G1 X56.279 Y25.435 E26.46078
G1 X55.596 Y25.017 E26.50073
G1 X54.856 Y24.709 E26.54072
G1 X54.078 Y24.524 E26.58062
G1 X53.304 Y24.462 E26.61936
G1 X52.256 Y24.462 E26.67164
G1 X51.482 Y24.524 E26.71038
G1 X50.703 Y24.709 E26.75033
G1 X49.964 Y25.017 E26.79027
G1 X49.281 Y25.435 E26.83022
G1 X48.672 Y25.954 E26.87014
G1 X48.152 Y26.563 E26.91009
G1 X47.733 Y27.246 E26.95007
G1 X47.427 Y27.986 E26.99002
G1 X47.241 Y28.764 E27.02993
G1 X47.18 Y29.538 E27.06866
G1 X47.18 Y44.163 E27.79831
G1 X47.18 Y44.462 E27.81322
G1 X47.028 Y44.462 E27.82081
G1 X46.817 Y44.251 E27.83143
G1 X42.38 Y39.814 E28.14448
G1 X42.38 Y29.538 E28.65715
G1 X42.318 Y28.763 E28.69594
G1 X42.132 Y27.986 E28.7358
G1 X41.826 Y27.246 E28.77575
G1 X41.407 Y26.563 E28.81573
G1 X40.888 Y25.954 E28.85565
G1 X40.279 Y25.435 E28.89557
G1 X39.596 Y25.017 E28.93552
G1 X38.856 Y24.709 E28.97551
G1 X38.078 Y24.524 E29.0154
G1 X37.304 Y24.462 E29.05414
G1 X36.256 Y24.462 E29.10643
G1 X35.482 Y24.524 E29.14517
G1 X34.703 Y24.709 E29.18511
G1 X33.964 Y25.017 E29.22505
G1 X33.281 Y25.435 E29.265
G1 X32.672 Y25.954 E29.30492
G1 X32.152 Y26.563 E29.34488
G1 X31.733 Y27.246 E29.38485
G1 X31.427 Y27.986 E29.4248
G1 X31.241 Y28.764 E29.46471
G1 X31.18 Y29.538 E29.50345
G1 X31.18 Y44.163 E30.23309
G1 X31.18 Y44.462 E30.24801
G1 X31.028 Y44.462 E30.25559
G1 X30.817 Y44.251 E30.26621
G1 X26.38 Y39.814 E30.57927
G1 X26.38 Y29.538 E31.09194
G1 X26.318 Y28.763 E31.13073
G1 X26.132 Y27.986 E31.17059
G1 X25.826 Y27.246 E31.21054
G1 X25.407 Y26.563 E31.25051
G1 X24.888 Y25.954 E31.29043
G1 X24.279 Y25.435 E31.33035
G1 X23.596 Y25.017 E31.3703
G1 X22.856 Y24.709 E31.41029
G1 X22.078 Y24.524 E31.45019
G1 X21.304 Y24.462 E31.48893
G1 X20.256 Y24.462 E31.54121
G1 X19.482 Y24.524 E31.57995
G1 X18.703 Y24.709 E31.6199
G0 F3600 X18.673 Y24.614
G0 X17.258 Y25.403
G0 X16.644 Y25.926
G0 X16.12 Y26.54
G0 X15.698 Y27.228
G0 X15.389 Y27.974
G0 X15.202 Y28.758
G0 X15.141 Y29.537
G0 X15.141 Y70.587
G0 X15.202 Y71.366
G0 X15.389 Y72.151
G0 X15.699 Y72.896
G0 X16.12 Y73.584
G0 X16.644 Y74.198
G0 X17.258 Y74.722
G0 X17.946 Y75.142
G0 X18.691 Y75.453
G0 X19.476 Y75.64
G0 X76.378 Y77.523
G0 X76.448 Y77.593
G1 F1200 X13.553 Y77.593 E34.75774
G1 X13.553 Y22.407 E37.51098
G1 X76.448 Y22.407 E40.64882
G1 X76.448 Y77.593 E43.40207
G0 F3600 X76.848 Y77.993
;TYPE:WALL-OUTER
G1 F1200 X13.153 Y77.993 E46.57982
G1 X13.153 Y22.007 E49.37297
G1 X76.848 Y22.007 E52.55073
G1 X76.848 Y77.993 E55.34388
G0 F3600 X76.648 Y77.993
G0 X76.378 Y77.523
G0 X19.476 Y75.64
G0 X18.691 Y75.453
G0 X17.946 Y75.142
G0 X17.258 Y74.722
G0 X16.644 Y74.198
G0 X16.12 Y73.584
G0 X15.699 Y72.896
G0 X15.389 Y72.151
G0 X15.202 Y71.366
G0 X15.141 Y70.587
G0 X15.141 Y29.537
G0 X15.202 Y28.758
G0 X15.389 Y27.974
G0 X15.698 Y27.228
G0 X16.12 Y26.54
G0 X16.644 Y25.926
G0 X17.196 Y25.456
G0 X18.636 Y24.629
G0 X18.827 Y25.091
G1 F1200 X18.146 Y25.374 E55.38068
G1 X17.517 Y25.76 E55.41749
G1 X16.956 Y26.238 E55.45426
G1 X16.477 Y26.799 E55.49107
G1 X16.091 Y27.428 E55.52789
G1 X15.809 Y28.11 E55.56471
G1 X15.637 Y28.827 E55.60149
G1 X15.58 Y29.554 E55.63787
G1 X15.58 Y70.57 E57.68417
G1 X15.637 Y71.297 E57.72055
G1 X15.809 Y72.015 E57.75739
G1 X16.091 Y72.696 E57.79416
G1 X16.477 Y73.325 E57.83098
G1 X16.956 Y73.886 E57.86778
G1 X17.517 Y74.365 E57.90458
G1 X18.146 Y74.75 E57.94138
G1 X18.827 Y75.033 E57.97817
G1 X19.545 Y75.205 E58.015
G1 X20.272 Y75.262 E58.05138
G1 X21.288 Y75.262 E58.10207
G1 X22.015 Y75.205 E58.13845
G1 X22.732 Y75.033 E58.17524
G1 X23.414 Y74.75 E58.21208
G1 X24.043 Y74.365 E58.24887
G1 X24.604 Y73.886 E58.28567
G1 X25.082 Y73.325 E58.32244
G1 X25.468 Y72.696 E58.35926
G1 X25.75 Y72.015 E58.39604
G1 X25.922 Y71.297 E58.43287
G1 X25.98 Y70.57 E58.46926
G1 X25.98 Y55.262 E59.23297
G1 X26.698 Y55.262 E59.2688
G1 X31.58 Y60.144 E59.61325
G1 X31.58 Y70.57 E60.1334
G1 X31.637 Y71.297 E60.16978
G1 X31.809 Y72.015 E60.20662
G1 X32.091 Y72.696 E60.24339
G1 X32.477 Y73.325 E60.28021
G1 X32.956 Y73.886 E60.31701
G1 X33.517 Y74.365 E60.35382
G1 X34.146 Y74.751 E60.39063
G1 X34.827 Y75.033 E60.42741
G1 X35.545 Y75.205 E60.46424
G1 X36.272 Y75.262 E60.50062
G1 X37.288 Y75.262 E60.55131
G1 X38.015 Y75.205 E60.58769
G1 X38.732 Y75.033 E60.62448
G1 X39.414 Y74.751 E60.6613
G1 X40.043 Y74.365 E60.69812
G1 X40.604 Y73.886 E60.73492
G1 X41.082 Y73.325 E60.77169
G1 X41.468 Y72.696 E60.80851
G1 X41.75 Y72.015 E60.84528
G1 X41.922 Y71.297 E60.88212
G1 X41.98 Y70.57 E60.9185
G1 X41.98 Y55.262 E61.68222
G1 X42.698 Y55.262 E61.71804
G1 X47.58 Y60.144 E62.06249
G1 X47.58 Y70.57 E62.58265
G1 X47.637 Y71.297 E62.61903
G1 X47.809 Y72.015 E62.65587
G1 X48.091 Y72.696 E62.69264
G1 X48.477 Y73.325 E62.72946
G1 X48.956 Y73.886 E62.76626
G1 X49.517 Y74.365 E62.80306
G1 X50.146 Y74.751 E62.83988
G1 X50.827 Y75.033 E62.87665
G1 X51.545 Y75.205 E62.91349
G1 X52.272 Y75.262 E62.94987
G1 X53.288 Y75.262 E63.00056
G1 X54.015 Y75.205 E63.03694
G1 X54.732 Y75.033 E63.07373
G1 X55.414 Y74.751 E63.11055
G1 X56.043 Y74.365 E63.14736
G1 X56.604 Y73.886 E63.18417
G1 X57.082 Y73.325 E63.22094
G1 X57.468 Y72.696 E63.25776
G1 X57.75 Y72.015 E63.29453
G1 X57.922 Y71.297 E63.33136
G1 X57.98 Y70.57 E63.36775
G1 X57.98 Y55.262 E64.13147
G1 X62.788 Y55.262 E64.37134
G1 X64.531 Y55.125 E64.45857
G1 X66.241 Y54.715 E64.5463
G1 X67.865 Y54.042 E64.634
G1 X69.363 Y53.123 E64.72168
G1 X70.7 Y51.982 E64.80937
G1 X71.841 Y50.646 E64.89702
G1 X72.76 Y49.147 E64.98474
G1 X73.432 Y47.523 E65.07243
G1 X73.842 Y45.814 E65.16011
G1 X73.98 Y44.07 E65.24739
G1 X73.98 Y29.554 E65.9716
G1 X73.922 Y28.826 E66.00803
G1 X73.75 Y28.11 E66.04477
G1 X73.468 Y27.428 E66.08159
G1 X73.082 Y26.799 E66.11841
G1 X72.604 Y26.238 E66.15518
G1 X72.043 Y25.76 E66.19195
G1 X71.414 Y25.374 E66.22877
G1 X70.732 Y25.091 E66.26561
G1 X70.015 Y24.92 E66.30238
G1 X69.288 Y24.862 E66.33877
G1 X68.272 Y24.862 E66.38945
G1 X67.545 Y24.92 E66.42584
G1 X66.827 Y25.091 E66.46266
G1 X66.146 Y25.374 E66.49945
G1 X65.517 Y25.76 E66.53627
G1 X64.956 Y26.238 E66.57304
G1 X64.477 Y26.799 E66.60985
G1 X64.091 Y27.428 E66.64667
G1 X63.809 Y28.11 E66.68348
G1 X63.637 Y28.827 E66.72027
G1 X63.58 Y29.554 E66.75665
G1 X63.58 Y42.062 E67.38068
G1 X63.545 Y42.5 E67.4026
G1 X63.443 Y42.925 E67.42441
G1 X63.274 Y43.334 E67.44648
G1 X63.046 Y43.706 E67.46825
G1 X62.759 Y44.041 E67.49026
G1 X62.424 Y44.328 E67.51227
G1 X62.052 Y44.556 E67.53404
G1 X61.643 Y44.725 E67.55611
G1 X61.218 Y44.827 E67.57792
G1 X60.777 Y44.862 E67.59999
G1 X57.98 Y44.862 E67.73953
G1 X57.98 Y29.554 E68.50325
G1 X57.922 Y28.826 E68.53969
G1 X57.75 Y28.11 E68.57642
G1 X57.468 Y27.428 E68.61324
G1 X57.082 Y26.799 E68.65006
G1 X56.604 Y26.238 E68.68683
G1 X56.043 Y25.76 E68.7236
G1 X55.414 Y25.374 E68.76042
G1 X54.732 Y25.091 E68.79726
G1 X54.015 Y24.92 E68.83403
G1 X53.288 Y24.862 E68.87042
G1 X52.272 Y24.862 E68.92111
G1 X51.545 Y24.92 E68.95749
G1 X50.827 Y25.091 E68.99432
G1 X50.146 Y25.374 E69.03111
G1 X49.517 Y25.76 E69.06793
G1 X48.956 Y26.238 E69.1047
G1 X48.477 Y26.799 E69.1415
G1 X48.091 Y27.428 E69.17832
G1 X47.809 Y28.11 E69.21514
G1 X47.637 Y28.827 E69.25192
G1 X47.58 Y29.554 E69.28831
G1 X47.58 Y44.862 E70.05203
G1 X46.862 Y44.862 E70.08785
G1 X41.98 Y39.98 E70.4323
G1 X41.98 Y29.554 E70.95245
G1 X41.922 Y28.826 E70.98889
G1 X41.75 Y28.11 E71.02563
G1 X41.468 Y27.428 E71.06245
G1 X41.082 Y26.799 E71.09926
G1 X40.604 Y26.238 E71.13603
G1 X40.043 Y25.76 E71.1728
G1 X39.414 Y25.374 E71.20962
G1 X38.732 Y25.091 E71.24646
G1 X38.015 Y24.92 E71.28324
G1 X37.288 Y24.862 E71.31962
G1 X36.272 Y24.862 E71.37031
G1 X35.545 Y24.92 E71.4067
G1 X34.827 Y25.091 E71.44352
G1 X34.146 Y25.374 E71.48031
G1 X33.517 Y25.76 E71.51713
G1 X32.956 Y26.238 E71.5539
G1 X32.477 Y26.799 E71.5907
G1 X32.091 Y27.428 E71.62752
G1 X31.809 Y28.11 E71.66434
G1 X31.637 Y28.827 E71.70113
G1 X31.58 Y29.554 E71.73751
G1 X31.58 Y44.862 E72.50123
G1 X30.862 Y44.862 E72.53705
G1 X25.98 Y39.98 E72.8815
G1 X25.98 Y29.554 E73.40165
G1 X25.922 Y28.826 E73.43809
G1 X25.75 Y28.11 E73.47483
G1 X25.468 Y27.428 E73.51165
G1 X25.082 Y26.799 E73.54847
G1 X24.604 Y26.238 E73.58524
G1 X24.043 Y25.76 E73.62201
G1 X23.414 Y25.374 E73.65882
G1 X22.732 Y25.091 E73.69566
G1 X22.015 Y24.92 E73.73244
G1 X21.288 Y24.862 E73.76882
G1 X20.272 Y24.862 E73.81951
G1 X19.545 Y24.92 E73.8559
G1 X18.827 Y25.091 E73.89272
G0 F3600 X18.643 Y25.167
G0 X18.452 Y24.705
G0 X18.582 Y24.337
;TYPE:SKIN
G1 F1200 X17.786 Y24.668 E73.93573
G1 X17.051 Y25.119 E73.97875
G1 X16.395 Y25.677 E74.02172
G1 X15.836 Y26.333 E74.06472
G1 X15.384 Y27.068 E74.10776
G1 X15.055 Y27.865 E74.15078
G1 X14.855 Y28.703 E74.19376
G1 X14.79 Y29.523 E74.2348
G1 X14.79 Y70.601 E76.28419
G1 X14.855 Y71.421 E76.32523
G1 X15.055 Y72.26 E76.36826
G1 X15.385 Y73.056 E76.41125
G1 X15.836 Y73.791 E76.45427
G1 X16.395 Y74.447 E76.49727
G1 X17.051 Y75.006 E76.54027
G1 X17.786 Y75.456 E76.58327
G1 X18.582 Y75.787 E76.62628
G1 X19.421 Y75.987 E76.66931
G1 X20.241 Y76.052 E76.71035
G1 X21.319 Y76.052 E76.76413
G1 X22.139 Y75.987 E76.80517
G1 X22.977 Y75.787 E76.84815
G1 X23.774 Y75.456 E76.8912
G1 X24.509 Y75.006 E76.9342
G1 X25.165 Y74.447 E76.9772
G1 X25.723 Y73.791 E77.02016
G1 X26.174 Y73.056 E77.06319
G1 X26.504 Y72.26 E77.10618
G1 X26.704 Y71.421 E77.14921
G1 X26.77 Y70.602 E77.1902
G1 X26.77 Y56.45 E77.89625
G1 X30.79 Y60.47 E78.17988
G1 X30.79 Y70.601 E78.68532
G1 X30.855 Y71.421 E78.72635
G1 X31.055 Y72.26 E78.76939
G1 X31.385 Y73.056 E78.81238
G1 X31.836 Y73.791 E78.8554
G1 X32.395 Y74.447 E78.8984
G1 X33.051 Y75.006 E78.94139
G1 X33.786 Y75.457 E78.98442
G1 X34.582 Y75.787 E79.02741
G1 X35.421 Y75.987 E79.07044
G1 X36.241 Y76.052 E79.11148
G1 X37.319 Y76.052 E79.16526
G1 X38.139 Y75.987 E79.2063
G1 X38.977 Y75.787 E79.24928
G1 X39.774 Y75.458 E79.2923
G1 X40.509 Y75.006 E79.33534
G1 X41.165 Y74.447 E79.37834
G1 X41.723 Y73.791 E79.42131
