;FLAVOR:Marlin
;TIME:17107
;Filament used: 14.0821m
;Layer height: 0.2
;Generated with Cura_SteamEngine 3.6.0
M104 S200
M105
M109 S200
M82 ;absolute extrusion mode
G28 ;Home
G1 Z15.0 F6000 ;Move the platform down 15mm
;Prime the extruder
G92 E0
G1 F200 E3
G92 E0
G92 E0
G1 F1500 E-6.5
;LAYER_COUNT:388
;LAYER:0
M107
G0 F3600 X18.395 Y22.677 Z0.3
;TYPE:SKIRT
G1 F1500 E0
G1 F1200 X18.849 Y22.391 E0.02677
G1 X19.34 Y22.176 E0.05351
G1 X19.858 Y22.036 E0.08028
G1 X20.533 Y21.972 E0.11411
G1 X28.471 Y21.969 E0.51014
G1 X28.994 Y22.007 E0.5363
G1 X32.711 Y22.552 E0.72372
G1 X38.14 Y23.093 E0.99592
G1 X43.596 Y23.327 E1.26837
G1 X49.056 Y23.252 E1.5408
G1 X54.476 Y22.87 E1.81187
G1 X61.055 Y22 E2.14296
G1 X61.527 Y21.969 E2.16656
G1 X69.461 Y21.968 E2.56238
G1 X69.995 Y22.008 E2.5891
G1 X70.518 Y22.127 E2.61586
G1 X71.018 Y22.322 E2.64264
G1 X71.483 Y22.589 E2.66939
G1 X72.007 Y23.022 E2.7033
G1 X72.239 Y23.254 E2.71967
G1 X72.615 Y23.697 E2.74866
G1 X76.864 Y29.6 E3.11152
G1 X80.316 Y33.798 E3.38267
G1 X84.039 Y37.837 E3.65673
G1 X85.7 Y39.512 E3.77441
G1 X86.048 Y39.92 E3.80117
G1 X86.332 Y40.375 E3.82793
G1 X86.545 Y40.867 E3.85467
G1 X86.683 Y41.385 E3.88142
G1 X86.744 Y42.047 E3.91458
G1 X86.744 Y48.971 E4.26002
G1 X86.743 Y49.074 E4.26516
G1 X86.663 Y51.85 E4.40372
G1 X86.754 Y58.112 E4.71616
G1 X86.754 Y58.17 E4.71906
G1 X86.744 Y64.531 E5.03641
G1 X86.703 Y65.065 E5.06313
G1 X86.583 Y65.588 E5.0899
G1 X86.387 Y66.087 E5.11664
G1 X86.119 Y66.552 E5.14342
G1 X85.712 Y67.048 E5.17543
G1 X85.485 Y67.279 E5.19159
G1 X85.081 Y67.633 E5.21839
G1 X84.63 Y67.922 E5.24511
G1 X84.187 Y68.124 E5.2694
G1 X81.477 Y69.146 E5.4139
G1 X76.426 Y71.302 E5.68789
G1 X71.524 Y73.732 E5.96085
G1 X66.808 Y76.411 E6.23145
G1 X61.478 Y79.878 E6.54867
G1 X61.008 Y80.136 E6.57542
G1 X60.505 Y80.321 E6.60216
G1 X59.98 Y80.43 E6.62891
G1 X59.515 Y80.46 E6.65215
G1 X53.035 Y80.46 E6.97544
G1 X52.868 Y80.456 E6.98378
G1 X46.371 Y80.154 E7.30826
G1 X40.889 Y80.233 E7.58179
G1 X37.023 Y80.459 E7.77499
G1 X36.81 Y80.465 E7.78562
G1 X30.481 Y80.46 E8.10138
G1 X29.946 Y80.42 E8.12815
G1 X29.424 Y80.3 E8.15487
G1 X28.924 Y80.105 E8.18164
G1 X28.467 Y79.842 E8.20795
G1 X26.107 Y78.245 E8.35011
G1 X21.438 Y75.372 E8.62362
G1 X16.639 Y72.782 E8.89568
G1 X11.697 Y70.463 E9.16804
G1 X9.197 Y69.416 E9.30326
G1 X9.186 Y69.413 E9.30383
G1 X5.688 Y68.034 E9.49141
G1 X5.205 Y67.801 E9.51817
G1 X4.762 Y67.498 E9.54495
G1 X4.422 Y67.189 E9.56787
G1 X4.27 Y67.032 E9.57877
G1 X3.926 Y66.62 E9.60555
G1 X3.648 Y66.162 E9.63228
G1 X3.441 Y65.667 E9.65904
G1 X3.31 Y65.147 E9.6858
G1 X3.256 Y64.528 E9.7168
G1 X3.256 Y57.601 E10.06239
G1 X3.257 Y57.497 E10.06758
G1 X3.337 Y54.723 E10.20603
G1 X3.246 Y48.463 E10.51837
G1 X3.246 Y48.405 E10.52127
G1 X3.256 Y42.044 E10.83862
G1 X3.297 Y41.51 E10.86534
G1 X3.417 Y40.987 E10.89211
G1 X3.613 Y40.488 E10.91886
G1 X3.881 Y40.023 E10.94563
G1 X4.3 Y39.515 E10.97849
G1 X6.068 Y37.732 E11.10376
G1 X9.773 Y33.702 E11.37687
G1 X13.218 Y29.502 E11.64788
G1 X17.381 Y23.701 E12.00411
G1 X17.76 Y23.254 E12.03335
G1 X17.988 Y23.026 E12.04943
G1 X18.395 Y22.677 E12.07618
G0 F3600 X18.656 Y22.981
G1 F1200 X19.087 Y22.718 E12.10137
G1 X19.555 Y22.525 E12.12663
G1 X20.047 Y22.409 E12.15184
G1 X20.533 Y22.372 E12.17616
G1 X28.471 Y22.369 E12.57219
G1 X28.936 Y22.403 E12.59545
G1 X32.658 Y22.949 E12.78313
G1 X38.118 Y23.493 E13.05688
G1 X43.584 Y23.727 E13.32983
G1 X49.072 Y23.652 E13.60365
G1 X54.523 Y23.268 E13.87628
G1 X61.107 Y22.397 E14.20762
G1 X61.527 Y22.369 E14.22862
G1 X69.461 Y22.368 E14.62445
G1 X69.965 Y22.408 E14.64967
G1 X70.456 Y22.527 E14.67487
G1 X70.923 Y22.721 E14.7001
G1 X71.353 Y22.987 E14.72533
G1 X71.724 Y23.305 E14.74971
G1 X71.956 Y23.537 E14.76608
G1 X72.29 Y23.93 E14.79181
G1 X76.548 Y29.845 E15.15542
G1 X80.013 Y34.059 E15.4276
G1 X83.757 Y38.121 E15.70321
G1 X85.416 Y39.794 E15.82075
G1 X85.743 Y40.179 E15.84595
G1 X86.004 Y40.612 E15.87118
G1 X86.195 Y41.08 E15.89639
G1 X86.309 Y41.573 E15.92164
G1 X86.344 Y42.047 E15.94535
G1 X86.344 Y48.971 E16.29079
G1 X86.343 Y49.063 E16.29538
G1 X86.263 Y51.845 E16.43423
G1 X86.354 Y58.118 E16.74723
G1 X86.354 Y58.169 E16.74977
G1 X86.344 Y64.53 E17.06712
G1 X86.303 Y65.034 E17.09235
G1 X86.184 Y65.525 E17.11756
G1 X85.988 Y65.991 E17.14278
G1 X85.722 Y66.421 E17.168
G1 X85.426 Y66.768 E17.19076
G1 X85.199 Y66.999 E17.20692
G1 X84.818 Y67.33 E17.2321
G1 X84.389 Y67.598 E17.25733
G1 X84.046 Y67.75 E17.27605
G1 X81.319 Y68.778 E17.42145
G1 X76.249 Y70.943 E17.69649
G1 X71.355 Y73.369 E17.969
G1 X66.586 Y76.077 E18.24261
G1 X61.26 Y79.542 E18.55961
G1 X60.816 Y79.784 E18.58484
G1 X60.339 Y79.952 E18.61007
G1 X59.842 Y80.043 E18.63528
G1 X59.515 Y80.06 E18.65161
G1 X53.035 Y80.06 E18.9749
G1 X52.887 Y80.057 E18.98229
G1 X46.367 Y79.754 E19.30792
G1 X40.883 Y79.833 E19.58155
G1 X37 Y80.06 E19.7756
G1 X36.81 Y80.065 E19.78508
G1 X30.481 Y80.06 E20.10084
G1 X29.978 Y80.02 E20.12601
G1 X29.486 Y79.9 E20.15128
G1 X29.02 Y79.705 E20.17648
G1 X28.691 Y79.511 E20.19554
G1 X26.308 Y77.899 E20.33907
G1 X21.646 Y75.03 E20.61217
G1 X16.82 Y72.425 E20.88578
G1 X11.852 Y70.095 E21.15954
G1 X9.346 Y69.045 E21.2951
G1 X9.332 Y69.041 E21.29582
G1 X5.834 Y67.662 E21.48341
G1 X5.38 Y67.44 E21.50862
G1 X4.967 Y67.149 E21.53383
G1 X4.709 Y66.911 E21.55134
G1 X4.557 Y66.754 E21.56224
G1 X4.235 Y66.364 E21.58748
G1 X3.979 Y65.928 E21.6127
G1 X3.794 Y65.458 E21.6379
G1 X3.686 Y64.964 E21.66313
G1 X3.656 Y64.528 E21.68493
G1 X3.656 Y57.601 E22.03052
G1 X3.657 Y57.509 E22.03511
G1 X3.737 Y54.729 E22.17386
G1 X3.646 Y48.457 E22.48681
G1 X3.646 Y48.406 E22.48935
G1 X3.656 Y42.045 E22.8067
G1 X3.697 Y41.541 E22.83193
G1 X3.816 Y41.05 E22.85714
G1 X4.012 Y40.584 E22.88236
G1 X4.278 Y40.154 E22.90758
G1 X4.584 Y39.797 E22.93104
G1 X6.338 Y38.028 E23.05533
G1 X10.077 Y33.961 E23.33095
G1 X13.541 Y29.739 E23.60341
G1 X17.706 Y23.934 E23.95985
G1 X18.043 Y23.537 E23.98583
G1 X18.271 Y23.309 E24.00192
G1 X18.656 Y22.981 E24.02715
G0 F3600 X20.616 Y25.758
;TYPE:SUPPORT
G1 F1200 X28.384 Y25.758 E24.4147
G1 X28.5 Y25.874 E24.42288
G1 X28.5 Y36.153 E24.9357
G1 X28.362 Y36.211 E24.94317
G1 X28.018 Y36.107 E24.9611
G1 X20.982 Y36.107 E25.31213
G1 X20.638 Y36.211 E25.33006
G1 X20.5 Y36.153 E25.33753
G1 X20.5 Y25.874 E25.85035
G1 X20.616 Y25.758 E25.85853
G0 F3600 X21.336 Y25.918
G1 F1200 X21.336 Y35.947 E26.35888
G0 F3600 X20.659 Y34.671
G1 F1200 X28.339 Y34.671 E26.74204
G0 F3600 X26.67 Y35.947
G1 F1200 X26.67 Y25.918 E27.24239
G0 F3600 X28.34 Y26.67
G1 F1200 X20.66 Y26.67 E27.62554
G0 F3600 X20.66 Y29.337
G1 F1200 X28.34 Y29.337 E28.0087
G0 F3600 X28.339 Y32.004
G1 F1200 X20.659 Y32.004 E28.39186
G0 F3600 X24.003 Y35.947
G1 F1200 X24.003 Y25.918 E28.89221
G0 F3600 X9.026 Y42.007
G1 F1200 X8.992 Y42.041 E28.89461
G1 X8.992 Y48.973 E29.24044
G1 X9.026 Y49.007 E29.24284
G1 X7.162 Y49.007 E29.33584
G1 X7.046 Y48.891 E29.34402
G1 X7.046 Y42.123 E29.68168
G1 X7.162 Y42.007 E29.68986
G1 X9.026 Y42.007 E29.78286
G0 F3600 X8.831 Y42.672
G1 F1200 X7.205 Y42.672 E29.86398
G0 F3600 X8.001 Y42.167
G1 F1200 X8.001 Y48.847 E30.19725
G0 F3600 X7.205 Y48.006
G1 F1200 X8.831 Y48.006 E30.27837
G0 F3600 X8.831 Y45.339
G1 F1200 X7.205 Y45.339 E30.35949
G0 F3600 X7.162 Y57.567
G1 F1200 X9.026 Y57.567 E30.45249
G1 X8.992 Y57.601 E30.45489
G1 X8.992 Y64.533 E30.80072
G1 X9.026 Y64.567 E30.80312
G1 X7.162 Y64.567 E30.89612
G1 X7.046 Y64.451 E30.9043
G1 X7.046 Y57.683 E31.24196
G1 X7.162 Y57.567 E31.25014
G0 F3600 X8.001 Y57.727
G1 F1200 X8.001 Y64.407 E31.58341
G0 F3600 X7.205 Y64.008
G1 F1200 X8.831 Y64.008 E31.66453
G0 F3600 X8.831 Y61.341
G1 F1200 X7.205 Y61.341 E31.74565
G0 F3600 X7.205 Y58.674
G1 F1200 X8.831 Y58.674 E31.82677
G1 F1500 E25.32677
G0 F3600 X9.41 Y64.724
G0 X9.914 Y65.228
G0 X30.446 Y65.65
G1 F1500 E31.82677
G1 F1200 X37 Y65.649 E32.15376
G1 X37 Y76.554 E32.69781
G1 X36.884 Y76.67 E32.70599
G1 X30.562 Y76.67 E33.0214
G1 X30.446 Y76.554 E33.02958
G1 X30.446 Y65.65 E33.57359
G0 F3600 X30.605 Y66.675
G1 F1200 X36.839 Y66.675 E33.8846
G0 F3600 X34.671 Y65.809
G1 F1200 X34.671 Y76.51 E34.41848
G0 F3600 X32.004 Y76.51
G1 F1200 X32.004 Y65.809 E34.95235
G0 F3600 X30.605 Y69.342
G1 F1200 X36.839 Y69.342 E35.26337
G0 F3600 X36.839 Y72.009
G1 F1200 X30.605 Y72.009 E35.57438
G0 F3600 X30.605 Y74.676
G1 F1200 X36.839 Y74.676 E35.8854
G0 F3600 X53 Y76.554
G1 F1200 X53 Y65.65 E36.4294
G1 X59.554 Y65.649 E36.75638
G1 X59.554 Y76.554 E37.30043
G1 X59.438 Y76.67 E37.30862
G1 X53.116 Y76.67 E37.62402
G1 X53 Y76.554 E37.63221
G0 F3600 X53.34 Y76.51
G1 F1200 X53.34 Y65.809 E38.16608
G0 F3600 X53.159 Y66.675
G1 F1200 X59.393 Y66.675 E38.4771
G0 F3600 X58.674 Y65.809
G1 F1200 X58.674 Y76.51 E39.01097
G0 F3600 X59.393 Y74.676
G1 F1200 X53.159 Y74.676 E39.32199
G0 F3600 X53.159 Y72.009
G1 F1200 X59.393 Y72.009 E39.633
G0 F3600 X59.393 Y69.342
G1 F1200 X53.159 Y69.342 E39.94402
G0 F3600 X56.007 Y65.809
G1 F1200 X56.007 Y76.51 E40.4779
G1 F1500 E33.9779
G0 F3600 X80.086 Y65.228
G0 X80.974 Y64.567
G1 F1500 E40.4779
G1 F1200 X81.008 Y64.533 E40.48029
G1 X81.008 Y57.601 E40.82613
G1 X80.974 Y57.567 E40.82853
G1 X82.838 Y57.567 E40.92153
G1 X82.954 Y57.683 E40.92971
G1 X82.954 Y64.451 E41.26737
G1 X82.838 Y64.567 E41.27555
G1 X80.974 Y64.567 E41.36855
G0 F3600 X81.168 Y64.008
G1 F1200 X82.794 Y64.008 E41.44967
G0 F3600 X82.677 Y64.407
G1 F1200 X82.677 Y57.727 E41.78294
G0 F3600 X82.794 Y58.674
G1 F1200 X81.168 Y58.674 E41.86406
G0 F3600 X81.168 Y61.341
G1 F1200 X82.794 Y61.341 E41.94518
G0 F3600 X82.838 Y49.007
G1 F1200 X80.974 Y49.007 E42.03817
G1 X81.008 Y48.973 E42.04057
G1 X81.008 Y42.041 E42.38641
G1 X80.974 Y42.007 E42.38881
G1 X82.838 Y42.007 E42.48181
G1 X82.954 Y42.123 E42.48999
G1 X82.954 Y48.891 E42.82765
G1 X82.838 Y49.007 E42.83583
G0 F3600 X82.677 Y48.847
G1 F1200 X82.677 Y42.167 E43.1691
G0 F3600 X82.794 Y42.672
G1 F1200 X81.168 Y42.672 E43.25022
G0 F3600 X81.168 Y45.339
G1 F1200 X82.794 Y45.339 E43.33134
G0 F3600 X82.794 Y48.006
G1 F1200 X81.168 Y48.006 E43.41246
G1 F1500 E36.91246
G0 F3600 X80.59 Y41.85
G0 X80.137 Y41.397
G0 X69.5 Y36.153
G1 F1500 E43.41246
G1 F1200 X69.362 Y36.211 E43.41993
G1 X69.018 Y36.107 E43.43786
G1 X61.982 Y36.107 E43.78889
G1 X61.638 Y36.211 E43.80682
G1 X61.5 Y36.153 E43.81429
G1 X61.5 Y25.874 E44.32711
G1 X61.616 Y25.758 E44.33529
G1 X69.384 Y25.758 E44.72284
G1 X69.5 Y25.874 E44.73102
G1 X69.5 Y36.153 E45.24384
G0 F3600 X69.34 Y34.671
G1 F1200 X61.66 Y34.671 E45.627
G0 F3600 X61.66 Y32.004
G1 F1200 X69.34 Y32.004 E46.01016
G0 F3600 X69.34 Y29.337
G1 F1200 X61.66 Y29.337 E46.39332
G0 F3600 X61.66 Y26.67
G1 F1200 X69.34 Y26.67 E46.77647
G0 F3600 X66.675 Y25.918
G1 F1200 X66.675 Y35.947 E47.27682
G0 F3600 X64.008 Y35.947
G1 F1200 X64.008 Y25.918 E47.77717
G1 F1500 E41.27717
;MESH:Gas Base.stl
G0 F3600 X64.008 Y41.192
G0 X64.008 Y42.477
G0 X68.83 Y42.677
G0 X68.9 Y42.607
;TYPE:WALL-INNER
G1 F1500 E47.77717
G1 F1200 X79.329 Y42.607 E48.29747
G1 X79.329 Y48.407 E48.58684
G1 X10.671 Y48.407 E52.0122
G1 X10.671 Y42.607 E52.30156
G1 X21.1 Y42.607 E52.82187
G1 X21.1 Y42.457 E52.82935
G1 X27.9 Y42.457 E53.1686
G1 X27.9 Y42.607 E53.17609
G1 X62.1 Y42.607 E54.88233
G1 X62.1 Y42.457 E54.88982
G1 X68.9 Y42.457 E55.22907
G1 X68.9 Y42.607 E55.23655
G0 F3600 X69.3 Y42.207
;TYPE:WALL-OUTER
G1 F1200 X79.729 Y42.207 E55.75686
G1 X79.729 Y48.807 E56.08613
G1 X10.271 Y48.807 E59.55141
G1 X10.271 Y42.207 E59.88068
G1 X20.7 Y42.207 E60.40099
G1 X20.7 Y42.057 E60.40847
G1 X28.3 Y42.057 E60.78764
G1 X28.3 Y42.207 E60.79512
G1 X61.7 Y42.207 E62.46145
G1 X61.7 Y42.057 E62.46894
G1 X69.3 Y42.057 E62.8481
G1 X69.3 Y42.207 E62.85559
G0 F3600 X69.5 Y42.207
G0 X69.5 Y42.707
G0 X68.51 Y42.847
;TYPE:SKIN
G1 F1200 X68.51 Y42.997 E62.86307
G1 X78.939 Y42.997 E63.38337
G1 X78.939 Y48.017 E63.63382
G1 X11.061 Y48.017 E67.02027
G1 X11.061 Y42.997 E67.27072
G1 X21.49 Y42.997 E67.79102
G1 X21.49 Y42.847 E67.79851
G1 X27.51 Y42.847 E68.09885
G1 X27.51 Y42.997 E68.10633
G1 X62.49 Y42.997 E69.85149
G1 X62.49 Y42.847 E69.85897
G1 X68.51 Y42.847 E70.15931
G0 F3600 X78.758 Y43.685
G1 F1200 X78.249 Y43.177 E70.19519
G0 F3600 X77.684 Y43.177
G1 F1200 X78.758 Y44.251 E70.27097
G0 F3600 X78.758 Y44.817
G1 F1200 X77.118 Y43.177 E70.38668
G0 F3600 X76.552 Y43.177
G1 F1200 X78.758 Y45.382 E70.54229
G0 F3600 X78.758 Y45.948
G1 F1200 X75.987 Y43.177 E70.7378
G0 F3600 X75.421 Y43.177
G1 F1200 X78.758 Y46.514 E70.97324
G0 F3600 X78.758 Y47.079
G1 F1200 X74.855 Y43.177 E71.24858
G0 F3600 X74.29 Y43.177
G1 F1200 X78.758 Y47.645 E71.56382
G0 F3600 X78.383 Y47.836
G1 F1200 X73.724 Y43.177 E71.89254
G0 F3600 X73.158 Y43.177
G1 F1200 X77.817 Y47.836 E72.22126
G0 F3600 X77.252 Y47.836
G1 F1200 X72.592 Y43.177 E72.55001
G0 F3600 X72.027 Y43.177
G1 F1200 X76.686 Y47.836 E72.87873
G0 F3600 X76.12 Y47.836
G1 F1200 X71.461 Y43.177 E73.20745
G0 F3600 X70.895 Y43.177
G1 F1200 X75.555 Y47.836 E73.5362
G0 F3600 X74.989 Y47.836
G1 F1200 X70.33 Y43.177 E73.86492
G0 F3600 X69.764 Y43.177
G1 F1200 X74.423 Y47.836 E74.19363
G0 F3600 X73.858 Y47.836
G1 F1200 X69.198 Y43.177 E74.52239
G0 F3600 X68.633 Y43.177
G1 F1200 X73.292 Y47.836 E74.8511
G0 F3600 X72.726 Y47.836
G1 F1200 X67.917 Y43.027 E75.19041
G0 F3600 X67.351 Y43.027
G1 F1200 X72.16 Y47.836 E75.52971
G0 F3600 X71.595 Y47.836
G1 F1200 X66.786 Y43.027 E75.86901
G0 F3600 X66.22 Y43.027
G1 F1200 X71.029 Y47.836 E76.20831
G0 F3600 X70.463 Y47.836
G1 F1200 X65.654 Y43.027 E76.54761
G0 F3600 X65.089 Y43.027
G1 F1200 X69.898 Y47.836 E76.88691
G0 F3600 X69.332 Y47.836
G1 F1200 X64.523 Y43.027 E77.22621
G0 F3600 X63.957 Y43.027
G1 F1200 X68.766 Y47.836 E77.56551
G0 F3600 X68.201 Y47.836
G1 F1200 X63.392 Y43.027 E77.90481
G0 F3600 X62.826 Y43.027
G1 F1200 X67.635 Y47.836 E78.24411
G0 F3600 X67.069 Y47.836
G1 F1200 X62.41 Y43.177 E78.57283
G0 F3600 X61.844 Y43.177
G1 F1200 X66.504 Y47.836 E78.90158
G0 F3600 X65.938 Y47.836
G1 F1200 X61.279 Y43.177 E79.2303
G0 F3600 X60.713 Y43.177
G1 F1200 X65.372 Y47.836 E79.55902
G0 F3600 X64.807 Y47.836
G1 F1200 X60.147 Y43.177 E79.88777
G0 F3600 X59.582 Y43.177
G1 F1200 X64.241 Y47.836 E80.21649
G0 F3600 X63.675 Y47.836
G1 F1200 X59.016 Y43.177 E80.54521
G0 F3600 X58.45 Y43.177
G1 F1200 X63.109 Y47.836 E80.87393
G0 F3600 X62.544 Y47.836
G1 F1200 X57.885 Y43.177 E81.20264
G0 F3600 X57.319 Y43.177
G1 F1200 X61.978 Y47.836 E81.53136
G0 F3600 X61.412 Y47.836
G1 F1200 X56.753 Y43.177 E81.86008
G0 F3600 X56.188 Y43.177
G1 F1200 X60.847 Y47.836 E82.1888
G0 F3600 X60.281 Y47.836
G1 F1200 X55.622 Y43.177 E82.51751
G0 F3600 X55.056 Y43.177
G1 F1200 X59.715 Y47.836 E82.84623
G0 F3600 X59.15 Y47.836
G1 F1200 X54.491 Y43.177 E83.17495
G0 F3600 X53.925 Y43.177
G1 F1200 X58.584 Y47.836 E83.50367
G0 F3600 X58.018 Y47.836
G1 F1200 X53.359 Y43.177 E83.83238
G0 F3600 X52.794 Y43.177
G1 F1200 X57.453 Y47.836 E84.1611
G0 F3600 X56.887 Y47.836
G1 F1200 X52.228 Y43.177 E84.48982
G0 F3600 X51.662 Y43.177
G1 F1200 X56.321 Y47.836 E84.81854
G0 F3600 X55.756 Y47.836
G1 F1200 X51.096 Y43.177 E85.14729
G0 F3600 X50.531 Y43.177
G1 F1200 X55.19 Y47.836 E85.47601
G0 F3600 X54.624 Y47.836
G1 F1200 X49.965 Y43.177 E85.80472
G0 F3600 X49.399 Y43.177
G1 F1200 X54.059 Y47.836 E86.13348
G0 F3600 X53.493 Y47.836
G1 F1200 X48.834 Y43.177 E86.4622
G0 F3600 X48.268 Y43.177
G1 F1200 X52.927 Y47.836 E86.79091
G0 F3600 X52.361 Y47.836
G1 F1200 X47.702 Y43.177 E87.11963
G0 F3600 X47.137 Y43.177
G1 F1200 X51.796 Y47.836 E87.44835
G0 F3600 X51.23 Y47.836
G1 F1200 X46.571 Y43.177 E87.77707
G0 F3600 X46.005 Y43.177
G1 F1200 X50.664 Y47.836 E88.10578
G0 F3600 X50.099 Y47.836
