;FLAVOR:Marlin
;TIME:12378
;Filament used: 10.6586m
;Layer height: 0.2
;Generated with Cura_SteamEngine 3.6.0
M104 S200
M105
M109 S200
M82 ;absolute extrusion mode
G28 ;Home
G1 Z15.0 F6000 ;Move the platform down 15mm
;Prime the extruder
G92 E0
G1 F200 E3
G92 E0
G92 E0
G1 F1500 E-6.5
;LAYER_COUNT:193
;LAYER:0
M107
G0 F3600 X11.861 Y31.098 Z0.3
;TYPE:SKIRT
G1 F1500 E0
G1 F1200 X12.38 Y30.965 E0.02673
G1 X13.011 Y30.909 E0.05833
G1 X76.991 Y30.91 E3.25031
G1 X77.526 Y30.95 E3.27708
G1 X78.049 Y31.069 E3.30383
G1 X78.548 Y31.264 E3.33056
G1 X79.013 Y31.532 E3.35734
G1 X79.433 Y31.865 E3.38408
G1 X79.799 Y32.257 E3.41084
G1 X80.102 Y32.699 E3.43757
G1 X80.337 Y33.182 E3.46437
G1 X80.497 Y33.693 E3.49108
G1 X80.58 Y34.223 E3.51785
G1 X80.591 Y34.51 E3.53218
G1 X80.59 Y53.491 E4.47914
G1 X80.55 Y54.026 E4.50591
G1 X80.48 Y54.373 E4.52357
G1 X78.736 Y61.273 E4.87864
G1 X78.21 Y63.892 E5.01191
G1 X77.36 Y69.286 E5.28434
G1 X76.815 Y74.723 E5.55695
G1 X76.637 Y77.96 E5.71869
G1 X76.567 Y78.492 E5.74546
G1 X76.42 Y79.007 E5.77218
G1 X76.197 Y79.495 E5.79895
G1 X75.905 Y79.945 E5.82571
G1 X75.549 Y80.346 E5.85246
G1 X75.137 Y80.69 E5.87924
G1 X74.679 Y80.968 E5.90597
G1 X74.185 Y81.176 E5.93271
G1 X73.665 Y81.308 E5.95948
G1 X73.046 Y81.362 E5.99048
G1 X20.008 Y81.423 E8.63655
G1 X15.739 Y81.571 E8.84966
G1 X15.504 Y81.571 E8.86139
G1 X8.95 Y81.37 E9.18852
G1 X8.416 Y81.314 E9.21531
G1 X7.897 Y81.179 E9.24206
G1 X7.404 Y80.969 E9.2688
G1 X6.948 Y80.687 E9.29555
G1 X6.538 Y80.341 E9.32231
G1 X6.184 Y79.938 E9.34907
G1 X5.895 Y79.487 E9.3758
G1 X5.675 Y78.997 E9.40259
G1 X5.53 Y78.481 E9.42933
G1 X5.46 Y77.75 E9.46597
G1 X5.574 Y58.989 E10.40198
G1 X5.617 Y58.455 E10.42871
G1 X5.681 Y58.138 E10.44484
G1 X7.313 Y51.607 E10.78069
G1 X7.825 Y49.041 E10.91123
G1 X8.675 Y43.606 E11.18568
G1 X9.212 Y38.183 E11.45756
G1 X9.416 Y34.319 E11.6506
G1 X9.484 Y33.787 E11.67736
G1 X9.631 Y33.271 E11.70413
G1 X9.852 Y32.783 E11.73086
G1 X10.143 Y32.333 E11.75759
G1 X10.499 Y31.931 E11.78438
G1 X10.909 Y31.586 E11.81112
G1 X11.367 Y31.306 E11.8379
G1 X11.861 Y31.098 E11.86464
G0 F3600 X12.211 Y31.411
G1 F1200 X12.709 Y31.323 E11.88987
G1 X13.011 Y31.309 E11.90495
G1 X76.991 Y31.31 E15.09693
G1 X77.495 Y31.35 E15.12215
G1 X77.986 Y31.469 E15.14736
G1 X78.453 Y31.664 E15.1726
G1 X78.883 Y31.929 E15.1978
G1 X79.266 Y32.259 E15.22303
G1 X79.592 Y32.646 E15.24827
G1 X79.853 Y33.079 E15.27349
G1 X80.043 Y33.547 E15.29869
G1 X80.156 Y34.04 E15.32393
G1 X80.191 Y34.51 E15.34744
G1 X80.19 Y53.491 E16.29441
G1 X80.15 Y53.995 E16.31963
G1 X80.092 Y54.275 E16.3339
G1 X78.342 Y61.198 E16.69015
G1 X77.82 Y63.797 E16.8224
G1 X76.963 Y69.238 E17.0972
G1 X76.415 Y74.706 E17.37137
G1 X76.237 Y77.938 E17.53286
G1 X76.17 Y78.439 E17.55808
G1 X76.024 Y78.923 E17.5833
G1 X75.804 Y79.378 E17.60851
G1 X75.515 Y79.793 E17.63374
G1 X75.164 Y80.157 E17.65897
G1 X74.76 Y80.461 E17.68419
G1 X74.314 Y80.698 E17.70939
G1 X73.835 Y80.862 E17.73465
G1 X73.337 Y80.948 E17.75986
G1 X73.046 Y80.962 E17.7744
G1 X19.993 Y81.023 E20.42123
G1 X15.725 Y81.171 E20.63429
G1 X15.516 Y81.171 E20.64471
G1 X8.962 Y80.97 E20.97185
G1 X8.459 Y80.915 E20.99709
G1 X7.972 Y80.781 E21.02229
G1 X7.511 Y80.572 E21.04754
G1 X7.09 Y80.294 E21.07271
G1 X6.717 Y79.952 E21.09796
G1 X6.403 Y79.556 E21.12317
G1 X6.155 Y79.115 E21.14842
G1 X5.98 Y78.641 E21.17362
G1 X5.882 Y78.145 E21.19885
G1 X5.86 Y77.753 E21.21844
G1 X5.974 Y58.992 E22.15444
G1 X6.017 Y58.488 E22.17968
G1 X6.069 Y58.235 E22.19256
G1 X7.703 Y51.696 E22.52883
G1 X8.219 Y49.113 E22.66024
G1 X9.072 Y43.654 E22.9359
G1 X9.61 Y38.223 E23.20818
G1 X9.815 Y34.34 E23.40217
G1 X9.882 Y33.839 E23.42739
G1 X10.027 Y33.354 E23.45264
G1 X10.246 Y32.899 E23.47783
G1 X10.534 Y32.483 E23.50308
G1 X10.884 Y32.119 E23.52827
G1 X11.287 Y31.813 E23.55352
G1 X11.733 Y31.575 E23.57874
G1 X12.211 Y31.411 E23.60395
G1 F1500 E17.10395
G0 F3600 X12.339 Y53.657
G0 X15.95 Y59.011
;TYPE:SUPPORT
G1 F1500 E23.60395
G1 F1200 X16.375 Y59.011 E23.62515
G1 X16.376 Y66.011 E23.97438
G1 X15.951 Y66.011 E23.99559
G1 X15.95 Y59.011 E24.34482
G0 F3600 X16.109 Y61.341
G1 F1200 X16.215 Y61.341 E24.35011
G0 F3600 X16.215 Y64.008
G1 F1200 X16.109 Y64.008 E24.35539
G0 F3600 X16.263 Y70.783
G1 F1200 X16.264 Y77.783 E24.70463
G1 X15.839 Y77.783 E24.72583
G1 X15.838 Y70.783 E25.07506
G1 X16.263 Y70.783 E25.09626
G0 F3600 X16.002 Y70.943
G1 F1200 X16.002 Y77.623 E25.42953
G0 F3600 X15.997 Y77.343
G1 F1200 X16.103 Y77.343 E25.43482
G0 F3600 X16.103 Y74.676
G1 F1200 X15.997 Y74.676 E25.44011
G0 F3600 X15.997 Y72.009
G1 F1200 X16.103 Y72.009 E25.4454
G1 F1500 E18.9454
;MESH:Gas Base.stl(1)
G0 F3600 X15.777 Y54.164
G0 X12.843 Y54.161
G0 X12.339 Y53.657
G0 X12.339 Y46.343
G0 X16.103 Y42.165
G0 X16.103 Y40.88
G0 X68.753 Y40.83
G0 X68.823 Y40.9
;TYPE:WALL-INNER
G1 F1500 E25.4454
G1 F1200 X13.6 Y40.9 E28.20048
G1 X13.6 Y35.1 E28.48985
G1 X68.823 Y35.1 E31.24493
G1 X68.823 Y40.9 E31.5343
G0 F3600 X69.223 Y41.3
;TYPE:WALL-OUTER
G1 F1200 X13.2 Y41.3 E34.32929
G1 X13.2 Y34.7 E34.65857
G1 X69.223 Y34.7 E37.45357
G1 X69.223 Y41.3 E37.78284
G0 F3600 X69.023 Y41.3
G0 X68.753 Y40.83
G0 X68.433 Y40.51
;TYPE:SKIN
G1 F1200 X13.99 Y40.51 E40.49902
G1 X13.99 Y35.49 E40.74946
G1 X68.433 Y35.49 E43.46564
G1 X68.433 Y40.51 E43.71609
G0 F3600 X68.252 Y36.007
G1 F1200 X67.914 Y35.67 E43.7399
G0 F3600 X67.348 Y35.67
G1 F1200 X68.252 Y36.573 E43.80365
G0 F3600 X68.252 Y37.139
G1 F1200 X66.782 Y35.67 E43.90733
G0 F3600 X66.217 Y35.67
G1 F1200 X68.252 Y37.705 E44.05091
G0 F3600 X68.252 Y38.27
G1 F1200 X65.651 Y35.67 E44.23439
G0 F3600 X65.085 Y35.67
G1 F1200 X68.252 Y38.836 E44.4578
G0 F3600 X68.252 Y39.402
G1 F1200 X64.519 Y35.67 E44.72115
G0 F3600 X63.954 Y35.67
G1 F1200 X68.252 Y39.967 E45.02436
G0 F3600 X68.047 Y40.329
G1 F1200 X63.388 Y35.67 E45.35308
G0 F3600 X62.822 Y35.67
G1 F1200 X67.482 Y40.329 E45.68183
G0 F3600 X66.916 Y40.329
G1 F1200 X62.257 Y35.67 E46.01055
G0 F3600 X61.691 Y35.67
G1 F1200 X66.35 Y40.329 E46.33927
G0 F3600 X65.784 Y40.329
G1 F1200 X61.125 Y35.67 E46.66798
G0 F3600 X60.56 Y35.67
G1 F1200 X65.219 Y40.329 E46.9967
G0 F3600 X64.653 Y40.329
G1 F1200 X59.994 Y35.67 E47.32542
G0 F3600 X59.428 Y35.67
G1 F1200 X64.087 Y40.329 E47.65414
G0 F3600 X63.522 Y40.329
G1 F1200 X58.863 Y35.67 E47.98285
G0 F3600 X58.297 Y35.67
G1 F1200 X62.956 Y40.329 E48.31157
G0 F3600 X62.39 Y40.329
G1 F1200 X57.731 Y35.67 E48.64029
G0 F3600 X57.166 Y35.67
G1 F1200 X61.825 Y40.329 E48.96901
G0 F3600 X61.259 Y40.329
G1 F1200 X56.6 Y35.67 E49.29772
G0 F3600 X56.034 Y35.67
G1 F1200 X60.693 Y40.329 E49.62644
G0 F3600 X60.128 Y40.329
G1 F1200 X55.468 Y35.67 E49.95519
G0 F3600 X54.903 Y35.67
G1 F1200 X59.562 Y40.329 E50.28391
G0 F3600 X58.996 Y40.329
G1 F1200 X54.337 Y35.67 E50.61263
G0 F3600 X53.771 Y35.67
G1 F1200 X58.431 Y40.329 E50.94138
G0 F3600 X57.865 Y40.329
G1 F1200 X53.206 Y35.67 E51.2701
G0 F3600 X52.64 Y35.67
G1 F1200 X57.299 Y40.329 E51.59882
G0 F3600 X56.734 Y40.329
G1 F1200 X52.074 Y35.67 E51.92757
G0 F3600 X51.509 Y35.67
G1 F1200 X56.168 Y40.329 E52.25629
G0 F3600 X55.602 Y40.329
G1 F1200 X50.943 Y35.67 E52.58501
G0 F3600 X50.377 Y35.67
G1 F1200 X55.036 Y40.329 E52.91372
G0 F3600 X54.471 Y40.329
G1 F1200 X49.812 Y35.67 E53.24244
G0 F3600 X49.246 Y35.67
G1 F1200 X53.905 Y40.329 E53.57116
G0 F3600 X53.339 Y40.329
G1 F1200 X48.68 Y35.67 E53.89988
G0 F3600 X48.115 Y35.67
G1 F1200 X52.774 Y40.329 E54.22859
G0 F3600 X52.208 Y40.329
G1 F1200 X47.549 Y35.67 E54.55731
G0 F3600 X46.983 Y35.67
G1 F1200 X51.642 Y40.329 E54.88603
G0 F3600 X51.077 Y40.329
G1 F1200 X46.418 Y35.67 E55.21475
G0 F3600 X45.852 Y35.67
G1 F1200 X50.511 Y40.329 E55.54346
G0 F3600 X49.945 Y40.329
G1 F1200 X45.286 Y35.67 E55.87218
G0 F3600 X44.72 Y35.67
G1 F1200 X49.38 Y40.329 E56.20093
G0 F3600 X48.814 Y40.329
G1 F1200 X44.155 Y35.67 E56.52965
G0 F3600 X43.589 Y35.67
G1 F1200 X48.248 Y40.329 E56.85837
G0 F3600 X47.683 Y40.329
G1 F1200 X43.023 Y35.67 E57.18712
G0 F3600 X42.458 Y35.67
G1 F1200 X47.117 Y40.329 E57.51584
G0 F3600 X46.551 Y40.329
G1 F1200 X41.892 Y35.67 E57.84456
G0 F3600 X41.326 Y35.67
G1 F1200 X45.985 Y40.329 E58.17328
G0 F3600 X45.42 Y40.329
G1 F1200 X40.761 Y35.67 E58.50199
G0 F3600 X40.195 Y35.67
G1 F1200 X44.854 Y40.329 E58.83071
G0 F3600 X44.288 Y40.329
G1 F1200 X39.629 Y35.67 E59.15943
G0 F3600 X39.064 Y35.67
G1 F1200 X43.723 Y40.329 E59.48815
G0 F3600 X43.157 Y40.329
G1 F1200 X38.498 Y35.67 E59.81686
G0 F3600 X37.932 Y35.67
G1 F1200 X42.591 Y40.329 E60.14558
G0 F3600 X42.026 Y40.329
G1 F1200 X37.367 Y35.67 E60.4743
G0 F3600 X36.801 Y35.67
G1 F1200 X41.46 Y40.329 E60.80302
G0 F3600 X40.894 Y40.329
G1 F1200 X36.235 Y35.67 E61.13173
G0 F3600 X35.67 Y35.67
G1 F1200 X40.329 Y40.329 E61.46045
G0 F3600 X39.763 Y40.329
G1 F1200 X35.104 Y35.67 E61.78917
G0 F3600 X34.538 Y35.67
G1 F1200 X39.197 Y40.329 E62.11789
G0 F3600 X38.632 Y40.329
G1 F1200 X33.972 Y35.67 E62.44664
G0 F3600 X33.407 Y35.67
G1 F1200 X38.066 Y40.329 E62.77536
G0 F3600 X37.5 Y40.329
G1 F1200 X32.841 Y35.67 E63.10408
G0 F3600 X32.275 Y35.67
G1 F1200 X36.935 Y40.329 E63.43283
G0 F3600 X36.369 Y40.329
G1 F1200 X31.71 Y35.67 E63.76155
G0 F3600 X31.144 Y35.67
G1 F1200 X35.803 Y40.329 E64.09026
G0 F3600 X35.237 Y40.329
G1 F1200 X30.578 Y35.67 E64.41898
G0 F3600 X30.013 Y35.67
G1 F1200 X34.672 Y40.329 E64.7477
G0 F3600 X34.106 Y40.329
G1 F1200 X29.447 Y35.67 E65.07642
G0 F3600 X28.881 Y35.67
G1 F1200 X33.54 Y40.329 E65.40513
G0 F3600 X32.975 Y40.329
G1 F1200 X28.316 Y35.67 E65.73385
G0 F3600 X27.75 Y35.67
G1 F1200 X32.409 Y40.329 E66.06257
G0 F3600 X31.843 Y40.329
G1 F1200 X27.184 Y35.67 E66.39129
G0 F3600 X26.619 Y35.67
G1 F1200 X31.278 Y40.329 E66.72
G0 F3600 X30.712 Y40.329
G1 F1200 X26.053 Y35.67 E67.04872
G0 F3600 X25.487 Y35.67
G1 F1200 X30.146 Y40.329 E67.37744
G0 F3600 X29.581 Y40.329
G1 F1200 X24.921 Y35.67 E67.70619
G0 F3600 X24.356 Y35.67
G1 F1200 X29.015 Y40.329 E68.03491
G0 F3600 X28.449 Y40.329
G1 F1200 X23.79 Y35.67 E68.36363
G0 F3600 X23.224 Y35.67
G1 F1200 X27.884 Y40.329 E68.69238
G0 F3600 X27.318 Y40.329
G1 F1200 X22.659 Y35.67 E69.0211
G0 F3600 X22.093 Y35.67
G1 F1200 X26.752 Y40.329 E69.34982
G0 F3600 X26.186 Y40.329
G1 F1200 X21.527 Y35.67 E69.67853
G0 F3600 X20.962 Y35.67
G1 F1200 X25.621 Y40.329 E70.00725
G0 F3600 X25.055 Y40.329
G1 F1200 X20.396 Y35.67 E70.33597
G0 F3600 X19.83 Y35.67
G1 F1200 X24.489 Y40.329 E70.66469
G0 F3600 X23.924 Y40.329
G1 F1200 X19.265 Y35.67 E70.9934
G0 F3600 X18.699 Y35.67
G1 F1200 X23.358 Y40.329 E71.32212
G0 F3600 X22.792 Y40.329
G1 F1200 X18.133 Y35.67 E71.65084
G0 F3600 X17.568 Y35.67
G1 F1200 X22.227 Y40.329 E71.97956
G0 F3600 X21.661 Y40.329
G1 F1200 X17.002 Y35.67 E72.30827
G0 F3600 X16.436 Y35.67
G1 F1200 X21.095 Y40.329 E72.63699
G0 F3600 X20.53 Y40.329
G1 F1200 X15.871 Y35.67 E72.96571
G0 F3600 X15.305 Y35.67
G1 F1200 X19.964 Y40.329 E73.29443
G0 F3600 X19.398 Y40.329
G1 F1200 X14.739 Y35.67 E73.62314
G0 F3600 X14.173 Y35.67
G1 F1200 X18.833 Y40.329 E73.9519
G0 F3600 X18.267 Y40.329
G1 F1200 X14.17 Y36.232 E74.24096
G0 F3600 X14.17 Y36.797
G1 F1200 X17.701 Y40.329 E74.49013
G0 F3600 X17.136 Y40.329
G1 F1200 X14.17 Y37.363 E74.6994
G0 F3600 X14.17 Y37.929
G1 F1200 X16.57 Y40.329 E74.86873
G0 F3600 X16.004 Y40.329
G1 F1200 X14.17 Y38.494 E74.99816
G0 F3600 X14.17 Y39.06
G1 F1200 X15.438 Y40.329 E75.08766
G0 F3600 X14.873 Y40.329
G1 F1200 X14.17 Y39.626 E75.13726
G0 F3600 X14.17 Y40.191
G1 F1200 X14.307 Y40.329 E75.14697
G1 F1500 E68.64697
G0 F3600 X68.803 Y40.83
G0 X71.197 Y40.83
G0 X76.33 Y40.83
G0 X76.4 Y40.9
;TYPE:WALL-INNER
G1 F1500 E75.14697
G1 F1200 X71.177 Y40.9 E75.40754
G1 X71.177 Y35.1 E75.6969
G1 X76.4 Y35.1 E75.95748
G1 X76.4 Y40.9 E76.24684
G0 F3600 X76.8 Y41.3
;TYPE:WALL-OUTER
G1 F1200 X70.777 Y41.3 E76.54733
G1 X70.777 Y34.7 E76.87661
G1 X76.8 Y34.7 E77.1771
G1 X76.8 Y41.3 E77.50637
G0 F3600 X76.6 Y41.3
G0 X76.33 Y40.83
G0 X76.01 Y40.51
;TYPE:SKIN
G1 F1200 X71.567 Y40.51 E77.72803
G1 X71.567 Y35.49 E77.97848
G1 X76.01 Y35.49 E78.20015
G1 X76.01 Y40.51 E78.45059
G0 F3600 X72.008 Y40.329
G1 F1200 X71.746 Y40.068 E78.46904
G0 F3600 X71.746 Y39.502
G1 F1200 X72.573 Y40.329 E78.52739
G0 F3600 X73.139 Y40.329
G1 F1200 X71.746 Y38.936 E78.62568
G0 F3600 X71.746 Y38.371
G1 F1200 X73.705 Y40.329 E78.76386
G0 F3600 X74.27 Y40.329
G1 F1200 X71.746 Y37.805 E78.94194
G0 F3600 X71.746 Y37.239
G1 F1200 X74.836 Y40.329 E79.15996
G0 F3600 X75.402 Y40.329
G1 F1200 X71.746 Y36.674 E79.41787
G0 F3600 X71.746 Y36.108
G1 F1200 X75.829 Y40.191 E79.70595
G0 F3600 X75.829 Y39.625
G1 F1200 X71.873 Y35.67 E79.98503
G0 F3600 X72.439 Y35.67
G1 F1200 X75.829 Y39.059 E80.22418
G0 F3600 X75.829 Y38.494
G1 F1200 X73.005 Y35.67 E80.42343
G0 F3600 X73.57 Y35.67
G1 F1200 X75.829 Y37.928 E80.58278
G0 F3600 X75.829 Y37.362
G1 F1200 X74.136 Y35.67 E80.70219
G0 F3600 X74.702 Y35.67
G1 F1200 X75.829 Y36.797 E80.78171
G0 F3600 X75.829 Y36.231
G1 F1200 X75.267 Y35.67 E80.82133
G1 F1500 E74.32133
;MESH:Gas Base.stl
G0 F3600 X71.191 Y40.886
G0 X71.191 Y42.165
G0 X68.809 Y45.835
G0 X68.809 Y47.114
G0 X68.753 Y52.83
G0 X68.823 Y52.9
;TYPE:WALL-INNER
G1 F1500 E80.82133
G1 F1200 X13.6 Y52.9 E83.57641
G1 X13.6 Y47.1 E83.86578
G1 X68.823 Y47.1 E86.62086
G1 X68.823 Y52.9 E86.91023
G0 F3600 X69.223 Y53.3
;TYPE:WALL-OUTER
G1 F1200 X13.2 Y53.3 E89.70523
G1 X13.2 Y46.7 E90.0345
G1 X69.223 Y46.7 E92.8295
G1 X69.223 Y53.3 E93.15877
G0 F3600 X69.023 Y53.3
G0 X68.753 Y52.83
G0 X68.433 Y52.51
;TYPE:SKIN
G1 F1200 X13.99 Y52.51 E95.87495
G1 X13.99 Y47.49 E96.1254
G1 X68.433 Y47.49 E98.84157
G1 X68.433 Y52.51 E99.09202
G0 F3600 X68.252 Y47.888
G1 F1200 X68.034 Y47.669 E99.10743
G0 F3600 X67.468 Y47.669
G1 F1200 X68.252 Y48.453 E99.16275
G0 F3600 X68.252 Y49.019
G1 F1200 X66.902 Y47.669 E99.258
G0 F3600 X66.337 Y47.669
G1 F1200 X68.252 Y49.585 E99.39315
G0 F3600 X68.252 Y50.15
G1 F1200 X65.771 Y47.669 E99.5682
G0 F3600 X65.205 Y47.669
G1 F1200 X68.252 Y50.716 E99.78318
G0 F3600 X68.252 Y51.282
G1 F1200 X64.64 Y47.669 E100.03806
G0 F3600 X64.074 Y47.669
G1 F1200 X68.252 Y51.847 E100.33284
G0 F3600 X68.168 Y52.329
G1 F1200 X63.508 Y47.669 E100.66163
G0 F3600 X62.943 Y47.669
G1 F1200 X67.602 Y52.329 E100.99038
G0 F3600 X67.037 Y52.329
G1 F1200 X62.377 Y47.669 E101.31917
G0 F3600 X61.811 Y47.669
G1 F1200 X66.471 Y52.329 E101.64796
G0 F3600 X65.905 Y52.329
G1 F1200 X61.246 Y47.669 E101.97671
G0 F3600 X60.68 Y47.669
G1 F1200 X65.34 Y52.329 E102.3055
G0 F3600 X64.774 Y52.329
G1 F1200 X60.114 Y47.669 E102.63429
G0 F3600 X59.548 Y47.669
G1 F1200 X64.208 Y52.329 E102.96307
G0 F3600 X63.643 Y52.329
G1 F1200 X58.983 Y47.669 E103.29186
G0 F3600 X58.417 Y47.669
G1 F1200 X63.077 Y52.329 E103.62065
G0 F3600 X62.511 Y52.329
G1 F1200 X57.851 Y47.669 E103.94944
G0 F3600 X57.286 Y47.669
G1 F1200 X61.946 Y52.329 E104.27823
G0 F3600 X61.38 Y52.329
G1 F1200 X56.72 Y47.669 E104.60702
G0 F3600 X56.154 Y47.669
G1 F1200 X60.814 Y52.329 E104.9358
G0 F3600 X60.249 Y52.329
G1 F1200 X55.589 Y47.669 E105.26459
G0 F3600 X55.023 Y47.669
G1 F1200 X59.683 Y52.329 E105.59338
G0 F3600 X59.117 Y52.329
G1 F1200 X54.457 Y47.669 E105.92217
G0 F3600 X53.892 Y47.669
G1 F1200 X58.551 Y52.329 E106.25092
G0 F3600 X57.986 Y52.329
G1 F1200 X53.326 Y47.669 E106.57971
G0 F3600 X52.76 Y47.669
G1 F1200 X57.42 Y52.329 E106.9085
G0 F3600 X56.854 Y52.329
G1 F1200 X52.195 Y47.669 E107.23725
G0 F3600 X51.629 Y47.669
G1 F1200 X56.289 Y52.329 E107.56604
G0 F3600 X55.723 Y52.329
G1 F1200 X51.063 Y47.669 E107.89483
G0 F3600 X50.498 Y47.669
G1 F1200 X55.157 Y52.329 E108.22358
G0 F3600 X54.592 Y52.329
G1 F1200 X49.932 Y47.669 E108.55237
