;FLAVOR:Marlin
;TIME:15298
;Filament used: 12.1073m
;Layer height: 0.2
;Generated with Cura_SteamEngine 3.6.0
M104 S200
M105
M109 S200
M82 ;absolute extrusion mode
G28 ;Home
G1 Z15.0 F6000 ;Move the platform down 15mm
;Prime the extruder
G92 E0
G1 F200 E3
G92 E0
G92 E0
G1 F1500 E-6.5
;LAYER_COUNT:388
;LAYER:0
M107
G0 F3600 X17.97 Y19.325 Z0.3
;TYPE:SKIRT
G1 F1500 E0
G1 F1200 X18.374 Y18.972 E0.02677
G1 X18.826 Y18.683 E0.05353
G1 X19.316 Y18.464 E0.08031
G1 X19.833 Y18.321 E0.10707
G1 X20.533 Y18.252 E0.14216
G1 X28.471 Y18.249 E0.53819
G1 X28.994 Y18.287 E0.56435
G1 X32.711 Y18.832 E0.75178
G1 X38.14 Y19.373 E1.02397
G1 X43.596 Y19.607 E1.29642
G1 X49.056 Y19.532 E1.56885
G1 X54.476 Y19.15 E1.83993
G1 X61.055 Y18.28 E2.17101
G1 X61.527 Y18.249 E2.19461
G1 X69.461 Y18.248 E2.59044
G1 X69.995 Y18.288 E2.61715
G1 X70.518 Y18.407 E2.64391
G1 X71.018 Y18.602 E2.67069
G1 X71.483 Y18.869 E2.69744
G1 X72.007 Y19.302 E2.73135
G1 X72.239 Y19.534 E2.74772
G1 X72.614 Y19.976 E2.77664
G1 X76.884 Y25.905 E3.14117
G1 X80.337 Y30.102 E3.41231
G1 X84.061 Y34.141 E3.6864
G1 X85.7 Y35.793 E3.8025
G1 X86.048 Y36.201 E3.82925
G1 X86.332 Y36.656 E3.85601
G1 X86.545 Y37.148 E3.88276
G1 X86.683 Y37.666 E3.90951
G1 X86.744 Y38.323 E3.94242
G1 X86.752 Y44.643 E4.25773
G1 X86.913 Y51.982 E4.62396
G1 X86.914 Y52.064 E4.62805
G1 X86.909 Y58.838 E4.96601
G1 X86.869 Y59.372 E4.99273
G1 X86.749 Y59.895 E5.0195
G1 X86.554 Y60.395 E5.04627
G1 X86.286 Y60.859 E5.073
G1 X85.866 Y61.369 E5.10597
G1 X85.639 Y61.598 E5.12205
G1 X85.234 Y61.95 E5.14882
G1 X84.781 Y62.238 E5.1756
G1 X84.351 Y62.433 E5.19916
G1 X81.631 Y63.458 E5.34418
G1 X76.586 Y65.612 E5.61785
G1 X71.698 Y68.033 E5.88999
G1 X66.967 Y70.721 E6.16146
G1 X61.641 Y74.184 E6.4784
G1 X61.171 Y74.442 E6.50515
G1 X60.668 Y74.627 E6.53189
G1 X60.143 Y74.736 E6.55864
G1 X59.679 Y74.766 E6.58184
G1 X53.2 Y74.766 E6.90508
G1 X53.033 Y74.762 E6.91341
G1 X46.536 Y74.46 E7.2379
G1 X41.054 Y74.539 E7.51142
G1 X37.188 Y74.765 E7.70463
G1 X36.975 Y74.771 E7.71526
G1 X30.645 Y74.766 E8.03107
G1 X30.11 Y74.726 E8.05783
G1 X29.588 Y74.606 E8.08455
G1 X29.088 Y74.411 E8.11133
G1 X28.63 Y74.147 E8.1377
G1 X26.294 Y72.566 E8.27843
G1 X21.623 Y69.691 E8.55207
G1 X16.83 Y67.1 E8.8239
G1 X11.854 Y64.765 E9.09812
G1 X9.392 Y63.733 E9.23131
G1 X9.372 Y63.727 E9.23235
G1 X5.854 Y62.341 E9.42099
G1 X5.371 Y62.108 E9.44775
G1 X4.929 Y61.806 E9.47445
G1 X4.596 Y61.504 E9.49688
G1 X4.444 Y61.348 E9.50775
G1 X4.099 Y60.937 E9.53452
G1 X3.819 Y60.48 E9.56126
G1 X3.611 Y59.986 E9.588
G1 X3.478 Y59.466 E9.61478
G1 X3.422 Y58.839 E9.64618
G1 X3.414 Y49.749 E10.09969
G1 X3.248 Y44.769 E10.34828
G1 X3.246 Y44.643 E10.35457
G1 X3.256 Y38.325 E10.66977
G1 X3.297 Y37.791 E10.69649
G1 X3.417 Y37.268 E10.72326
G1 X3.613 Y36.769 E10.75001
G1 X3.881 Y36.304 E10.77679
G1 X4.298 Y35.798 E10.8095
G1 X6.104 Y33.975 E10.93752
G1 X9.824 Y29.922 E11.21199
G1 X13.27 Y25.714 E11.48334
G1 X17.623 Y19.733 E11.85239
G1 X17.97 Y19.325 E11.87911
G0 F3600 X18.276 Y19.585
G1 F1200 X18.661 Y19.257 E11.90435
G1 X19.093 Y18.995 E11.92955
G1 X19.561 Y18.804 E11.95477
G1 X20.053 Y18.688 E11.97999
G1 X20.533 Y18.652 E12.00401
G1 X28.471 Y18.649 E12.40003
G1 X28.936 Y18.683 E12.4233
G1 X32.658 Y19.229 E12.61097
G1 X38.118 Y19.773 E12.88472
G1 X43.584 Y20.007 E13.15767
G1 X49.072 Y19.932 E13.4315
G1 X54.523 Y19.548 E13.70412
G1 X61.107 Y18.677 E14.03546
G1 X61.527 Y18.649 E14.05646
G1 X69.461 Y18.648 E14.45229
G1 X69.965 Y18.688 E14.47751
G1 X70.456 Y18.807 E14.50272
G1 X70.923 Y19.001 E14.52795
G1 X71.353 Y19.267 E14.55317
G1 X71.724 Y19.585 E14.57755
G1 X71.956 Y19.817 E14.59392
G1 X72.29 Y20.21 E14.61965
G1 X76.57 Y26.153 E14.98504
G1 X80.033 Y30.363 E15.257
G1 X83.779 Y34.425 E15.53268
G1 X85.416 Y36.075 E15.64863
G1 X85.743 Y36.461 E15.67387
G1 X86.004 Y36.893 E15.69905
G1 X86.195 Y37.362 E15.72432
G1 X86.309 Y37.854 E15.74951
G1 X86.344 Y38.324 E15.77303
G1 X86.352 Y44.644 E16.08833
G1 X86.513 Y51.991 E16.45497
G1 X86.514 Y52.063 E16.45856
G1 X86.509 Y58.837 E16.79651
G1 X86.469 Y59.341 E16.82174
G1 X86.35 Y59.833 E16.84699
G1 X86.154 Y60.299 E16.87221
G1 X85.888 Y60.729 E16.89744
G1 X85.582 Y61.088 E16.92097
G1 X85.355 Y61.317 E16.93706
G1 X84.971 Y61.647 E16.96232
G1 X84.541 Y61.912 E16.98752
G1 X84.21 Y62.059 E17.00559
G1 X81.473 Y63.09 E17.1515
G1 X76.416 Y65.249 E17.42583
G1 X71.516 Y67.677 E17.69866
G1 X66.762 Y70.378 E17.97144
G1 X61.423 Y73.849 E18.28915
G1 X60.979 Y74.09 E18.31435
G1 X60.502 Y74.258 E18.33958
G1 X60.005 Y74.349 E18.36479
G1 X59.679 Y74.366 E18.38108
G1 X53.2 Y74.366 E18.70432
G1 X53.052 Y74.363 E18.7117
G1 X46.532 Y74.06 E19.03734
G1 X41.048 Y74.139 E19.31096
G1 X37.165 Y74.366 E19.50502
G1 X36.975 Y74.371 E19.5145
G1 X30.645 Y74.366 E19.83031
G1 X30.142 Y74.326 E19.85548
G1 X29.65 Y74.206 E19.88074
G1 X29.184 Y74.011 E19.90595
G1 X28.854 Y73.816 E19.92507
G1 X26.506 Y72.227 E20.06652
G1 X21.816 Y69.339 E20.34131
G1 X17.019 Y66.747 E20.61333
G1 X12.018 Y64.4 E20.88894
G1 X9.535 Y63.359 E21.02327
G1 X9.519 Y63.355 E21.02409
G1 X6.001 Y61.969 E21.21273
G1 X5.547 Y61.747 E21.23795
G1 X5.133 Y61.457 E21.26316
G1 X4.882 Y61.225 E21.28022
G1 X4.73 Y61.069 E21.29108
G1 X4.407 Y60.68 E21.31631
G1 X4.149 Y60.245 E21.34154
G1 X3.963 Y59.775 E21.36676
G1 X3.853 Y59.282 E21.39196
G1 X3.822 Y58.839 E21.41411
G1 X3.814 Y49.735 E21.86831
G1 X3.648 Y44.756 E22.11686
G1 X3.646 Y44.644 E22.12244
G1 X3.656 Y38.326 E22.43765
G1 X3.697 Y37.822 E22.46288
G1 X3.816 Y37.331 E22.48808
G1 X4.012 Y36.865 E22.51331
G1 X4.278 Y36.435 E22.53853
G1 X4.582 Y36.079 E22.56189
G1 X6.413 Y34.23 E22.69171
G1 X10.122 Y30.191 E22.96529
G1 X13.594 Y25.949 E23.23877
G1 X17.947 Y19.969 E23.60779
G1 X18.276 Y19.585 E23.63302
G0 F3600 X20.616 Y22.038
;TYPE:SUPPORT
G1 F1200 X28.384 Y22.038 E24.02056
G1 X28.5 Y22.154 E24.02875
G1 X28.5 Y32.434 E24.54162
G1 X28.362 Y32.492 E24.54909
G1 X28.018 Y32.388 E24.56702
G1 X20.982 Y32.388 E24.91805
G1 X20.638 Y32.492 E24.93597
G1 X20.5 Y32.434 E24.94344
G1 X20.5 Y22.154 E25.45631
G1 X20.616 Y22.038 E25.4645
G0 F3600 X21.336 Y22.198
G1 F1200 X21.336 Y32.228 E25.9649
G0 F3600 X20.659 Y32.004
G1 F1200 X28.339 Y32.004 E26.34805
G0 F3600 X26.67 Y32.228
G1 F1200 X26.67 Y22.198 E26.84845
G0 F3600 X28.34 Y24.003
G1 F1200 X20.66 Y24.003 E27.23161
G0 F3600 X20.66 Y26.67
G1 F1200 X28.34 Y26.67 E27.61477
G0 F3600 X28.34 Y29.337
G1 F1200 X20.66 Y29.337 E27.99792
G0 F3600 X24.003 Y32.228
G1 F1200 X24.003 Y22.198 E28.49832
G0 F3600 X9.026 Y38.288
G1 F1200 X8.992 Y38.322 E28.50072
G1 X8.992 Y45.254 E28.84656
G1 X9.026 Y45.288 E28.84896
G1 X7.162 Y45.288 E28.94195
G1 X7.046 Y45.172 E28.95014
G1 X7.046 Y38.404 E29.28779
G1 X7.162 Y38.288 E29.29598
G1 X9.026 Y38.288 E29.38897
G0 F3600 X8.001 Y38.448
G1 F1200 X8.001 Y45.128 E29.72224
G0 F3600 X7.205 Y42.672
G1 F1200 X8.831 Y42.672 E29.80336
G0 F3600 X8.831 Y40.005
G1 F1200 X7.205 Y40.005 E29.88448
G0 F3600 X7.328 Y51.874
G1 F1200 X9.191 Y51.874 E29.97743
G1 X9.157 Y51.908 E29.97983
G1 X9.157 Y58.84 E30.32567
G1 X9.191 Y58.874 E30.32807
G1 X7.328 Y58.874 E30.42101
G1 X7.212 Y58.758 E30.4292
G1 X7.212 Y51.99 E30.76685
G1 X7.328 Y51.874 E30.77504
G0 F3600 X8.001 Y52.034
G1 F1200 X8.001 Y58.714 E31.1083
G0 F3600 X7.371 Y58.674
G1 F1200 X8.996 Y58.674 E31.18938
G0 F3600 X8.996 Y56.007
G1 F1200 X7.371 Y56.007 E31.27045
G0 F3600 X7.371 Y53.34
G1 F1200 X8.996 Y53.34 E31.35152
G1 F1500 E24.85152
G0 F3600 X9.575 Y59.031
G0 X10.079 Y59.535
G0 X30.611 Y59.957
G1 F1500 E31.35152
G1 F1200 X37.165 Y59.956 E31.6785
G1 X37.165 Y70.86 E32.2225
G1 X37.049 Y70.976 E32.23069
G1 X30.727 Y70.976 E32.54609
G1 X30.611 Y70.86 E32.55428
G1 X30.611 Y59.957 E33.09823
G0 F3600 X30.77 Y61.341
G1 F1200 X37.004 Y61.341 E33.40925
G0 F3600 X34.671 Y60.116
G1 F1200 X34.671 Y70.816 E33.94307
G0 F3600 X32.004 Y70.816
G1 F1200 X32.004 Y60.116 E34.4769
G0 F3600 X30.77 Y64.008
G1 F1200 X37.004 Y64.008 E34.78791
G0 F3600 X37.004 Y66.675
G1 F1200 X30.77 Y66.675 E35.09893
G0 F3600 X30.77 Y69.342
G1 F1200 X37.004 Y69.342 E35.40994
G0 F3600 X53.165 Y70.86
G1 F1200 X53.165 Y59.957 E35.95389
G1 X59.719 Y59.956 E36.28088
G1 X59.719 Y70.86 E36.82488
G1 X59.603 Y70.976 E36.83306
G1 X53.281 Y70.976 E37.14847
G1 X53.165 Y70.86 E37.15665
G0 F3600 X53.34 Y70.816
G1 F1200 X53.34 Y60.116 E37.69048
G0 F3600 X53.324 Y61.341
G1 F1200 X59.558 Y61.341 E38.00149
G0 F3600 X58.674 Y60.116
G1 F1200 X58.674 Y70.816 E38.53532
G0 F3600 X59.558 Y69.342
G1 F1200 X53.324 Y69.342 E38.84633
G0 F3600 X53.324 Y66.675
G1 F1200 X59.558 Y66.675 E39.15735
G0 F3600 X59.558 Y64.008
G1 F1200 X53.324 Y64.008 E39.46837
G0 F3600 X56.007 Y60.116
G1 F1200 X56.007 Y70.816 E40.00219
G1 F1500 E33.50219
G0 F3600 X80.251 Y59.535
G0 X81.139 Y58.874
G1 F1500 E40.00219
G1 F1200 X81.173 Y58.84 E40.00459
G1 X81.173 Y51.908 E40.35043
G1 X81.139 Y51.874 E40.35283
G1 X83.003 Y51.874 E40.44582
G1 X83.119 Y51.99 E40.45401
G1 X83.119 Y58.758 E40.79166
G1 X83.003 Y58.874 E40.79985
G1 X81.139 Y58.874 E40.89284
G0 F3600 X81.333 Y58.674
G1 F1200 X82.959 Y58.674 E40.97396
G0 F3600 X82.677 Y58.714
G1 F1200 X82.677 Y52.034 E41.30723
G0 F3600 X82.959 Y53.34
G1 F1200 X81.333 Y53.34 E41.38835
G0 F3600 X81.333 Y56.007
G1 F1200 X82.959 Y56.007 E41.46947
G0 F3600 X82.838 Y45.288
G1 F1200 X80.974 Y45.288 E41.56247
G1 X81.008 Y45.254 E41.56487
G1 X81.008 Y38.322 E41.91071
G1 X80.974 Y38.288 E41.91311
G1 X82.838 Y38.288 E42.0061
G1 X82.954 Y38.404 E42.01429
G1 X82.954 Y45.172 E42.35194
G1 X82.838 Y45.288 E42.36013
G0 F3600 X82.677 Y45.128
G1 F1200 X82.677 Y38.448 E42.69339
G0 F3600 X82.794 Y40.005
G1 F1200 X81.168 Y40.005 E42.77452
G0 F3600 X81.168 Y42.672
G1 F1200 X82.794 Y42.672 E42.85564
G1 F1500 E36.35564
G0 F3600 X80.59 Y38.131
G0 X80.137 Y37.678
G0 X69.5 Y32.434
G1 F1500 E42.85564
G1 F1200 X69.362 Y32.492 E42.86311
G1 X69.018 Y32.388 E42.88103
G1 X61.982 Y32.388 E43.23206
G1 X61.638 Y32.492 E43.24999
G1 X61.5 Y32.434 E43.25746
G1 X61.5 Y22.154 E43.77033
G1 X61.616 Y22.038 E43.77852
G1 X69.384 Y22.038 E44.16606
G1 X69.5 Y22.154 E44.17425
G1 X69.5 Y32.434 E44.68712
G0 F3600 X69.34 Y32.004
G1 F1200 X61.66 Y32.004 E45.07027
G0 F3600 X64.008 Y32.228
G1 F1200 X64.008 Y22.198 E45.57067
G0 F3600 X66.675 Y22.198
G1 F1200 X66.675 Y32.228 E46.07107
G0 F3600 X69.34 Y29.337
G1 F1200 X61.66 Y29.337 E46.45423
G0 F3600 X61.66 Y26.67
G1 F1200 X69.34 Y26.67 E46.83739
G0 F3600 X69.34 Y24.003
G1 F1200 X61.66 Y24.003 E47.22054
G1 F1500 E40.72054
;MESH:Gas Base.stl(1)
G0 F3600 X62.114 Y37.473
G0 X62.114 Y38.752
G0 X68.83 Y38.958
G0 X68.9 Y38.888
;TYPE:WALL-INNER
G1 F1500 E47.22054
G1 F1200 X79.329 Y38.888 E47.74085
G1 X79.329 Y44.688 E48.03021
G1 X10.671 Y44.688 E51.45557
G1 X10.671 Y38.888 E51.74494
G1 X21.1 Y38.888 E52.26524
G1 X21.1 Y38.738 E52.27272
G1 X27.9 Y38.738 E52.61198
G1 X27.9 Y38.888 E52.61946
G1 X62.1 Y38.888 E54.32571
G1 X62.1 Y38.738 E54.33319
G1 X68.9 Y38.738 E54.67244
G1 X68.9 Y38.888 E54.67993
G0 F3600 X69.3 Y38.488
;TYPE:WALL-OUTER
G1 F1200 X79.729 Y38.488 E55.20023
G1 X79.729 Y45.088 E55.52951
G1 X10.271 Y45.088 E58.99478
G1 X10.271 Y38.488 E59.32406
G1 X20.7 Y38.488 E59.84436
G1 X20.7 Y38.338 E59.85184
G1 X28.3 Y38.338 E60.23101
G1 X28.3 Y38.488 E60.23849
G1 X61.7 Y38.488 E61.90483
G1 X61.7 Y38.338 E61.91231
G1 X69.3 Y38.338 E62.29147
G1 X69.3 Y38.488 E62.29896
G0 F3600 X69.5 Y38.488
G0 X69.5 Y38.988
G0 X68.51 Y39.128
;TYPE:SKIN
G1 F1200 X68.51 Y39.278 E62.30644
G1 X78.939 Y39.278 E62.82675
G1 X78.939 Y44.298 E63.0772
G1 X11.061 Y44.298 E66.46364
G1 X11.061 Y39.278 E66.71409
G1 X21.49 Y39.278 E67.2344
G1 X21.49 Y39.128 E67.24188
G1 X27.51 Y39.128 E67.54222
G1 X27.51 Y39.278 E67.5497
G1 X62.49 Y39.278 E69.29486
G1 X62.49 Y39.128 E69.30235
G1 X68.51 Y39.128 E69.60268
G0 F3600 X78.758 Y39.726
G1 F1200 X78.49 Y39.457 E69.62163
G0 F3600 X77.924 Y39.457
G1 F1200 X78.758 Y40.292 E69.68051
G0 F3600 X78.758 Y40.858
G1 F1200 X77.358 Y39.457 E69.77932
G0 F3600 X76.793 Y39.457
G1 F1200 X78.758 Y41.423 E69.918
G0 F3600 X78.758 Y41.989
G1 F1200 X76.227 Y39.457 E70.09661
G0 F3600 X75.661 Y39.457
G1 F1200 X78.758 Y42.555 E70.31515
G0 F3600 X78.758 Y43.12
G1 F1200 X75.096 Y39.457 E70.57356
G0 F3600 X74.53 Y39.457
G1 F1200 X78.758 Y43.686 E70.87191
G0 F3600 X78.624 Y44.117
G1 F1200 X73.964 Y39.457 E71.20069
G0 F3600 X73.399 Y39.457
G1 F1200 X78.058 Y44.117 E71.52945
G0 F3600 X77.493 Y44.117
G1 F1200 X72.833 Y39.457 E71.85823
G0 F3600 X72.267 Y39.457
G1 F1200 X76.927 Y44.117 E72.18702
G0 F3600 X76.361 Y44.117
G1 F1200 X71.702 Y39.457 E72.51578
G0 F3600 X71.136 Y39.457
G1 F1200 X75.796 Y44.117 E72.84456
G0 F3600 X75.23 Y44.117
G1 F1200 X70.57 Y39.457 E73.17335
G0 F3600 X70.004 Y39.457
G1 F1200 X74.664 Y44.117 E73.50214
G0 F3600 X74.099 Y44.117
G1 F1200 X69.439 Y39.457 E73.83093
G0 F3600 X68.873 Y39.457
G1 F1200 X73.533 Y44.117 E74.15972
G0 F3600 X72.967 Y44.117
G1 F1200 X68.158 Y39.308 E74.49902
G0 F3600 X67.592 Y39.308
G1 F1200 X72.402 Y44.117 E74.83835
G0 F3600 X71.836 Y44.117
G1 F1200 X67.026 Y39.308 E75.17769
G0 F3600 X66.46 Y39.308
G1 F1200 X71.27 Y44.117 E75.51703
G0 F3600 X70.705 Y44.117
G1 F1200 X65.895 Y39.308 E75.85636
G0 F3600 X65.329 Y39.308
G1 F1200 X70.139 Y44.117 E76.1957
G0 F3600 X69.573 Y44.117
G1 F1200 X64.763 Y39.308 E76.53503
G0 F3600 X64.198 Y39.308
G1 F1200 X69.007 Y44.117 E76.87434
G0 F3600 X68.442 Y44.117
G1 F1200 X63.632 Y39.308 E77.21367
G0 F3600 X63.066 Y39.308
G1 F1200 X67.876 Y44.117 E77.55301
G0 F3600 X67.31 Y44.117
G1 F1200 X62.651 Y39.457 E77.88176
G0 F3600 X62.085 Y39.457
G1 F1200 X66.745 Y44.117 E78.21055
G0 F3600 X66.179 Y44.117
G1 F1200 X61.519 Y39.457 E78.53934
G0 F3600 X60.954 Y39.457
G1 F1200 X65.613 Y44.117 E78.86809
G0 F3600 X65.048 Y44.117
G1 F1200 X60.388 Y39.457 E79.19688
G0 F3600 X59.822 Y39.457
G1 F1200 X64.482 Y44.117 E79.52567
G0 F3600 X63.916 Y44.117
G1 F1200 X59.256 Y39.457 E79.85445
G0 F3600 X58.691 Y39.457
G1 F1200 X63.351 Y44.117 E80.18324
G0 F3600 X62.785 Y44.117
G1 F1200 X58.125 Y39.457 E80.51203
G0 F3600 X57.559 Y39.457
G1 F1200 X62.219 Y44.117 E80.84082
G0 F3600 X61.654 Y44.117
G1 F1200 X56.994 Y39.457 E81.16961
G0 F3600 X56.428 Y39.457
G1 F1200 X61.088 Y44.117 E81.4984
G0 F3600 X60.522 Y44.117
G1 F1200 X55.862 Y39.457 E81.82718
G0 F3600 X55.297 Y39.457
G1 F1200 X59.956 Y44.117 E82.15594
G0 F3600 X59.391 Y44.117
G1 F1200 X54.731 Y39.457 E82.48472
G0 F3600 X54.165 Y39.457
G1 F1200 X58.825 Y44.117 E82.81351
G0 F3600 X58.259 Y44.117
G1 F1200 X53.6 Y39.457 E83.14227
G0 F3600 X53.034 Y39.457
G1 F1200 X57.694 Y44.117 E83.47105
G0 F3600 X57.128 Y44.117
G1 F1200 X52.468 Y39.457 E83.79984
G0 F3600 X51.903 Y39.457
G1 F1200 X56.562 Y44.117 E84.1286
G0 F3600 X55.997 Y44.117
G1 F1200 X51.337 Y39.457 E84.45738
G0 F3600 X50.771 Y39.457
G1 F1200 X55.431 Y44.117 E84.78617
G0 F3600 X54.865 Y44.117
G1 F1200 X50.205 Y39.457 E85.11496
G0 F3600 X49.64 Y39.457
G1 F1200 X54.3 Y44.117 E85.44375
G0 F3600 X53.734 Y44.117
G1 F1200 X49.074 Y39.457 E85.77254
G0 F3600 X48.508 Y39.457
G1 F1200 X53.168 Y44.117 E86.10132
G0 F3600 X52.603 Y44.117
G1 F1200 X47.943 Y39.457 E86.43011
G0 F3600 X47.377 Y39.457
G1 F1200 X52.037 Y44.117 E86.7589
G0 F3600 X51.471 Y44.117
G1 F1200 X46.811 Y39.457 E87.08769
G0 F3600 X46.246 Y39.457
G1 F1200 X50.906 Y44.117 E87.41648
G0 F3600 X50.34 Y44.117
G1 F1200 X45.68 Y39.457 E87.74527
G0 F3600 X45.114 Y39.457
G1 F1200 X49.774 Y44.117 E88.07405
G0 F3600 X49.208 Y44.117
G1 F1200 X44.549 Y39.457 E88.40281
G0 F3600 X43.983 Y39.457
G1 F1200 X48.643 Y44.117 E88.73159
G0 F3600 X48.077 Y44.117
G1 F1200 X43.417 Y39.457 E89.06038
G0 F3600 X42.852 Y39.457
G1 F1200 X47.511 Y44.117 E89.38914
G0 F3600 X46.946 Y44.117
