;FLAVOR:Marlin
;TIME:959
;Filament used: 0.741879m
;Layer height: 0.2
;Generated with Cura_SteamEngine 3.6.0
M104 S200
M105
M109 S200
M82 ;absolute extrusion mode
G28 ;Home
G1 Z15.0 F6000 ;Move the platform down 15mm
;Prime the extruder
G92 E0
G1 F200 E3
G92 E0
G92 E0
G1 F1500 E-6.5
;LAYER_COUNT:50
;LAYER:0
M107
G0 F3600 X30.371 Y36.737 Z0.3
;TYPE:SKIRT
G1 F1500 E0
G1 F1200 X30.979 Y36.233 E0.0394
G1 X31.634 Y35.793 E0.07877
G1 X32.331 Y35.421 E0.11818
G1 X33.062 Y35.122 E0.15759
G1 X33.819 Y34.898 E0.19697
G1 X34.001 Y34.864 E0.20621
G1 X34.353 Y34.305 E0.23917
G1 X34.839 Y33.683 E0.27855
G1 X35.386 Y33.113 E0.31796
G1 X35.987 Y32.601 E0.35735
G1 X36.637 Y32.153 E0.39673
G1 X37.33 Y31.773 E0.43616
G1 X38.282 Y31.386 E0.48743
G1 X39.402 Y31.015 E0.5463
G1 X40.164 Y30.805 E0.58573
G1 X40.942 Y30.673 E0.6251
G1 X41.73 Y30.62 E0.6645
G1 X42.519 Y30.647 E0.70389
G1 X43.302 Y30.754 E0.74332
G1 X44.069 Y30.94 E0.78269
G1 X44.814 Y31.202 E0.82209
G1 X45 Y31.29 E0.83236
G1 X45.617 Y31.043 E0.86551
G1 X46.376 Y30.825 E0.90491
G1 X47.153 Y30.686 E0.94429
G1 X47.941 Y30.626 E0.98372
G1 X48.73 Y30.645 E1.02309
G1 X49.513 Y30.745 E1.06247
G1 X50.52 Y30.995 E1.11424
G1 X51.641 Y31.354 E1.17296
G1 X52.38 Y31.632 E1.21236
G1 X53.087 Y31.984 E1.25176
G1 X53.755 Y32.406 E1.29118
G1 X54.376 Y32.893 E1.33055
G1 X54.945 Y33.44 E1.36993
G1 X55.457 Y34.042 E1.40936
G1 X55.904 Y34.693 E1.44875
G1 X55.996 Y34.861 E1.45831
G1 X56.106 Y34.881 E1.46389
G1 X56.865 Y35.098 E1.50327
G1 X57.599 Y35.391 E1.5427
G1 X58.299 Y35.756 E1.58209
G1 X58.958 Y36.191 E1.62148
G1 X59.571 Y36.689 E1.66088
G1 X60.129 Y37.247 E1.70025
G1 X60.637 Y37.87 E1.74036
G1 X61.333 Y38.82 E1.79911
G1 X61.767 Y39.48 E1.83852
G1 X62.132 Y40.18 E1.87791
G1 X62.424 Y40.914 E1.91732
G1 X62.641 Y41.673 E1.9567
G1 X62.779 Y42.451 E1.99612
G1 X62.839 Y43.238 E2.0355
G1 X62.818 Y44.028 E2.07493
G1 X62.794 Y44.217 E2.08443
G1 X63.223 Y44.733 E2.11791
G1 X63.664 Y45.388 E2.1573
G1 X64.037 Y46.084 E2.1967
G1 X64.337 Y46.815 E2.23612
G1 X64.561 Y47.572 E2.27551
G1 X64.708 Y48.348 E2.31491
G1 X64.781 Y49.377 E2.36638
G1 X64.786 Y50.554 E2.4251
G1 X64.749 Y51.343 E2.4645
G1 X64.633 Y52.124 E2.5039
G1 X64.439 Y52.889 E2.54327
G1 X64.168 Y53.631 E2.58268
G1 X63.823 Y54.341 E2.62206
G1 X63.408 Y55.013 E2.66147
G1 X62.928 Y55.64 E2.70086
G1 X62.791 Y55.785 E2.71081
G1 X62.825 Y56.081 E2.72568
G1 X62.834 Y56.871 E2.76509
G1 X62.763 Y57.658 E2.80452
G1 X62.613 Y58.433 E2.8439
G1 X62.385 Y59.189 E2.8833
G1 X62.082 Y59.918 E2.92268
G1 X61.707 Y60.613 E2.96208
G1 X61.366 Y61.129 E2.99294
G1 X60.677 Y62.084 E3.05169
G1 X60.183 Y62.7 E3.09108
G1 X59.629 Y63.263 E3.13049
G1 X59.021 Y63.767 E3.16989
G1 X58.366 Y64.207 E3.20926
G1 X57.669 Y64.579 E3.24867
G1 X56.938 Y64.878 E3.28807
G1 X56.181 Y65.102 E3.32746
G1 X55.999 Y65.136 E3.3367
G1 X55.647 Y65.695 E3.36965
G1 X55.161 Y66.317 E3.40904
G1 X54.614 Y66.887 E3.44845
G1 X54.013 Y67.399 E3.48784
G1 X53.363 Y67.847 E3.52722
G1 X52.67 Y68.227 E3.56665
G1 X51.718 Y68.614 E3.61792
G1 X50.598 Y68.985 E3.67679
G1 X49.836 Y69.195 E3.71622
G1 X49.058 Y69.327 E3.75559
G1 X48.27 Y69.38 E3.79499
G1 X47.481 Y69.353 E3.83438
G1 X46.698 Y69.246 E3.87381
G1 X45.931 Y69.06 E3.91318
G1 X45.186 Y68.798 E3.95258
G1 X45 Y68.71 E3.96285
G1 X44.383 Y68.957 E3.996
G1 X43.624 Y69.175 E4.0354
G1 X42.847 Y69.314 E4.07478
G1 X42.059 Y69.374 E4.11421
G1 X41.27 Y69.355 E4.15358
G1 X40.487 Y69.255 E4.19296
G1 X39.48 Y69.005 E4.24473
G1 X38.359 Y68.646 E4.30345
G1 X37.62 Y68.368 E4.34284
G1 X36.913 Y68.016 E4.38225
G1 X36.245 Y67.594 E4.42167
G1 X35.624 Y67.107 E4.46104
G1 X35.055 Y66.56 E4.50042
G1 X34.543 Y65.958 E4.53984
G1 X34.096 Y65.307 E4.57924
G1 X34.004 Y65.139 E4.5888
G1 X33.894 Y65.119 E4.59438
G1 X33.135 Y64.902 E4.63376
G1 X32.401 Y64.609 E4.67319
G1 X31.701 Y64.244 E4.71257
G1 X31.042 Y63.809 E4.75197
G1 X30.429 Y63.311 E4.79137
G1 X29.871 Y62.753 E4.83074
G1 X29.363 Y62.13 E4.87085
G1 X28.667 Y61.18 E4.9296
G1 X28.233 Y60.52 E4.96901
G1 X27.868 Y59.82 E5.0084
G1 X27.576 Y59.086 E5.04781
G1 X27.359 Y58.327 E5.08719
G1 X27.221 Y57.549 E5.12661
G1 X27.161 Y56.762 E5.16599
G1 X27.182 Y55.972 E5.20542
G1 X27.206 Y55.783 E5.21492
G1 X26.777 Y55.267 E5.2484
G1 X26.336 Y54.612 E5.28779
G1 X25.963 Y53.916 E5.32719
G1 X25.663 Y53.185 E5.36661
G1 X25.439 Y52.428 E5.406
G1 X25.292 Y51.652 E5.4454
G1 X25.219 Y50.623 E5.49687
G1 X25.214 Y49.446 E5.55559
G1 X25.251 Y48.657 E5.59499
G1 X25.367 Y47.876 E5.63438
G1 X25.561 Y47.111 E5.67376
G1 X25.832 Y46.369 E5.71317
G1 X26.177 Y45.659 E5.75255
G1 X26.592 Y44.987 E5.79196
G1 X27.072 Y44.36 E5.83135
G1 X27.2 Y44.224 E5.84067
G1 X27.199 Y44.218 E5.84097
G1 X27.16 Y43.43 E5.88033
G1 X27.201 Y42.641 E5.91975
G1 X27.321 Y41.86 E5.95917
G1 X27.519 Y41.096 E5.99855
G1 X27.794 Y40.356 E6.03793
G1 X28.142 Y39.647 E6.07734
G1 X28.634 Y38.871 E6.12318
G1 X29.323 Y37.916 E6.18193
G1 X29.817 Y37.3 E6.22132
G1 X30.371 Y36.737 E6.26073
G0 F3600 X30.671 Y37.005
G1 F1200 X31.266 Y36.517 E6.29912
G1 X31.909 Y36.095 E6.33749
G1 X32.592 Y35.741 E6.37587
G1 X33.308 Y35.46 E6.41424
G1 X34.049 Y35.255 E6.4526
G1 X34.259 Y35.22 E6.46322
G1 X34.311 Y35.117 E6.46898
G1 X34.727 Y34.47 E6.50735
G1 X35.208 Y33.87 E6.54572
G1 X35.748 Y33.323 E6.58407
G1 X36.343 Y32.835 E6.62246
G1 X36.985 Y32.411 E6.66084
G1 X37.667 Y32.056 E6.6992
G1 X38.408 Y31.765 E6.73892
G1 X39.528 Y31.394 E6.79778
G1 X40.27 Y31.191 E6.83616
G1 X41.029 Y31.065 E6.87455
G1 X41.796 Y31.019 E6.91288
G1 X42.565 Y31.053 E6.95128
G1 X43.326 Y31.167 E6.98967
G1 X44.07 Y31.358 E7.028
G1 X44.791 Y31.627 E7.06639
G1 X44.998 Y31.729 E7.0779
G1 X45.105 Y31.674 E7.0839
G1 X45.822 Y31.396 E7.12227
G1 X46.564 Y31.193 E7.16065
G1 X47.323 Y31.068 E7.19903
G1 X48.091 Y31.023 E7.23741
G1 X48.859 Y31.058 E7.27576
G1 X49.62 Y31.172 E7.31415
G1 X50.398 Y31.376 E7.35428
G1 X51.519 Y31.735 E7.413
G1 X52.238 Y32.007 E7.45136
G1 X52.925 Y32.352 E7.48971
G1 X53.573 Y32.767 E7.5281
G1 X54.174 Y33.247 E7.56647
G1 X54.722 Y33.787 E7.60486
G1 X55.211 Y34.381 E7.64324
G1 X55.636 Y35.022 E7.68161
G1 X55.741 Y35.223 E7.69293
G1 X56.074 Y35.285 E7.70983
G1 X56.811 Y35.503 E7.74817
G1 X57.522 Y35.797 E7.78655
G1 X58.199 Y36.163 E7.82495
G1 X58.834 Y36.597 E7.86332
G1 X59.42 Y37.095 E7.90169
G1 X59.952 Y37.651 E7.94008
G1 X60.314 Y38.107 E7.96913
G1 X61.01 Y39.057 E8.02788
G1 X61.432 Y39.7 E8.06625
G1 X61.785 Y40.383 E8.10461
G1 X62.065 Y41.1 E8.14301
G1 X62.268 Y41.842 E8.18139
G1 X62.394 Y42.6 E8.21973
G1 X62.441 Y43.368 E8.25811
G1 X62.407 Y44.136 E8.29647
G1 X62.375 Y44.352 E8.30736
G1 X62.465 Y44.441 E8.31368
G1 X62.951 Y45.037 E8.35204
G1 X63.372 Y45.68 E8.39039
G1 X63.725 Y46.364 E8.42879
G1 X64.005 Y47.08 E8.46714
G1 X64.209 Y47.822 E8.50554
G1 X64.334 Y48.581 E8.54391
G1 X64.381 Y49.379 E8.58379
G1 X64.386 Y50.556 E8.64252
G1 X64.349 Y51.324 E8.68088
G1 X64.233 Y52.084 E8.71923
G1 X64.038 Y52.828 E8.7576
G1 X63.768 Y53.548 E8.79597
G1 X63.424 Y54.236 E8.83434
G1 X63.01 Y54.885 E8.87275
G1 X62.531 Y55.487 E8.91113
G1 X62.374 Y55.647 E8.92231
G1 X62.43 Y56.186 E8.94935
G1 X62.43 Y56.955 E8.98771
G1 X62.349 Y57.72 E9.02609
G1 X62.19 Y58.473 E9.06449
G1 X61.953 Y59.204 E9.10283
G1 X61.642 Y59.908 E9.14123
G1 X61.259 Y60.575 E9.1796
G1 X61.041 Y60.895 E9.19892
G1 X60.352 Y61.85 E9.25767
G1 X59.87 Y62.449 E9.29602
G1 X59.329 Y62.995 E9.33437
G1 X58.734 Y63.483 E9.37276
G1 X58.091 Y63.905 E9.41113
G1 X57.408 Y64.259 E9.44951
G1 X56.692 Y64.54 E9.48789
G1 X55.951 Y64.745 E9.52625
G1 X55.741 Y64.78 E9.53687
G1 X55.689 Y64.883 E9.54262
G1 X55.273 Y65.53 E9.581
G1 X54.792 Y66.13 E9.61936
G1 X54.252 Y66.677 E9.65771
G1 X53.657 Y67.165 E9.6961
G1 X53.015 Y67.589 E9.73449
G1 X52.333 Y67.944 E9.77285
G1 X51.592 Y68.235 E9.81256
G1 X50.472 Y68.606 E9.87143
G1 X49.73 Y68.809 E9.90981
G1 X48.971 Y68.935 E9.94819
G1 X48.204 Y68.981 E9.98653
G1 X47.435 Y68.947 E10.02493
G1 X46.674 Y68.833 E10.06332
G1 X45.93 Y68.642 E10.10164
G1 X45.209 Y68.373 E10.14003
G1 X45.002 Y68.271 E10.15155
G1 X44.895 Y68.326 E10.15755
G1 X44.178 Y68.604 E10.19591
G1 X43.436 Y68.807 E10.23429
G1 X42.677 Y68.932 E10.27267
G1 X41.909 Y68.977 E10.31105
G1 X41.141 Y68.942 E10.34941
G1 X40.38 Y68.828 E10.3878
G1 X39.602 Y68.624 E10.42792
G1 X38.481 Y68.265 E10.48665
G1 X37.762 Y67.993 E10.525
G1 X37.075 Y67.648 E10.56335
G1 X36.427 Y67.233 E10.60174
G1 X35.826 Y66.753 E10.64012
G1 X35.278 Y66.213 E10.6785
G1 X34.789 Y65.619 E10.71689
G1 X34.364 Y64.978 E10.75526
G1 X34.259 Y64.777 E10.76657
G1 X33.926 Y64.715 E10.78347
G1 X33.189 Y64.497 E10.82181
G1 X32.478 Y64.203 E10.8602
G1 X31.801 Y63.837 E10.89859
G1 X31.166 Y63.403 E10.93697
G1 X30.58 Y62.905 E10.97533
G1 X30.048 Y62.349 E11.01372
G1 X29.686 Y61.893 E11.04277
G1 X28.99 Y60.943 E11.10153
G1 X28.568 Y60.3 E11.1399
G1 X28.215 Y59.617 E11.17825
G1 X27.935 Y58.9 E11.21666
G1 X27.732 Y58.158 E11.25504
G1 X27.606 Y57.4 E11.29337
G1 X27.559 Y56.632 E11.33176
G1 X27.593 Y55.864 E11.37011
G1 X27.625 Y55.648 E11.38101
G1 X27.535 Y55.559 E11.38732
G1 X27.049 Y54.963 E11.42569
G1 X26.628 Y54.32 E11.46403
G1 X26.275 Y53.636 E11.50243
G1 X25.995 Y52.92 E11.54079
G1 X25.791 Y52.178 E11.57918
G1 X25.666 Y51.419 E11.61756
G1 X25.619 Y50.621 E11.65744
G1 X25.614 Y49.444 E11.71616
G1 X25.651 Y48.676 E11.75452
G1 X25.767 Y47.916 E11.79288
G1 X25.962 Y47.172 E11.83125
G1 X26.232 Y46.452 E11.86961
G1 X26.576 Y45.764 E11.90799
G1 X26.99 Y45.115 E11.94639
G1 X27.469 Y44.513 E11.98477
G1 X27.626 Y44.353 E11.99596
G1 X27.592 Y44.118 E12.0078
G1 X27.56 Y43.35 E12.04615
G1 X27.609 Y42.582 E12.08455
G1 X27.738 Y41.824 E12.12291
G1 X27.944 Y41.083 E12.16128
G1 X28.226 Y40.367 E12.19967
G1 X28.581 Y39.685 E12.23803
G1 X28.959 Y39.105 E12.27257
G1 X29.648 Y38.15 E12.33132
G1 X30.13 Y37.551 E12.36968
G1 X30.671 Y37.005 E12.40802
G0 F3600 X30.971 Y37.273
G1 F1200 X31.553 Y36.803 E12.44535
G1 X32.182 Y36.399 E12.48264
G1 X32.851 Y36.064 E12.51997
G1 X33.552 Y35.802 E12.5573
G1 X34.276 Y35.616 E12.5946
G1 X34.526 Y35.58 E12.6072
G1 X34.689 Y35.262 E12.62503
G1 X35.1 Y34.637 E12.66235
G1 X35.575 Y34.06 E12.69963
G1 X36.109 Y33.536 E12.73696
G1 X36.697 Y33.072 E12.77433
G1 X37.33 Y32.674 E12.81163
G1 X38.002 Y32.346 E12.84894
G1 X38.534 Y32.145 E12.87731
G1 X39.654 Y31.774 E12.93617
G1 X40.376 Y31.577 E12.97351
G1 X41.114 Y31.458 E13.01081
G1 X41.861 Y31.419 E13.04812
G1 X42.608 Y31.46 E13.08545
G1 X43.346 Y31.58 E13.12275
G1 X44.068 Y31.778 E13.1601
G1 X44.764 Y32.052 E13.19742
G1 X45.003 Y32.177 E13.21088
G1 X45.326 Y32.014 E13.22893
G1 X46.026 Y31.75 E13.26625
G1 X46.75 Y31.563 E13.30356
G1 X47.49 Y31.453 E13.34088
G1 X48.237 Y31.424 E13.37818
G1 X48.984 Y31.474 E13.41553
G1 X49.72 Y31.603 E13.45281
G1 X50.276 Y31.757 E13.48159
G1 X51.397 Y32.116 E13.54031
G1 X52.096 Y32.381 E13.57761
G1 X52.763 Y32.72 E13.61494
G1 X53.39 Y33.129 E13.65229
G1 X53.97 Y33.601 E13.68959
G1 X54.496 Y34.133 E13.72692
G1 X54.962 Y34.718 E13.76423
G1 X55.363 Y35.35 E13.80157
G1 X55.476 Y35.579 E13.81431
G1 X56.04 Y35.688 E13.84297
G1 X56.755 Y35.908 E13.88029
G1 X57.443 Y36.203 E13.91764
G1 X58.095 Y36.569 E13.95494
G1 X58.704 Y37.003 E13.99225
G1 X59.264 Y37.5 E14.02961
G1 X59.992 Y38.343 E14.08518
G1 X60.688 Y39.293 E14.14393
G1 X61.097 Y39.919 E14.18124
G1 X61.437 Y40.586 E14.21859
G1 X61.704 Y41.284 E14.25587
G1 X61.895 Y42.008 E14.29323
G1 X62.008 Y42.747 E14.33053
G1 X62.041 Y43.494 E14.36783
G1 X61.994 Y44.241 E14.40517
G1 X61.951 Y44.494 E14.41798
G1 X62.209 Y44.755 E14.43628
G1 X62.676 Y45.34 E14.47363
G1 X63.078 Y45.971 E14.51096
G1 X63.41 Y46.641 E14.54826
G1 X63.669 Y47.343 E14.58559
G1 X63.851 Y48.069 E14.62293
G1 X63.955 Y48.809 E14.66021
G1 X63.981 Y49.38 E14.68873
G1 X63.986 Y50.557 E14.74745
G1 X63.949 Y51.304 E14.78477
G1 X63.833 Y52.043 E14.82209
G1 X63.638 Y52.766 E14.85945
G1 X63.368 Y53.463 E14.89674
G1 X63.024 Y54.128 E14.93409
G1 X62.612 Y54.752 E14.9714
G1 X62.136 Y55.329 E15.00871
G1 X61.957 Y55.503 E15.02117
G1 X61.965 Y55.544 E15.02325
G1 X62.035 Y56.288 E15.06053
G1 X62.024 Y57.036 E15.09786
G1 X61.934 Y57.779 E15.1352
G1 X61.765 Y58.508 E15.17253
G1 X61.519 Y59.214 E15.20983
G1 X61.2 Y59.891 E15.24717
G1 X60.717 Y60.661 E15.29251
G1 X60.028 Y61.616 E15.35127
G1 X59.558 Y62.198 E15.38859
G1 X59.029 Y62.727 E15.42591
G1 X58.447 Y63.197 E15.46323
G1 X57.818 Y63.601 E15.50053
G1 X57.149 Y63.936 E15.53786
G1 X56.448 Y64.198 E15.57519
G1 X55.724 Y64.384 E15.61249
G1 X55.474 Y64.42 E15.62509
G1 X55.311 Y64.738 E15.64291
G1 X54.9 Y65.363 E15.68023
G1 X54.425 Y65.94 E15.71752
G1 X53.891 Y66.464 E15.75485
G1 X53.303 Y66.928 E15.79221
G1 X52.67 Y67.326 E15.82952
G1 X51.998 Y67.654 E15.86683
G1 X51.466 Y67.855 E15.8952
G1 X50.346 Y68.226 E15.95406
G1 X49.624 Y68.423 E15.9914
G1 X48.886 Y68.542 E16.02869
G1 X48.139 Y68.581 E16.06601
G1 X47.392 Y68.54 E16.10334
G1 X46.654 Y68.42 E16.14064
G1 X45.932 Y68.222 E16.17799
G1 X45.236 Y67.948 E16.21531
G1 X44.997 Y67.823 E16.22876
G1 X44.674 Y67.986 E16.24681
G1 X43.974 Y68.25 E16.28414
G1 X43.25 Y68.437 E16.32144
G1 X42.51 Y68.547 E16.35877
G1 X41.763 Y68.576 E16.39606
G1 X41.016 Y68.526 E16.43342
G1 X40.28 Y68.397 E16.47069
G1 X39.724 Y68.243 E16.49948
G1 X38.603 Y67.884 E16.5582
G1 X37.904 Y67.619 E16.5955
G1 X37.237 Y67.28 E16.63283
G1 X36.61 Y66.871 E16.67017
G1 X36.03 Y66.399 E16.70748
G1 X35.504 Y65.867 E16.74481
G1 X35.038 Y65.282 E16.78212
G1 X34.637 Y64.65 E16.81946
G1 X34.524 Y64.421 E16.8322
G1 X33.96 Y64.312 E16.86086
G1 X33.245 Y64.092 E16.89818
G1 X32.557 Y63.797 E16.93553
G1 X31.905 Y63.431 E16.97283
G1 X31.296 Y62.997 E17.01014
G1 X30.736 Y62.5 E17.0475
G1 X30.008 Y61.657 E17.10306
G1 X29.312 Y60.707 E17.16182
G1 X28.903 Y60.081 E17.19913
G1 X28.563 Y59.414 E17.23648
G1 X28.296 Y58.716 E17.27376
G1 X28.105 Y57.992 E17.31112
G1 X27.992 Y57.253 E17.34841
G1 X27.959 Y56.506 E17.38572
G1 X28.006 Y55.759 E17.42306
G1 X28.049 Y55.506 E17.43586
G1 X27.791 Y55.245 E17.45417
G1 X27.324 Y54.66 E17.49152
G1 X26.922 Y54.029 E17.52884
G1 X26.59 Y53.359 E17.56615
G1 X26.331 Y52.657 E17.60348
G1 X26.149 Y51.931 E17.64082
G1 X26.045 Y51.191 E17.6781
G1 X26.019 Y50.62 E17.70662
G1 X26.014 Y49.443 E17.76534
G1 X26.051 Y48.696 E17.80265
G1 X26.167 Y47.957 E17.83997
G1 X26.362 Y47.234 E17.87733
G1 X26.632 Y46.537 E17.91463
G1 X26.976 Y45.872 E17.95198
G1 X27.388 Y45.248 E17.98928
G1 X27.864 Y44.671 E18.0266
G1 X28.049 Y44.49 E18.03951
G1 X27.984 Y44.02 E18.06319
G1 X27.962 Y43.272 E18.10052
G1 X28.019 Y42.527 E18.1378
G1 X28.156 Y41.791 E18.17515
G1 X28.37 Y41.074 E18.21248
G1 X28.66 Y40.385 E18.24977
G1 X29.021 Y39.73 E18.28708
G1 X29.283 Y39.339 E18.31057
G1 X29.972 Y38.384 E18.36932
G1 X30.442 Y37.802 E18.40664
G1 X30.971 Y37.273 E18.44396
G0 F3600 X31.269 Y37.542
G1 F1200 X31.838 Y37.091 E18.48019
G1 X32.454 Y36.705 E18.51645
G1 X33.108 Y36.389 E18.55269
G1 X33.792 Y36.147 E18.58889
G1 X34.5 Y35.981 E18.62517
G1 X34.785 Y35.947 E18.63949
G1 X35.067 Y35.409 E18.66979
G1 X35.472 Y34.807 E18.70599
G1 X35.942 Y34.253 E18.74224
G1 X36.469 Y33.754 E18.77845
G1 X37.049 Y33.315 E18.81474
G1 X37.673 Y32.943 E18.85098
G1 X38.66 Y32.525 E18.90445
G1 X39.78 Y32.154 E18.96332
G1 X40.481 Y31.964 E18.99955
G1 X41.198 Y31.852 E19.03576
G1 X41.924 Y31.819 E19.07202
G1 X42.649 Y31.867 E19.10826
G1 X43.364 Y31.994 E19.14449
G1 X44.061 Y32.199 E19.18074
G1 X44.731 Y32.479 E19.21697
G1 X44.996 Y32.626 E19.23209
G1 X45.544 Y32.355 E19.26259
G1 X46.227 Y32.107 E19.29884
G1 X46.933 Y31.935 E19.33509
G1 X47.653 Y31.841 E19.37132
G1 X48.379 Y31.827 E19.40755
G1 X49.102 Y31.893 E19.44377
G1 X50.154 Y32.137 E19.49764
G1 X51.275 Y32.496 E19.55637
