;FLAVOR:Marlin
;TIME:1392
;Filament used: 0.97807m
;Layer height: 0.2
;Generated with Cura_SteamEngine 3.6.0
M104 S200
M105
M109 S200
M82 ;absolute extrusion mode
G28 ;Home
G1 Z15.0 F6000 ;Move the platform down 15mm
;Prime the extruder
G92 E0
G1 F200 E3
G92 E0
G92 E0
G1 F1500 E-6.5
;LAYER_COUNT:125
;LAYER:0
M107
G0 F3600 X34.469 Y29.91 Z0.3
;TYPE:SKIRT
G1 F1500 E0
G1 F1200 X34.866 Y29.507 E0.02822
G1 X35.316 Y29.164 E0.05645
G1 X35.809 Y28.889 E0.08462
G1 X36.337 Y28.685 E0.11286
G1 X36.888 Y28.558 E0.14107
G1 X37.514 Y28.509 E0.17239
G1 X48.754 Y28.519 E0.73316
G1 X49.539 Y28.598 E0.77252
G1 X50.607 Y28.813 E0.82687
G1 X51.152 Y28.963 E0.85507
G1 X51.613 Y29.159 E0.88006
G1 X52.527 Y29.618 E0.93109
G1 X53.013 Y29.907 E0.9593
G1 X53.385 Y30.2 E0.98293
G1 X54.16 Y30.887 E1.03459
G1 X54.556 Y31.291 E1.06282
G1 X54.74 Y31.525 E1.07767
G1 X55.142 Y32.077 E1.11174
G1 X55.53 Y32.732 E1.14972
G1 X55.901 Y33.522 E1.19326
G1 X56.148 Y34.202 E1.22936
G1 X56.282 Y34.71 E1.25557
G1 X56.409 Y35.535 E1.29721
G1 X56.486 Y37.116 E1.37618
G1 X56.491 Y37.316 E1.38616
G1 X56.458 Y64.007 E2.71778
G1 X56.417 Y64.571 E2.746
G1 X56.365 Y64.861 E2.76069
G1 X56.215 Y65.543 E2.79553
G1 X55.975 Y66.281 E2.83425
G1 X55.621 Y67.094 E2.87849
G1 X55.36 Y67.595 E2.90667
G1 X55.065 Y68.012 E2.93216
G1 X54.301 Y68.957 E2.99278
G1 X53.915 Y69.37 E3.02099
G1 X53.568 Y69.658 E3.04348
G1 X52.877 Y70.169 E3.08636
G1 X52.264 Y70.542 E3.12216
G1 X51.772 Y70.784 E3.14951
G1 X51.249 Y70.997 E3.17769
G1 X50.875 Y71.1 E3.19704
G1 X49.598 Y71.384 E3.26231
G1 X49.039 Y71.467 E3.2905
G1 X48.733 Y71.479 E3.30578
G1 X37.512 Y71.488 E3.8656
G1 X36.948 Y71.449 E3.8938
G1 X36.396 Y71.33 E3.92198
G1 X35.865 Y71.135 E3.9502
G1 X35.367 Y70.866 E3.97844
G1 X34.912 Y70.531 E4.00662
G1 X34.509 Y70.134 E4.03485
G1 X34.166 Y69.685 E4.06304
G1 X33.89 Y69.192 E4.09122
G1 X33.686 Y68.665 E4.11942
G1 X33.558 Y68.114 E4.14764
G1 X33.509 Y67.488 E4.17897
G1 X33.51 Y32.509 E5.92408
G1 X33.55 Y31.945 E5.95228
G1 X33.669 Y31.392 E5.9805
G1 X33.865 Y30.862 E6.0087
G1 X34.133 Y30.365 E6.03687
G1 X34.469 Y29.91 E6.06509
G0 F3600 X34.865 Y30.067
G1 F1200 X35.257 Y29.701 E6.09184
G1 X35.699 Y29.397 E6.11861
G1 X36.182 Y29.163 E6.14538
G1 X36.693 Y29.003 E6.1721
G1 X37.223 Y28.92 E6.19886
G1 X37.513 Y28.909 E6.21334
G1 X48.753 Y28.919 E6.77411
G1 X49.46 Y28.99 E6.80956
G1 X50.528 Y29.205 E6.86391
G1 X51.045 Y29.35 E6.8907
G1 X51.434 Y29.517 E6.91182
G1 X52.348 Y29.976 E6.96284
G1 X52.808 Y30.252 E6.98961
G1 X53.12 Y30.499 E7.00946
G1 X53.895 Y31.186 E7.06113
G1 X54.417 Y31.761 E7.09987
G1 X54.819 Y32.313 E7.13394
G1 X55.168 Y32.902 E7.1681
G1 X55.539 Y33.692 E7.21164
G1 X55.761 Y34.304 E7.24412
G1 X55.895 Y34.812 E7.27033
G1 X56.01 Y35.555 E7.30784
G1 X56.087 Y37.136 E7.38681
G1 X56.091 Y37.315 E7.39574
G1 X56.058 Y64.006 E8.72736
G1 X55.974 Y64.775 E8.76596
G1 X55.824 Y65.457 E8.8008
G1 X55.609 Y66.121 E8.83562
G1 X55.255 Y66.934 E8.87986
G1 X55.005 Y67.409 E8.90664
G1 X54.754 Y67.76 E8.92816
G1 X53.99 Y68.705 E8.98879
G1 X53.622 Y69.096 E9.01558
G1 X53.331 Y69.337 E9.03443
G1 X52.64 Y69.848 E9.07731
G1 X52.088 Y70.183 E9.10952
G1 X51.596 Y70.425 E9.13687
G1 X51.098 Y70.626 E9.16367
G1 X50.789 Y70.709 E9.17963
G1 X49.512 Y70.993 E9.2449
G1 X48.733 Y71.079 E9.284
G1 X37.512 Y71.088 E9.84381
G1 X36.977 Y71.048 E9.87058
G1 X36.454 Y70.93 E9.89733
G1 X35.954 Y70.735 E9.9241
G1 X35.489 Y70.468 E9.95085
G1 X35.069 Y70.135 E9.9776
G1 X34.703 Y69.743 E10.00435
G1 X34.399 Y69.301 E10.03112
G1 X34.164 Y68.819 E10.05787
G1 X34.004 Y68.307 E10.08463
G1 X33.921 Y67.778 E10.11135
G1 X33.909 Y67.488 E10.12583
G1 X33.91 Y32.509 E11.87094
G1 X33.95 Y31.974 E11.8977
G1 X34.069 Y31.451 E11.92446
G1 X34.264 Y30.952 E11.95119
G1 X34.532 Y30.487 E11.97797
G1 X34.865 Y30.067 E12.00471
G0 F3600 X34.929 Y30.617
G1 F1200 X35.26 Y30.234 E12.02996
G1 X35.646 Y29.908 E12.05517
G1 X36.079 Y29.647 E12.08039
G1 X36.547 Y29.457 E12.10559
G1 X37.04 Y29.344 E12.13082
G1 X37.513 Y29.309 E12.15449
G1 X48.753 Y29.319 E12.71525
G1 X49.382 Y29.382 E12.74679
G1 X50.45 Y29.597 E12.80114
G1 X50.936 Y29.736 E12.82636
G1 X51.254 Y29.874 E12.84366
G1 X52.168 Y30.333 E12.89468
G1 X52.601 Y30.595 E12.91993
G1 X52.855 Y30.798 E12.93615
G1 X53.63 Y31.485 E12.98782
G1 X54.094 Y31.996 E13.02226
G1 X54.496 Y32.548 E13.05633
G1 X54.805 Y33.072 E13.08668
G1 X55.176 Y33.862 E13.13022
G1 X55.374 Y34.406 E13.1591
G1 X55.508 Y34.914 E13.18531
G1 X55.61 Y35.574 E13.21863
G1 X55.687 Y37.155 E13.2976
G1 X55.691 Y37.315 E13.30559
G1 X55.658 Y64.006 E14.63721
G1 X55.583 Y64.689 E14.67149
G1 X55.433 Y65.371 E14.70632
G1 X55.242 Y65.962 E14.73731
G1 X54.888 Y66.775 E14.78155
G1 X54.65 Y67.221 E14.80677
G1 X54.442 Y67.509 E14.8245
G1 X53.678 Y68.454 E14.88512
G1 X53.331 Y68.821 E14.91032
G1 X53.093 Y69.015 E14.92564
G1 X52.402 Y69.526 E14.96852
G1 X51.911 Y69.824 E14.99717
G1 X51.419 Y70.066 E15.02453
G1 X50.95 Y70.253 E15.04971
G1 X50.702 Y70.319 E15.06252
G1 X49.425 Y70.603 E15.12778
G1 X48.733 Y70.679 E15.16252
G1 X37.512 Y70.688 E15.72233
G1 X37.008 Y70.648 E15.74756
G1 X36.516 Y70.53 E15.7728
G1 X36.049 Y70.336 E15.79803
G1 X35.619 Y70.07 E15.82325
G1 X35.236 Y69.74 E15.84848
G1 X34.91 Y69.354 E15.87368
G1 X34.648 Y68.922 E15.89889
G1 X34.458 Y68.453 E15.92414
G1 X34.344 Y67.961 E15.94933
G1 X34.309 Y67.488 E15.973
G1 X34.31 Y32.509 E17.7181
G1 X34.35 Y32.005 E17.74333
G1 X34.469 Y31.514 E17.76853
G1 X34.664 Y31.047 E17.79378
G1 X34.929 Y30.617 E17.81898
G1 F1500 E11.31898
;MESH:Pot holder.stl
G0 F3600 X36.835 Y33.114
G0 X38.114 Y33.114
G0 X43.164 Y39.241
G0 X43.259 Y39.211
;TYPE:WALL-INNER
G1 F1500 E17.81898
G1 F1200 X43.345 Y39.436 E17.831
G1 X43.449 Y39.648 E17.84278
G1 X43.576 Y39.85 E17.85468
G1 X43.723 Y40.038 E17.86659
G1 X43.885 Y40.208 E17.87831
G1 X44.068 Y40.365 E17.89033
G1 X44.265 Y40.499 E17.90222
G1 X44.471 Y40.614 E17.91399
G1 X44.693 Y40.707 E17.926
G1 X44.918 Y40.777 E17.93776
G1 X45.152 Y40.825 E17.94967
G1 X45.391 Y40.848 E17.96165
G1 X45.628 Y40.847 E17.97348
G1 X45.865 Y40.823 E17.98536
G1 X46.099 Y40.773 E17.9973
G1 X46.325 Y40.701 E18.00913
G1 X46.544 Y40.606 E18.02104
G1 X46.751 Y40.489 E18.0329
G1 X46.944 Y40.355 E18.04463
G1 X47.127 Y40.197 E18.05669
G1 X47.289 Y40.024 E18.06851
G1 X47.435 Y39.836 E18.08039
G1 X47.56 Y39.631 E18.09237
G1 X47.662 Y39.42 E18.10406
G1 X47.746 Y39.195 E18.11604
G1 X47.804 Y38.962 E18.12802
G1 X47.839 Y38.73 E18.13973
G1 X47.851 Y38.491 E18.15167
G1 X47.837 Y38.251 E18.16366
G1 X47.8 Y38.019 E18.17538
G1 X47.741 Y37.789 E18.18723
G1 X47.655 Y37.564 E18.19924
G1 X47.551 Y37.352 E18.21102
G1 X47.424 Y37.15 E18.22293
G1 X47.277 Y36.962 E18.23483
G1 X47.115 Y36.792 E18.24655
G1 X46.932 Y36.635 E18.25858
G1 X46.735 Y36.501 E18.27047
G1 X46.529 Y36.386 E18.28224
G1 X46.307 Y36.293 E18.29425
G1 X46.082 Y36.223 E18.306
G1 X45.848 Y36.175 E18.31792
G1 X45.609 Y36.152 E18.3299
G1 X45.372 Y36.153 E18.34172
G1 X45.135 Y36.177 E18.35361
G1 X44.901 Y36.227 E18.36554
G1 X44.675 Y36.299 E18.37738
G1 X44.456 Y36.394 E18.38929
G1 X44.249 Y36.511 E18.40115
G1 X44.056 Y36.645 E18.41287
G1 X43.873 Y36.803 E18.42493
G1 X43.711 Y36.976 E18.43676
G1 X43.565 Y37.164 E18.44863
G1 X43.44 Y37.369 E18.46061
G1 X43.338 Y37.58 E18.4723
G1 X43.254 Y37.805 E18.48429
G1 X43.196 Y38.038 E18.49627
G1 X43.161 Y38.27 E18.50797
G1 X43.149 Y38.509 E18.51991
G1 X43.163 Y38.749 E18.5319
G1 X43.2 Y38.981 E18.54363
G1 X43.259 Y39.211 E18.55547
G0 F3600 X43.164 Y39.241
G0 X43.122 Y38.267
G0 X43.302 Y37.565
G0 X43.681 Y36.951
G0 X43.99 Y36.684
G0 X48.732 Y33.209
G0 X48.738 Y33.11
G1 F1200 X48.95 Y33.131 E18.5661
G1 X49.176 Y33.169 E18.57753
G1 X49.392 Y33.22 E18.58861
G1 X49.593 Y33.28 E18.59907
G1 X49.802 Y33.359 E18.61022
G1 X50.017 Y33.459 E18.62205
G1 X50.203 Y33.558 E18.63256
G1 X50.4 Y33.682 E18.64417
G1 X50.563 Y33.799 E18.65418
G1 X50.76 Y33.962 E18.66694
G1 X50.899 Y34.093 E18.67647
G1 X51.065 Y34.271 E18.68861
G1 X51.205 Y34.442 E18.69964
G1 X51.334 Y34.623 E18.71073
G1 X51.443 Y34.799 E18.72106
G1 X51.555 Y35.01 E18.73297
G1 X51.642 Y35.201 E18.74344
G1 X51.724 Y35.42 E18.75511
G1 X51.784 Y35.622 E18.76562
G1 X51.837 Y35.852 E18.7774
G1 X51.873 Y36.071 E18.78847
G1 X51.891 Y36.27 E18.79844
G1 X51.9 Y36.515 E18.81067
G1 X51.9 Y63.479 E20.15591
G1 X51.891 Y63.732 E20.16854
G1 X51.872 Y63.933 E20.17861
G1 X51.835 Y64.158 E20.18999
G1 X51.781 Y64.392 E20.20197
G1 X51.726 Y64.576 E20.21155
G1 X51.645 Y64.792 E20.22306
G1 X51.547 Y65.006 E20.2348
G1 X51.443 Y65.203 E20.24592
G1 X51.324 Y65.393 E20.2571
G1 X51.196 Y65.571 E20.26804
G1 X51.064 Y65.732 E20.27843
G1 X50.895 Y65.911 E20.29071
G1 X50.749 Y66.049 E20.30073
G1 X50.563 Y66.202 E20.31275
G1 X50.393 Y66.324 E20.32319
G1 X50.208 Y66.439 E20.33406
G1 X49.992 Y66.553 E20.34624
G1 X49.79 Y66.646 E20.35733
G1 X49.599 Y66.718 E20.36752
G1 X49.388 Y66.782 E20.37852
G1 X49.158 Y66.835 E20.39029
G1 X48.94 Y66.871 E20.40132
G1 X48.732 Y66.891 E20.41174
G1 X48.479 Y66.9 E20.42437
G1 X38.1 Y66.9 E20.94218
G1 X38.1 Y33.1 E22.62847
G1 X48.487 Y33.1 E23.14668
G1 X48.738 Y33.11 E23.15921
G0 F3600 X48.732 Y33.209
G0 X47.784 Y39.206
G0 X43.122 Y61.267
G0 X43.164 Y62.241
G0 X43.259 Y62.211
G1 F1200 X43.345 Y62.436 E23.17123
G1 X43.449 Y62.648 E23.18301
G1 X43.576 Y62.85 E23.19492
G1 X43.723 Y63.038 E23.20682
G1 X43.885 Y63.208 E23.21854
G1 X44.068 Y63.365 E23.23057
G1 X44.265 Y63.499 E23.24245
G1 X44.471 Y63.614 E23.25422
G1 X44.693 Y63.707 E23.26623
G1 X44.918 Y63.777 E23.27799
G1 X45.152 Y63.825 E23.28991
G1 X45.391 Y63.848 E23.30188
G1 X45.628 Y63.847 E23.31371
G1 X45.865 Y63.823 E23.32559
G1 X46.099 Y63.773 E23.33753
G1 X46.325 Y63.701 E23.34936
G1 X46.544 Y63.606 E23.36127
G1 X46.751 Y63.489 E23.37314
G1 X46.944 Y63.355 E23.38486
G1 X47.127 Y63.197 E23.39692
G1 X47.289 Y63.024 E23.40875
G1 X47.435 Y62.836 E23.42062
G1 X47.56 Y62.631 E23.4326
G1 X47.662 Y62.42 E23.44429
G1 X47.746 Y62.195 E23.45627
G1 X47.804 Y61.962 E23.46825
G1 X47.839 Y61.73 E23.47996
G1 X47.851 Y61.491 E23.4919
G1 X47.837 Y61.251 E23.50389
G1 X47.8 Y61.019 E23.51561
G1 X47.741 Y60.789 E23.52746
G1 X47.655 Y60.564 E23.53948
G1 X47.551 Y60.352 E23.55126
G1 X47.424 Y60.15 E23.56316
G1 X47.277 Y59.962 E23.57507
G1 X47.115 Y59.792 E23.58678
G1 X46.932 Y59.635 E23.59881
G1 X46.735 Y59.501 E23.6107
G1 X46.529 Y59.386 E23.62247
G1 X46.307 Y59.293 E23.63448
G1 X46.082 Y59.223 E23.64623
G1 X45.848 Y59.175 E23.65815
G1 X45.609 Y59.152 E23.67013
G1 X45.372 Y59.153 E23.68195
G1 X45.135 Y59.177 E23.69384
G1 X44.901 Y59.227 E23.70578
G1 X44.675 Y59.299 E23.71761
G1 X44.456 Y59.394 E23.72952
G1 X44.249 Y59.511 E23.74138
G1 X44.056 Y59.645 E23.7531
G1 X43.873 Y59.803 E23.76517
G1 X43.711 Y59.976 E23.77699
G1 X43.565 Y60.164 E23.78887
G1 X43.44 Y60.369 E23.80085
G1 X43.338 Y60.58 E23.81254
G1 X43.254 Y60.805 E23.82452
G1 X43.196 Y61.038 E23.8365
G1 X43.161 Y61.27 E23.8482
G1 X43.149 Y61.509 E23.86014
G1 X43.163 Y61.749 E23.87214
G1 X43.2 Y61.981 E23.88386
G1 X43.259 Y62.211 E23.8957
G0 F3600 X43.641 Y62.09
;TYPE:WALL-OUTER
G1 F1200 X43.712 Y62.276 E23.90564
G1 X43.799 Y62.453 E23.91548
G1 X43.904 Y62.62 E23.92532
G1 X44.026 Y62.776 E23.9352
G1 X44.161 Y62.917 E23.94494
G1 X44.312 Y63.047 E23.95488
G1 X44.475 Y63.158 E23.96472
G1 X44.647 Y63.254 E23.97454
G1 X44.83 Y63.331 E23.98445
G1 X45.018 Y63.389 E23.99426
G1 X45.212 Y63.429 E24.00415
G1 X45.409 Y63.448 E24.01402
G1 X45.607 Y63.447 E24.0239
G1 X45.803 Y63.427 E24.03373
G1 X45.996 Y63.386 E24.04357
G1 X46.184 Y63.326 E24.05342
G1 X46.366 Y63.247 E24.06332
G1 X46.538 Y63.15 E24.07317
G1 X46.699 Y63.038 E24.08295
G1 X46.85 Y62.908 E24.09289
G1 X46.984 Y62.765 E24.10267
G1 X47.105 Y62.608 E24.11256
G1 X47.209 Y62.439 E24.12246
G1 X47.294 Y62.263 E24.13221
G1 X47.363 Y62.077 E24.14211
G1 X47.411 Y61.884 E24.15203
G1 X47.44 Y61.69 E24.16182
G1 X47.45 Y61.492 E24.17171
G1 X47.439 Y61.294 E24.1816
G1 X47.408 Y61.101 E24.19135
G1 X47.359 Y60.91 E24.20119
G1 X47.288 Y60.724 E24.21112
G1 X47.201 Y60.547 E24.22096
G1 X47.096 Y60.38 E24.2308
G1 X46.974 Y60.224 E24.24068
G1 X46.839 Y60.083 E24.25042
G1 X46.688 Y59.953 E24.26036
G1 X46.525 Y59.842 E24.2702
G1 X46.353 Y59.746 E24.28003
G1 X46.17 Y59.669 E24.28994
G1 X45.982 Y59.611 E24.29975
G1 X45.788 Y59.571 E24.30963
G1 X45.591 Y59.552 E24.31951
G1 X45.393 Y59.553 E24.32939
G1 X45.197 Y59.573 E24.33921
G1 X45.004 Y59.614 E24.34906
G1 X44.816 Y59.674 E24.3589
G1 X44.634 Y59.753 E24.3688
G1 X44.462 Y59.85 E24.37865
G1 X44.301 Y59.962 E24.38844
G1 X44.15 Y60.092 E24.39838
G1 X44.016 Y60.235 E24.40816
G1 X43.895 Y60.392 E24.41805
G1 X43.791 Y60.561 E24.42795
G1 X43.706 Y60.737 E24.4377
G1 X43.637 Y60.923 E24.44759
G1 X43.589 Y61.116 E24.45752
G1 X43.56 Y61.31 E24.4673
G1 X43.55 Y61.508 E24.47719
G1 X43.561 Y61.706 E24.48709
G1 X43.592 Y61.899 E24.49684
G1 X43.641 Y62.09 E24.50668
G0 F3600 X43.712 Y62.276
G0 X43.263 Y62.496
G0 X43.139 Y61.697
G0 X43.174 Y39.267
G0 X43.641 Y39.09
G1 F1200 X43.712 Y39.276 E24.51661
G1 X43.799 Y39.453 E24.52645
G1 X43.904 Y39.62 E24.53629
G1 X44.026 Y39.776 E24.54617
G1 X44.161 Y39.917 E24.55591
G1 X44.312 Y40.047 E24.56585
G1 X44.475 Y40.158 E24.57569
G1 X44.647 Y40.254 E24.58552
G1 X44.83 Y40.331 E24.59542
G1 X45.018 Y40.389 E24.60524
G1 X45.212 Y40.429 E24.61512
G1 X45.409 Y40.448 E24.62499
G1 X45.607 Y40.447 E24.63487
G1 X45.803 Y40.427 E24.6447
G1 X45.996 Y40.386 E24.65454
G1 X46.184 Y40.326 E24.66439
G1 X46.366 Y40.247 E24.67429
G1 X46.538 Y40.15 E24.68414
G1 X46.699 Y40.038 E24.69393
G1 X46.85 Y39.908 E24.70387
G1 X46.984 Y39.765 E24.71364
G1 X47.105 Y39.608 E24.72353
G1 X47.209 Y39.439 E24.73343
G1 X47.294 Y39.263 E24.74318
G1 X47.363 Y39.077 E24.75308
G1 X47.411 Y38.884 E24.763
G1 X47.44 Y38.69 E24.77279
G1 X47.45 Y38.492 E24.78268
G1 X47.439 Y38.294 E24.79257
G1 X47.408 Y38.101 E24.80233
G1 X47.359 Y37.91 E24.81216
G1 X47.288 Y37.724 E24.8221
G1 X47.201 Y37.547 E24.83194
G1 X47.096 Y37.38 E24.84178
G1 X46.974 Y37.224 E24.85166
G1 X46.839 Y37.083 E24.8614
G1 X46.688 Y36.953 E24.87134
G1 X46.525 Y36.842 E24.88118
G1 X46.353 Y36.746 E24.891
G1 X46.17 Y36.669 E24.90091
G1 X45.982 Y36.611 E24.91072
G1 X45.788 Y36.571 E24.92061
G1 X45.591 Y36.552 E24.93048
G1 X45.393 Y36.553 E24.94036
G1 X45.197 Y36.573 E24.95019
G1 X45.004 Y36.614 E24.96003
G1 X44.816 Y36.674 E24.96988
G1 X44.634 Y36.753 E24.97978
G1 X44.462 Y36.85 E24.98963
G1 X44.301 Y36.962 E24.99941
G1 X44.15 Y37.092 E25.00935
G1 X44.016 Y37.235 E25.01913
G1 X43.895 Y37.392 E25.02902
G1 X43.791 Y37.561 E25.03892
G1 X43.706 Y37.737 E25.04867
G1 X43.637 Y37.923 E25.05857
G1 X43.589 Y38.116 E25.06849
G1 X43.56 Y38.31 E25.07828
G1 X43.55 Y38.508 E25.08817
G1 X43.561 Y38.706 E25.09806
G1 X43.592 Y38.899 E25.10781
G1 X43.641 Y39.09 E25.11765
G0 F3600 X43.712 Y39.276
G0 X43.263 Y39.496
G0 X43.109 Y38.509
G0 X43.216 Y37.794
G0 X43.533 Y37.142
G0 X43.937 Y36.715
G0 X48.732 Y33.209
G0 X48.761 Y32.71
G1 F1200 X49.01 Y32.735 E25.13013
G1 X49.244 Y32.774 E25.14197
G1 X49.498 Y32.834 E25.15499
G1 X49.724 Y32.902 E25.16677
G1 X49.956 Y32.99 E25.17914
G1 X50.194 Y33.1 E25.19223
G1 X50.402 Y33.211 E25.20399
G1 X50.624 Y33.35 E25.21706
G1 X50.815 Y33.487 E25.22878
G1 X51.016 Y33.654 E25.24182
G1 X51.192 Y33.82 E25.25389
G1 X51.358 Y33.998 E25.26603
G1 X51.524 Y34.2 E25.27908
G1 X51.668 Y34.402 E25.29145
G1 X51.792 Y34.602 E25.30319
G1 X51.909 Y34.823 E25.31567
G1 X52.017 Y35.061 E25.32871
G1 X52.099 Y35.28 E25.34037
G1 X52.174 Y35.532 E25.35349
G1 X52.23 Y35.775 E25.36593
G1 X52.268 Y36.006 E25.37761
G1 X52.291 Y36.255 E25.39009
G1 X52.3 Y36.5 E25.40232
G1 X52.3 Y63.493 E26.74901
