;FLAVOR:Marlin
;TIME:18734
;Filament used: 15.4033m
;Layer height: 0.2
;Generated with Cura_SteamEngine 3.6.0
M104 S200
M105
M109 S200
M82 ;absolute extrusion mode
G28 ;Home
G1 Z15.0 F6000 ;Move the platform down 15mm
;Prime the extruder
G92 E0
G1 F200 E3
G92 E0
G92 E0
G1 F1500 E-6.5
;LAYER_COUNT:450
;LAYER:0
M107
G0 F3600 X14.581 Y12.763 Z0.3
;TYPE:SKIRT
G1 F1500 E0
G1 F1200 X14.935 Y12.402 E0.02522
G1 X15.341 Y12.101 E0.05044
G1 X15.789 Y11.868 E0.07563
G1 X16.269 Y11.708 E0.10088
G1 X16.768 Y11.626 E0.1261
G1 X17.037 Y11.615 E0.13954
G1 X58.826 Y11.623 E2.2244
G1 X59.33 Y11.663 E2.24962
G1 X59.821 Y11.782 E2.27483
G1 X60.288 Y11.977 E2.30008
G1 X60.718 Y12.243 E2.3253
G1 X61.1 Y12.573 E2.35049
G1 X61.28 Y12.77 E2.3638
G1 X62.734 Y14.509 E2.47689
G1 X66.425 Y18.583 E2.75115
G1 X70.312 Y22.411 E3.02333
G1 X74.459 Y26.059 E3.29888
G1 X78.54 Y29.269 E3.55792
G1 X78.912 Y29.612 E3.58316
G1 X79.224 Y30.009 E3.60835
G1 X79.471 Y30.45 E3.63357
G1 X79.645 Y30.925 E3.65881
G1 X79.741 Y31.421 E3.68401
G1 X79.762 Y31.783 E3.7021
G1 X79.775 Y67.426 E5.48034
G1 X79.735 Y67.93 E5.50557
G1 X79.617 Y68.421 E5.53076
G1 X79.422 Y68.888 E5.55601
G1 X79.156 Y69.318 E5.58123
G1 X78.826 Y69.701 E5.60646
G1 X78.44 Y70.027 E5.63166
G1 X78.063 Y70.26 E5.65377
G1 X73.207 Y72.811 E5.92743
G1 X68.482 Y75.635 E6.20206
G1 X66.223 Y77.119 E6.33691
G1 X61.775 Y80.32 E6.61031
G1 X56.85 Y84.334 E6.92729
G1 X56.434 Y84.622 E6.95253
G1 X55.978 Y84.84 E6.97775
G1 X55.493 Y84.984 E7.00299
G1 X54.828 Y85.054 E7.03635
G1 X13.056 Y85.054 E9.12036
G1 X12.552 Y85.014 E9.14558
G1 X12.061 Y84.895 E9.17079
G1 X11.594 Y84.701 E9.19602
G1 X11.164 Y84.435 E9.22124
G1 X10.781 Y84.105 E9.24647
G1 X10.455 Y83.718 E9.27171
G1 X10.194 Y83.285 E9.29694
G1 X10.004 Y82.817 E9.32214
G1 X9.891 Y82.324 E9.34737
G1 X9.856 Y81.82 E9.37257
G1 X9.902 Y81.316 E9.39782
G1 X10.091 Y80.649 E9.43241
G1 X11.256 Y77.781 E9.58685
G1 X13.091 Y72.622 E9.86003
G1 X14.641 Y67.339 E10.13471
G1 X15.303 Y64.672 E10.2718
G1 X15.868 Y62.069 E10.40469
G1 X16.814 Y56.637 E10.67978
G1 X17.446 Y51.187 E10.9535
G1 X17.768 Y45.742 E11.22563
G1 X17.782 Y40.254 E11.49942
G1 X17.486 Y34.792 E11.77232
G1 X16.881 Y29.348 E12.0456
G1 X15.968 Y23.942 E12.31912
G1 X15.409 Y21.311 E12.45332
G1 X13.938 Y15.615 E12.74681
G1 X13.85 Y15.117 E12.77204
G1 X13.842 Y14.612 E12.79724
G1 X13.914 Y14.111 E12.82249
G1 X14.064 Y13.628 E12.84773
G1 X14.288 Y13.175 E12.87294
G1 X14.581 Y12.763 E12.89816
G1 F1500 E6.39816
;MESH:Brake Pedal.stl
G0 F3600 X17.243 Y16.446
G0 X18.246 Y15.641
G0 X57.606 Y15.505
G0 X57.606 Y15.405
;TYPE:WALL-INNER
G1 F1500 E12.89816
G1 F1200 X57.812 Y15.404 E12.90844
G1 X57.607 Y15.659 E12.91652
G1 X57.499 Y15.743 E12.92334
G1 X57.342 Y15.789 E12.9315
G1 X18.496 Y15.788 E14.86954
G1 X18.349 Y15.745 E14.87718
G1 X18.23 Y15.654 E14.88465
G1 X18.03 Y15.405 E14.90059
G1 X18.23 Y15.405 E14.90247
G1 X18.349 Y15.405 E14.90432
G1 X18.496 Y15.405 E14.91009
G1 X57.342 Y15.405 E16.76818
G1 X57.499 Y15.405 E16.77386
G1 X57.606 Y15.405 E16.77522
G0 F3600 X57.606 Y15.505
G0 X17.665 Y15.105
G0 X17.666 Y15.005
;TYPE:WALL-OUTER
G1 F1200 X58.177 Y15.004 E18.79632
G1 X58.178 Y15.004 E18.79637
G1 X58.514 Y15.004 E18.81313
G1 X58.353 Y15.299 E18.8227
G1 X58.228 Y15.526 E18.83563
G1 X57.891 Y15.945 E18.86246
G1 X57.697 Y16.095 E18.87469
G1 X57.584 Y16.139 E18.88074
G1 X57.396 Y16.189 E18.89045
G1 X18.448 Y16.188 E20.83357
G1 X18.253 Y16.138 E20.84361
G1 X18.148 Y16.095 E20.84927
G1 X17.95 Y15.945 E20.86167
G1 X17.613 Y15.524 E20.88857
G1 X17.49 Y15.3 E20.90132
G1 X17.329 Y15.005 E20.91809
G1 X17.665 Y15.005 E20.92765
G1 X17.666 Y15.005 E20.9277
G0 F3600 X17.866 Y15.005
G0 X17.782 Y15.032
G1 F1500 E14.4277
;MESH:Gas_Pedal.stl
G0 F3600 X17.693 Y15.105
G0 X17.568 Y15.442
G0 X16.892 Y16.007
G0 X17.345 Y16.571
G0 X17.714 Y16.851
G0 X70.902 Y32.413
G0 X72.181 Y32.413
G0 X75.884 Y66.637
G0 X75.985 Y66.637
;TYPE:WALL-INNER
G1 F1500 E20.9277
G1 F1200 X75.985 Y66.837 E20.93768
G1 X75.785 Y66.837 E20.94414
G1 X72.167 Y66.827 E21.12464
G1 X72.167 Y32.399 E22.84226
G1 X74.076 Y32.389 E22.93751
G1 X75.984 Y32.389 E23.0327
G1 X75.985 Y66.637 E24.74134
G0 F3600 X76.385 Y67.038
;TYPE:WALL-OUTER
G1 F1200 X76.385 Y67.238 E24.75131
G1 X76.185 Y67.238 E24.75778
G1 X71.767 Y67.226 E24.97819
G1 X71.767 Y32.001 E26.73557
G1 X74.074 Y31.989 E26.85067
G1 X76.384 Y31.989 E26.96592
G1 X76.385 Y67.038 E28.71452
G0 F3600 X76.385 Y67.238
G0 X75.915 Y66.767
G0 X75.595 Y66.446
;TYPE:SKIN
G1 F1200 X72.557 Y66.438 E28.86609
G1 X72.557 Y32.787 E30.54494
G1 X75.594 Y32.779 E30.69646
G1 X75.595 Y66.446 E32.37611
G0 F3600 X73.047 Y66.259
G1 F1200 X72.736 Y65.948 E32.39806
G0 F3600 X72.736 Y65.382
G1 F1200 X73.614 Y66.26 E32.46
G0 F3600 X74.181 Y66.261
G1 F1200 X72.736 Y64.816 E32.56196
G0 F3600 X72.736 Y64.251
G1 F1200 X74.748 Y66.262 E32.70388
G0 F3600 X75.314 Y66.263
G1 F1200 X72.736 Y63.685 E32.88577
G0 F3600 X72.736 Y63.119
G1 F1200 X75.414 Y65.797 E33.07472
G0 F3600 X75.414 Y65.232
G1 F1200 X72.736 Y62.554 E33.26366
G0 F3600 X72.736 Y61.988
G1 F1200 X75.414 Y64.666 E33.45261
G0 F3600 X75.414 Y64.1
G1 F1200 X72.736 Y61.422 E33.64156
G0 F3600 X72.736 Y60.857
G1 F1200 X75.414 Y63.534 E33.83047
G0 F3600 X75.414 Y62.969
G1 F1200 X72.736 Y60.291 E34.01942
G0 F3600 X72.736 Y59.725
G1 F1200 X75.414 Y62.403 E34.20837
G0 F3600 X75.414 Y61.837
G1 F1200 X72.736 Y59.16 E34.39728
G0 F3600 X72.736 Y58.594
G1 F1200 X75.414 Y61.272 E34.58623
G0 F3600 X75.414 Y60.706
G1 F1200 X72.736 Y58.028 E34.77517
G0 F3600 X72.736 Y57.463
G1 F1200 X75.414 Y60.14 E34.96408
G0 F3600 X75.414 Y59.575
G1 F1200 X72.736 Y56.897 E35.15303
G0 F3600 X72.736 Y56.331
G1 F1200 X75.414 Y59.009 E35.34198
G0 F3600 X75.414 Y58.443
G1 F1200 X72.736 Y55.765 E35.53093
G0 F3600 X72.736 Y55.2
G1 F1200 X75.414 Y57.878 E35.71987
G0 F3600 X75.414 Y57.312
G1 F1200 X72.736 Y54.634 E35.90882
G0 F3600 X72.736 Y54.068
G1 F1200 X75.414 Y56.746 E36.09777
G0 F3600 X75.414 Y56.181
G1 F1200 X72.736 Y53.503 E36.28672
G0 F3600 X72.736 Y52.937
G1 F1200 X75.414 Y55.615 E36.47566
G0 F3600 X75.414 Y55.049
G1 F1200 X72.736 Y52.371 E36.66461
G0 F3600 X72.736 Y51.806
G1 F1200 X75.414 Y54.483 E36.85352
G0 F3600 X75.414 Y53.918
G1 F1200 X72.736 Y51.24 E37.04247
G0 F3600 X72.736 Y50.674
G1 F1200 X75.414 Y53.352 E37.23142
G0 F3600 X75.414 Y52.786
G1 F1200 X72.736 Y50.109 E37.42033
G0 F3600 X72.736 Y49.543
G1 F1200 X75.414 Y52.221 E37.60928
G0 F3600 X75.414 Y51.655
G1 F1200 X72.736 Y48.977 E37.79822
G0 F3600 X72.736 Y48.412
G1 F1200 X75.414 Y51.089 E37.98714
G0 F3600 X75.414 Y50.524
G1 F1200 X72.736 Y47.846 E38.17608
G0 F3600 X72.736 Y47.28
G1 F1200 X75.414 Y49.958 E38.36503
G0 F3600 X75.413 Y49.392
G1 F1200 X72.736 Y46.715 E38.55391
G0 F3600 X72.736 Y46.149
G1 F1200 X75.413 Y48.826 E38.74278
G0 F3600 X75.413 Y48.26
G1 F1200 X72.736 Y45.583 E38.93166
G0 F3600 X72.736 Y45.017
G1 F1200 X75.413 Y47.695 E39.12057
G0 F3600 X75.413 Y47.129
G1 F1200 X72.736 Y44.452 E39.30945
G0 F3600 X72.736 Y43.886
G1 F1200 X75.413 Y46.563 E39.49833
G0 F3600 X75.413 Y45.998
G1 F1200 X72.736 Y43.32 E39.68724
G0 F3600 X72.736 Y42.755
G1 F1200 X75.413 Y45.432 E39.87612
G0 F3600 X75.413 Y44.866
G1 F1200 X72.736 Y42.189 E40.06499
G0 F3600 X72.736 Y41.623
G1 F1200 X75.413 Y44.3 E40.25387
G0 F3600 X75.413 Y43.735
G1 F1200 X72.736 Y41.058 E40.44275
G0 F3600 X72.736 Y40.492
G1 F1200 X75.413 Y43.169 E40.63162
G0 F3600 X75.413 Y42.603
G1 F1200 X72.736 Y39.926 E40.8205
G0 F3600 X72.736 Y39.361
G1 F1200 X75.413 Y42.038 E41.00938
G0 F3600 X75.413 Y41.472
G1 F1200 X72.736 Y38.795 E41.19825
G0 F3600 X72.736 Y38.229
G1 F1200 X75.413 Y40.906 E41.38713
G0 F3600 X75.413 Y40.341
G1 F1200 X72.736 Y37.664 E41.57601
G0 F3600 X72.736 Y37.098
G1 F1200 X75.413 Y39.775 E41.76488
G0 F3600 X75.413 Y39.209
G1 F1200 X72.736 Y36.532 E41.95376
G0 F3600 X72.736 Y35.966
G1 F1200 X75.413 Y38.644 E42.14267
G0 F3600 X75.413 Y38.078
G1 F1200 X72.736 Y35.401 E42.33155
G0 F3600 X72.736 Y34.835
G1 F1200 X75.413 Y37.512 E42.52043
G0 F3600 X75.413 Y36.947
G1 F1200 X72.736 Y34.269 E42.70934
G0 F3600 X72.736 Y33.704
G1 F1200 X75.413 Y36.381 E42.89822
G0 F3600 X75.413 Y35.815
G1 F1200 X72.736 Y33.138 E43.08709
G0 F3600 X73.128 Y32.965
G1 F1200 X75.413 Y35.249 E43.24828
G0 F3600 X75.413 Y34.684
G1 F1200 X73.693 Y32.963 E43.36967
G0 F3600 X74.257 Y32.962
G1 F1200 X75.413 Y34.118 E43.45123
G0 F3600 X75.413 Y33.552
G1 F1200 X74.821 Y32.961 E43.49296
G1 X74.751 Y32.891
G1 F1500 E36.99296
;MESH:Brake Pedal.stl(1)
G0 F3600 X72.181 Y66.813
G0 X70.902 Y66.813
G0 X54.803 Y80.461
G0 X53.809 Y81.256
G0 X53.356 Y80.98
G0 X53.356 Y80.881
;TYPE:WALL-INNER
G1 F1500 E43.49296
G1 F1200 X53.51 Y80.925 E43.50095
G1 X53.624 Y81.011 E43.50808
G1 X53.826 Y81.264 E43.52423
G1 X53.624 Y81.264 E43.52619
G1 X53.51 Y81.264 E43.52783
G1 X53.356 Y81.264 E43.53394
G1 X14.514 Y81.264 E45.47177
G1 X14.357 Y81.264 E45.47961
G1 X14.245 Y81.264 E45.48519
G1 X14.043 Y81.264 E45.49527
G1 X14.245 Y81.012 E45.50323
G1 X14.357 Y80.926 E45.5087
G1 X14.514 Y80.88 E45.51609
G1 X53.356 Y80.881 E47.37399
G0 F3600 X53.356 Y80.98
G0 X13.59 Y81.418
G0 X13.504 Y81.369
;TYPE:WALL-OUTER
G1 F1200 X13.628 Y81.143 E47.38685
G1 X13.964 Y80.724 E47.41365
G1 X14.159 Y80.574 E47.42592
G1 X14.272 Y80.53 E47.43197
G1 X14.46 Y80.48 E47.44168
G1 X53.408 Y80.481 E49.3848
G1 X53.6 Y80.53 E49.39469
G1 X53.71 Y80.575 E49.40062
G1 X53.905 Y80.722 E49.4128
G1 X54.243 Y81.145 E49.43981
G1 X54.366 Y81.369 E49.45256
G1 X54.527 Y81.664 E49.46933
G1 X54.191 Y81.664 E49.4789
G1 X54.19 Y81.664 E49.47895
G1 X13.679 Y81.664 E51.50005
G1 X13.678 Y81.664 E51.5001
G1 X13.342 Y81.664 E51.51686
G1 X13.504 Y81.369 E51.52643
G0 F3600 X13.6 Y81.194
G1 F1500 E45.02643
;MESH:NONMESH
G0 F3600 X13.63 Y81.345
G0 X13.582 Y81.227
G0 X12.907 Y80.661
G0 X16.892 Y16.007
G0 X17.568 Y15.442
G0 X17.523 Y15.152
G0 X17.206 Y15.324
;TIME_ELAPSED:68.603211
;LAYER:1
M106 S255
;MESH:Brake Pedal.stl
G0 F5400 X17.206 Y15.324 Z0.5
;TYPE:WALL-INNER
G1 F1500 E51.52643
G1 F1800 X58.637 Y15.322 E52.90443
G1 X58.902 Y15.322 E52.91324
G1 X58.829 Y15.577 E52.91855
G1 X58.783 Y15.735 E52.92402
G1 X58.418 Y16.776 E52.96071
G1 X58.277 Y17.111 E52.9728
G1 X58.008 Y17.654 E52.99295
G1 X57.924 Y17.807 E52.99876
G1 X57.562 Y18.248 E53.01774
G1 X57.321 Y18.343 E53.02635
G1 X18.508 Y18.339 E54.31728
G1 X18.276 Y18.245 E54.3256
G1 X17.92 Y17.812 E54.34425
G1 X17.838 Y17.662 E54.34993
G1 X17.567 Y17.115 E54.37024
G1 X17.419 Y16.763 E54.38294
G1 X17.059 Y15.734 E54.4192
G1 X17.014 Y15.58 E54.42453
G1 X16.94 Y15.324 E54.4334
G1 X17.206 Y15.324 E54.43871
G0 F5400 X16.482 Y15.179
;TYPE:WALL-OUTER
G1 F1200 X16.408 Y14.924 E54.44754
G1 X16.673 Y14.924 E54.45283
G1 X16.674 Y14.924 E54.45286
G1 X59.168 Y14.922 E55.86622
G1 X59.169 Y14.922 E55.86625
G1 X59.433 Y14.922 E55.87503
G1 X59.36 Y15.176 E55.88031
G1 X59.161 Y15.867 E55.90423
G1 X58.793 Y16.918 E55.94126
G1 X58.644 Y17.272 E55.95404
G1 X58.359 Y17.846 E55.97535
G1 X58.257 Y18.032 E55.98241
G1 X57.82 Y18.565 E56.00533
G1 X57.791 Y18.588 E56.00656
G1 X57.395 Y18.743 E56.02071
G1 X18.43 Y18.739 E57.31669
G1 X18.049 Y18.585 E57.33036
G1 X18.02 Y18.564 E57.33155
G1 X17.588 Y18.038 E57.35419
G1 X17.481 Y17.841 E57.36164
G1 X17.2 Y17.276 E57.38263
G1 X17.047 Y16.912 E57.39576
G1 X16.681 Y15.866 E57.43262
G1 X16.482 Y15.179 E57.45641
G0 F5400 X16.427 Y14.987
G0 X17.02 Y15.383
G0 X17.465 Y15.714
;TYPE:SKIN
G1 F1200 X58.378 Y15.712 E58.81718
G1 X58.054 Y16.636 E58.84975
G1 X57.928 Y16.938 E58.86063
G1 X57.602 Y17.583 E58.88467
G1 X57.323 Y17.923 E58.8993
G1 X57.247 Y17.953 E58.90202
G1 X18.582 Y17.949 E60.18802
G1 X18.515 Y17.922 E60.19042
G1 X18.244 Y17.592 E60.20462
G1 X17.916 Y16.942 E60.22884
G1 X17.783 Y16.623 E60.24034
G1 X17.465 Y15.714 E60.27237
G0 F5400 X17.803 Y16.137
G1 F1200 X18.048 Y15.892 E60.28389
G0 F5400 X18.613 Y15.892
G1 F1200 X17.95 Y16.556 E60.3151
G0 F5400 X18.121 Y16.95
G1 F1200 X19.179 Y15.892 E60.36486
G0 F5400 X19.745 Y15.892
G1 F1200 X18.311 Y17.326 E60.43231
G0 F5400 X18.538 Y17.665
G1 F1200 X20.31 Y15.892 E60.51569
G0 F5400 X20.876 Y15.892
G1 F1200 X18.999 Y17.77 E60.604
G0 F5400 X19.564 Y17.77
G1 F1200 X21.442 Y15.892 E60.69234
G0 F5400 X22.007 Y15.892
G1 F1200 X20.13 Y17.77 E60.78065
G0 F5400 X20.696 Y17.77
G1 F1200 X22.573 Y15.892 E60.86896
G0 F5400 X23.139 Y15.892
G1 F1200 X21.261 Y17.77 E60.95729
G0 F5400 X21.827 Y17.77
G1 F1200 X23.705 Y15.892 E61.04563
G0 F5400 X24.27 Y15.892
G1 F1200 X22.393 Y17.77 E61.13394
G0 F5400 X22.959 Y17.77
G1 F1200 X24.836 Y15.892 E61.22225
G0 F5400 X25.402 Y15.892
G1 F1200 X23.524 Y17.77 E61.31059
G0 F5400 X24.09 Y17.77
G1 F1200 X25.967 Y15.892 E61.3989
G0 F5400 X26.533 Y15.892
G1 F1200 X24.656 Y17.77 E61.48721
G0 F5400 X25.221 Y17.77
G1 F1200 X27.099 Y15.892 E61.57555
G0 F5400 X27.664 Y15.892
G1 F1200 X25.787 Y17.77 E61.66386
G0 F5400 X26.352 Y17.771
G1 F1200 X28.23 Y15.892 E61.75222
G0 F5400 X28.796 Y15.892
G1 F1200 X26.918 Y17.771 E61.84058
G0 F5400 X27.483 Y17.771
G1 F1200 X29.361 Y15.892 E61.92894
G0 F5400 X29.927 Y15.892
G1 F1200 X28.049 Y17.771 E62.0173
G0 F5400 X28.615 Y17.771
G1 F1200 X30.493 Y15.892 E62.10565
G0 F5400 X31.058 Y15.892
G1 F1200 X29.18 Y17.771 E62.19401
G0 F5400 X29.746 Y17.771
G1 F1200 X31.624 Y15.892 E62.28237
G0 F5400 X32.19 Y15.892
G1 F1200 X30.312 Y17.771 E62.37073
G0 F5400 X30.877 Y17.771
G1 F1200 X32.756 Y15.892 E62.45911
G0 F5400 X33.321 Y15.892
G1 F1200 X31.443 Y17.771 E62.54747
G0 F5400 X32.009 Y17.771
G1 F1200 X33.887 Y15.892 E62.63583
G0 F5400 X34.453 Y15.892
G1 F1200 X32.574 Y17.771 E62.72421
G0 F5400 X33.14 Y17.771
G1 F1200 X35.018 Y15.892 E62.81257
G0 F5400 X35.584 Y15.892
G1 F1200 X33.706 Y17.771 E62.90093
G0 F5400 X34.271 Y17.771
G1 F1200 X36.15 Y15.892 E62.98931
G0 F5400 X36.715 Y15.892
G1 F1200 X34.837 Y17.771 E63.07767
G0 F5400 X35.402 Y17.771
G1 F1200 X37.281 Y15.892 E63.16605
G0 F5400 X37.847 Y15.892
G1 F1200 X35.968 Y17.771 E63.25444
G0 F5400 X36.534 Y17.771
G1 F1200 X38.413 Y15.892 E63.34282
G0 F5400 X38.979 Y15.892
G1 F1200 X37.099 Y17.771 E63.43123
G0 F5400 X37.665 Y17.771
G1 F1200 X39.544 Y15.892 E63.51961
G0 F5400 X40.11 Y15.892
G1 F1200 X38.231 Y17.771 E63.60799
G0 F5400 X38.796 Y17.771
G1 F1200 X40.676 Y15.892 E63.6964
G0 F5400 X41.242 Y15.892
G1 F1200 X39.362 Y17.771 E63.7848
G0 F5400 X39.928 Y17.771
G1 F1200 X41.807 Y15.892 E63.87318
G0 F5400 X42.373 Y15.892
G1 F1200 X40.493 Y17.771 E63.96159
G0 F5400 X41.059 Y17.771
G1 F1200 X42.939 Y15.892 E64.05
G0 F5400 X43.504 Y15.892
G1 F1200 X41.625 Y17.771 E64.13838
G0 F5400 X42.19 Y17.772
G1 F1200 X44.07 Y15.892 E64.22681
G0 F5400 X44.636 Y15.892
G1 F1200 X42.755 Y17.772 E64.31526
G0 F5400 X43.321 Y17.772
G1 F1200 X45.201 Y15.892 E64.40369
G0 F5400 X45.767 Y15.892
G1 F1200 X43.887 Y17.772 E64.49212
G0 F5400 X44.452 Y17.772
G1 F1200 X46.333 Y15.892 E64.58057
G0 F5400 X46.898 Y15.892
G1 F1200 X45.018 Y17.772 E64.669
G0 F5400 X45.584 Y17.772
G1 F1200 X47.464 Y15.892 E64.75743
G0 F5400 X48.03 Y15.892
G1 F1200 X46.15 Y17.772 E64.84586
G0 F5400 X46.715 Y17.772
G1 F1200 X48.595 Y15.892 E64.93429
G0 F5400 X49.161 Y15.892
G1 F1200 X47.281 Y17.772 E65.02272
G0 F5400 X47.847 Y17.772
G1 F1200 X49.727 Y15.892 E65.11115
G0 F5400 X50.292 Y15.892
G1 F1200 X48.412 Y17.772 E65.19958
G0 F5400 X48.978 Y17.772
G1 F1200 X50.858 Y15.892 E65.28801
G0 F5400 X51.424 Y15.892
G1 F1200 X49.543 Y17.773 E65.37648
G0 F5400 X50.109 Y17.773
G1 F1200 X51.99 Y15.892 E65.46496
G0 F5400 X52.555 Y15.892
G1 F1200 X50.674 Y17.773 E65.55344
G0 F5400 X51.24 Y17.773
G1 F1200 X53.121 Y15.892 E65.64191
G0 F5400 X53.687 Y15.892
G1 F1200 X51.806 Y17.773 E65.73039
G0 F5400 X52.371 Y17.773
