;FLAVOR:Marlin
;TIME:19352
;Filament used: 16.0315m
;Layer height: 0.2
;Generated with Cura_SteamEngine 3.6.0
M104 S200
M105
M109 S200
M82 ;absolute extrusion mode
G28 ;Home
G1 Z15.0 F6000 ;Move the platform down 15mm
;Prime the extruder
G92 E0
G1 F200 E3
G92 E0
G92 E0
G1 F1500 E-6.5
;LAYER_COUNT:450
;LAYER:0
M107
G0 F3600 X11.237 Y17.025 Z0.3
;TYPE:SKIRT
G1 F1500 E0
G1 F1200 X11.697 Y16.817 E0.02519
G1 X12.185 Y16.684 E0.05042
G1 X12.688 Y16.63 E0.07566
G1 X13.028 Y16.639 E0.09263
G1 X18.176 Y17.042 E0.35025
G1 X23.71 Y17.282 E0.6266
G1 X47.879 Y17.292 E1.8324
G1 X53.421 Y17.135 E2.109
G1 X59.201 Y16.643 E2.39841
G1 X59.468 Y16.631 E2.41174
G1 X60.292 Y16.63 E2.45285
G1 X60.796 Y16.669 E2.47807
G1 X61.288 Y16.788 E2.50333
G1 X61.778 Y16.994 E2.52984
G1 X64.537 Y18.436 E2.68516
G1 X69.527 Y20.778 E2.96017
G1 X71.987 Y21.808 E3.09322
G1 X78.196 Y24.07 E3.4229
G1 X78.656 Y24.28 E3.44813
G1 X79.077 Y24.56 E3.47336
G1 X79.359 Y24.809 E3.49213
G1 X79.588 Y25.037 E3.50825
G1 X79.917 Y25.421 E3.53347
G1 X80.181 Y25.852 E3.55869
G1 X80.374 Y26.319 E3.5839
G1 X80.492 Y26.811 E3.60914
G1 X80.526 Y27.472 E3.64216
G1 X80.335 Y31.14 E3.82541
G1 X80.203 Y36.22 E4.07894
G1 X80.244 Y61.846 E5.35742
G1 X80.526 Y67.778 E5.65371
G1 X80.51 Y68.283 E5.67891
G1 X80.415 Y68.78 E5.70416
G1 X80.243 Y69.255 E5.72936
G1 X79.998 Y69.697 E5.75458
G1 X79.593 Y70.193 E5.78652
G1 X79.363 Y70.423 E5.80275
G1 X78.978 Y70.751 E5.82798
G1 X78.478 Y71.048 E5.857
G1 X75.799 Y72.326 E6.00508
G1 X70.947 Y74.903 E6.27917
G1 X66.246 Y77.751 E6.55339
G1 X62.619 Y80.205 E6.77187
G1 X62.179 Y80.455 E6.79712
G1 X61.706 Y80.632 E6.82231
G1 X61.21 Y80.732 E6.84756
G1 X60.577 Y80.745 E6.87914
G1 X55.42 Y80.343 E7.13721
G1 X49.884 Y80.103 E7.41366
G1 X25.707 Y80.093 E8.61985
G1 X20.167 Y80.25 E8.89636
G1 X14.384 Y80.743 E9.18592
G1 X14.116 Y80.755 E9.1993
G1 X13.297 Y80.756 E9.24016
G1 X12.793 Y80.717 E9.26538
G1 X12.301 Y80.598 E9.29064
G1 X11.835 Y80.404 E9.31582
G1 X11.404 Y80.139 E9.34106
G1 X10.915 Y79.697 E9.37395
G1 X10.68 Y79.436 E9.39147
G1 X10.372 Y79.035 E9.41669
G1 X10.132 Y78.59 E9.44192
G1 X9.964 Y78.113 E9.46715
G1 X9.874 Y77.616 E9.49235
G1 X9.858 Y77.309 E9.50769
G1 X9.843 Y73.898 E9.67786
G1 X9.854 Y73.618 E9.69184
G1 X10.011 Y71.734 E9.78616
G1 X10.056 Y71.402 E9.80288
G1 X11.33 Y64.708 E10.14284
G1 X12.018 Y59.301 E10.41477
G1 X12.401 Y53.843 E10.68774
G1 X12.475 Y48.355 E10.96156
G1 X12.239 Y42.891 E11.23441
G1 X11.694 Y37.444 E11.50752
G1 X10.844 Y32.047 E11.7801
G1 X9.535 Y26.043 E12.08668
G1 X9.483 Y25.73 E12.10251
G1 X9.376 Y24.809 E12.14876
G1 X9.355 Y24.456 E12.16641
G1 X9.333 Y20.107 E12.38338
G1 X9.37 Y19.603 E12.40859
G1 X9.487 Y19.111 E12.43382
G1 X9.679 Y18.643 E12.45906
G1 X9.943 Y18.212 E12.48428
G1 X10.196 Y17.905 E12.50412
G1 X10.441 Y17.643 E12.52202
G1 X10.814 Y17.303 E12.5472
G1 X11.237 Y17.025 E12.57245
G0 F3600 X12.852 Y20.02
;TYPE:SUPPORT
G1 F1200 X13.543 Y20.02 E12.60693
G1 X13.886 Y20.155 E12.62532
G1 X14.757 Y20.297 E12.66935
G1 X14.58 Y20.532 E12.68402
G1 X14.911 Y21.673 E12.7433
G1 X15.285 Y22.741 E12.79975
G1 X15.449 Y23.128 E12.82072
G1 X15.86 Y23.937 E12.86599
G1 X16.347 Y24.535 E12.90447
G1 X16.451 Y24.617 E12.91107
G1 X16.946 Y24.819 E12.93775
G1 X56.062 Y24.831 E14.88925
G1 X56.585 Y24.635 E14.91712
G1 X56.703 Y24.55 E14.92437
G1 X57.196 Y23.952 E14.96304
G1 X57.618 Y23.131 E15.00909
G1 X57.779 Y22.753 E15.02959
G1 X58.155 Y21.679 E15.08636
G1 X58.486 Y20.528 E15.14611
G1 X58.312 Y20.298 E15.1605
G1 X59.183 Y20.154 E15.20455
G1 X59.53 Y20.02 E15.2231
G1 X60.217 Y20.02 E15.25738
G1 X60.336 Y20.153 E15.26628
G1 X60.184 Y21.52 E15.3349
G1 X60.368 Y21.877 E15.35494
G1 X60.183 Y23.625 E15.44263
G1 X60.36 Y23.981 E15.46247
G1 X60.22 Y25.268 E15.52706
G1 X60.107 Y25.371 E15.53468
G1 X59.874 Y25.371 E15.54631
G1 X59.853 Y25.39 E15.54772
G1 X59.597 Y25.39 E15.56049
G1 X59.575 Y25.409 E15.56194
G1 X59.289 Y25.409 E15.57621
G1 X59.265 Y25.429 E15.57777
G1 X58.928 Y25.429 E15.59458
G1 X58.905 Y25.448 E15.59607
G1 X58.503 Y25.448 E15.61613
G1 X58.478 Y25.468 E15.61773
G1 X57.97 Y25.468 E15.64307
G1 X57.944 Y25.488 E15.64471
G1 X57.183 Y25.488 E15.68267
G1 X57.151 Y25.507 E15.68453
G1 X44.882 Y25.508 E16.29663
G1 X44.483 Y25.907 E16.32478
G1 X44.483 Y43.302 E17.19262
G1 X44.367 Y43.418 E17.20081
G1 X28.699 Y43.418 E17.98249
G1 X28.583 Y43.302 E17.99067
G1 X28.583 Y25.907 E18.85851
G1 X28.184 Y25.508 E18.88666
G1 X15.916 Y25.507 E19.49872
G1 X15.884 Y25.488 E19.50057
G1 X15.123 Y25.488 E19.53854
G1 X15.098 Y25.469 E19.54011
G1 X14.591 Y25.469 E19.5654
G1 X14.565 Y25.448 E19.56707
G1 X14.161 Y25.448 E19.58722
G1 X14.138 Y25.429 E19.58871
G1 X13.804 Y25.429 E19.60538
G1 X13.782 Y25.41 E19.60683
G1 X13.496 Y25.41 E19.6211
G1 X13.473 Y25.39 E19.62262
G1 X13.214 Y25.39 E19.63554
G1 X13.193 Y25.371 E19.63695
G1 X12.958 Y25.371 E19.64867
G1 X12.845 Y25.269 E19.65627
G1 X12.687 Y23.798 E19.73008
G1 X12.865 Y23.448 E19.74967
G1 X12.693 Y21.83 E19.83085
G1 X12.877 Y21.473 E19.85088
G1 X12.732 Y20.153 E19.91714
G1 X12.852 Y20.02 E19.92607
G0 F3600 X13.335 Y20.18
G1 F1200 X13.335 Y25.23 E20.17802
G0 F3600 X12.868 Y24.003
G1 F1200 X15.713 Y24.003 E20.31996
G0 F3600 X16.002 Y24.366
G1 F1200 X16.002 Y25.347 E20.3689
G0 F3600 X18.669 Y25.347
G1 F1200 X18.669 Y24.98 E20.38721
G0 F3600 X21.336 Y24.981
G1 F1200 X21.336 Y25.347 E20.40547
G0 F3600 X24.003 Y25.347
G1 F1200 X24.003 Y24.982 E20.42368
G0 F3600 X26.67 Y24.982
G1 F1200 X26.67 Y25.347 E20.44189
G0 F3600 X28.743 Y26.67
G1 F1200 X44.323 Y26.67 E21.21918
G0 F3600 X45.339 Y25.348
G1 F1200 X45.339 Y24.988 E21.23714
G0 F3600 X42.672 Y24.987
G1 F1200 X42.672 Y43.258 E22.14868
G0 F3600 X44.323 Y42.672
G1 F1200 X28.742 Y42.672 E22.92602
G0 F3600 X29.337 Y43.258
G1 F1200 X29.337 Y24.983 E23.83776
G0 F3600 X32.004 Y24.984
G1 F1200 X32.004 Y43.258 E24.74946
G0 F3600 X34.671 Y43.258
G1 F1200 X34.671 Y24.985 E25.6611
G0 F3600 X37.338 Y24.986
G1 F1200 X37.338 Y43.258 E26.57269
G0 F3600 X40.005 Y43.258
G1 F1200 X40.005 Y24.987 E27.48424
G0 F3600 X44.323 Y29.337
G1 F1200 X28.743 Y29.337 E28.26153
G0 F3600 X28.742 Y32.004
G1 F1200 X44.323 Y32.004 E29.03887
G0 F3600 X44.323 Y34.671
G1 F1200 X28.742 Y34.671 E29.81621
G0 F3600 X28.742 Y37.338
G1 F1200 X44.323 Y37.338 E30.59355
G0 F3600 X44.323 Y40.005
G1 F1200 X28.742 Y40.005 E31.37088
G0 F3600 X14.645 Y21.336
G1 F1200 X13.021 Y21.336 E31.45191
G1 F1500 E24.95191
G0 F3600 X16.936 Y22.737
G0 X48.006 Y24.989
G1 F1500 E31.45191
G1 F1200 X48.006 Y25.348 E31.46982
G0 F3600 X50.673 Y25.348
G1 F1200 X50.673 Y24.99 E31.48768
G0 F3600 X53.34 Y24.991
G1 F1200 X53.34 Y25.348 E31.50549
G0 F3600 X56.007 Y25.348
G1 F1200 X56.007 Y24.991 E31.5233
G0 F3600 X57.35 Y24.003
G1 F1200 X60.194 Y24.003 E31.66519
G0 F3600 X58.674 Y25.288
G1 F1200 X58.674 Y20.399 E31.9091
G0 F3600 X58.421 Y21.336
G1 F1200 X60.043 Y21.336 E31.99002
G0 F3600 X44.894 Y53.968
G1 F1200 X45.01 Y54.084 E31.99821
G1 X45.01 Y71.478 E32.866
G1 X45.409 Y71.877 E32.89415
G1 X57.678 Y71.878 E33.50625
G1 X57.71 Y71.897 E33.50811
G1 X58.47 Y71.897 E33.54602
G1 X58.496 Y71.917 E33.54766
G1 X59.003 Y71.917 E33.57296
G1 X59.028 Y71.937 E33.57455
G1 X59.432 Y71.937 E33.59471
G1 X59.456 Y71.957 E33.59627
G1 X59.789 Y71.957 E33.61288
G1 X59.81 Y71.975 E33.61426
G1 X60.097 Y71.975 E33.62858
G1 X60.121 Y71.996 E33.63017
G1 X60.38 Y71.996 E33.64309
G1 X60.401 Y72.015 E33.6445
G1 X60.632 Y72.015 E33.65603
G1 X60.746 Y72.116 E33.66363
G1 X60.902 Y73.567 E33.73644
G1 X60.724 Y73.922 E33.75625
G1 X60.909 Y75.616 E33.84126
G1 X60.726 Y75.974 E33.86132
G1 X60.864 Y77.231 E33.92441
G1 X60.743 Y77.365 E33.93342
G1 X60.052 Y77.365 E33.96789
G1 X59.697 Y77.228 E33.98688
G1 X58.837 Y77.089 E34.03034
G1 X59.013 Y76.854 E34.04499
G1 X58.678 Y75.698 E34.10503
G1 X58.304 Y74.632 E34.1614
G1 X58.139 Y74.245 E34.18238
G1 X57.722 Y73.429 E34.2281
G1 X57.228 Y72.833 E34.26672
G1 X57.109 Y72.751 E34.27393
G1 X56.592 Y72.555 E34.30152
G1 X17.531 Y72.554 E36.25028
G1 X17.007 Y72.75 E36.27819
G1 X16.891 Y72.835 E36.28536
G1 X16.398 Y73.433 E36.32403
G1 X15.976 Y74.254 E36.37008
G1 X15.818 Y74.626 E36.39025
G1 X15.439 Y75.707 E36.4474
G1 X15.108 Y76.858 E36.50715
G1 X15.283 Y77.09 E36.52165
G1 X14.421 Y77.229 E36.56521
G1 X14.065 Y77.366 E36.58424
G1 X13.376 Y77.366 E36.61861
G1 X13.257 Y77.233 E36.62752
G1 X13.414 Y75.811 E36.69889
G1 X13.232 Y75.453 E36.71893
G1 X13.415 Y73.721 E36.80582
G1 X13.237 Y73.371 E36.82541
G1 X13.377 Y72.116 E36.88841
G1 X13.488 Y72.015 E36.8959
G1 X13.719 Y72.015 E36.90742
G1 X13.74 Y71.996 E36.90883
G1 X13.997 Y71.996 E36.92166
G1 X14.02 Y71.976 E36.92318
G1 X14.306 Y71.976 E36.93745
G1 X14.329 Y71.957 E36.93893
G1 X14.664 Y71.957 E36.95565
G1 X14.688 Y71.937 E36.95721
G1 X15.095 Y71.937 E36.97751
G1 X15.118 Y71.918 E36.979
G1 X15.623 Y71.918 E37.00419
G1 X15.65 Y71.897 E37.0059
G1 X16.41 Y71.897 E37.04382
G1 X16.442 Y71.878 E37.04567
G1 X28.711 Y71.877 E37.65778
G1 X29.11 Y71.478 E37.68593
G1 X29.11 Y54.084 E38.55372
G1 X29.226 Y53.968 E38.5619
G1 X44.894 Y53.968 E39.34358
G0 F3600 X44.85 Y56.007
G1 F1200 X29.269 Y56.007 E40.12092
G0 F3600 X29.337 Y54.128
G1 F1200 X29.337 Y72.394 E41.03222
G0 F3600 X28.805 Y72.009
G1 F1200 X45.313 Y72.009 E41.8558
G0 F3600 X45.339 Y72.034
G1 F1200 X45.339 Y72.394 E41.87376
G0 F3600 X42.672 Y72.394
G1 F1200 X42.672 Y54.128 E42.78506
G0 F3600 X40.005 Y54.128
G1 F1200 X40.005 Y72.394 E43.69635
G0 F3600 X37.338 Y72.394
G1 F1200 X37.338 Y54.128 E44.60765
G0 F3600 X34.671 Y54.128
G1 F1200 X34.671 Y72.394 E45.51894
G0 F3600 X32.004 Y72.394
G1 F1200 X32.004 Y54.128 E46.43024
G0 F3600 X29.269 Y58.674
G1 F1200 X44.85 Y58.674 E47.20758
G0 F3600 X44.849 Y61.341
G1 F1200 X29.269 Y61.341 E47.98486
G0 F3600 X29.269 Y64.008
G1 F1200 X44.849 Y64.008 E48.76215
G0 F3600 X44.849 Y66.675
G1 F1200 X29.269 Y66.675 E49.53944
G0 F3600 X29.269 Y69.342
G1 F1200 X44.849 Y69.342 E50.31673
G0 F3600 X48.006 Y72.038
G1 F1200 X48.006 Y72.394 E50.33449
G0 F3600 X50.673 Y72.394
G1 F1200 X50.673 Y72.038 E50.35225
G0 F3600 X53.34 Y72.038
G1 F1200 X53.34 Y72.394 E50.37002
G0 F3600 X56.007 Y72.394
G1 F1200 X56.007 Y72.038 E50.38778
G0 F3600 X58.674 Y72.077
G1 F1200 X58.674 Y75.202 E50.54368
G0 F3600 X58.488 Y74.676
G1 F1200 X60.645 Y74.676 E50.6513
G0 F3600 X26.67 Y72.394
G1 F1200 X26.67 Y72.037 E50.66911
G0 F3600 X24.003 Y72.037
G1 F1200 X24.003 Y72.394 E50.68692
G0 F3600 X21.336 Y72.394
G1 F1200 X21.336 Y72.037 E50.70473
G0 F3600 X18.669 Y72.037
G1 F1200 X18.669 Y72.394 E50.72254
G0 F3600 X16.002 Y72.057
G1 F1200 X16.002 Y73.855 E50.81224
G0 F3600 X15.629 Y74.676
G1 F1200 X13.474 Y74.676 E50.91976
G0 F3600 X53.986 Y55.501
G1 F1200 X53.986 Y39.733 E51.70642
G1 X54.102 Y39.617 E51.71461
G1 X71.086 Y39.617 E52.56194
G1 X71.086 Y55.617 E53.36019
G1 X54.102 Y55.617 E54.20752
G1 X53.986 Y55.501 E54.21571
G0 F3600 X56.007 Y55.457
G1 F1200 X56.007 Y39.777 E54.99799
G0 F3600 X54.146 Y40.005
G1 F1200 X70.926 Y40.005 E55.83514
G0 F3600 X69.342 Y39.777
G1 F1200 X69.342 Y55.457 E56.61742
G0 F3600 X70.926 Y53.34
G1 F1200 X54.146 Y53.34 E57.45458
G0 F3600 X54.146 Y50.673
G1 F1200 X70.926 Y50.673 E58.29174
G0 F3600 X70.926 Y48.006
G1 F1200 X54.146 Y48.006 E59.12889
G0 F3600 X54.146 Y45.339
G1 F1200 X70.926 Y45.339 E59.96605
G0 F3600 X70.926 Y42.672
G1 F1200 X54.146 Y42.672 E60.80321
G0 F3600 X58.674 Y39.777
G1 F1200 X58.674 Y55.457 E61.58549
G0 F3600 X61.341 Y55.457
G1 F1200 X61.341 Y39.777 E62.36777
G0 F3600 X64.008 Y39.777
G1 F1200 X64.008 Y55.457 E63.15004
G0 F3600 X66.675 Y55.457
G1 F1200 X66.675 Y39.777 E63.93232
G1 F1500 E57.43232
G0 F3600 X71.325 Y29.651
G0 X71.986 Y28.81
G1 F1500 E63.93232
G1 F1200 X71.986 Y27.389 E64.00322
G1 X72.102 Y27.273 E64.0114
G1 X77.023 Y27.267 E64.25691
G1 X77.139 Y27.383 E64.2651
G1 X77.139 Y27.806 E64.2862
G1 X77.075 Y28.6 E64.32594
G1 X77.072 Y28.842 E64.33801
G1 X76.997 Y28.767 E64.34331
G1 X72.02 Y28.776 E64.59161
G1 X71.986 Y28.81 E64.59401
G0 F3600 X74.676 Y28.612
G1 F1200 X74.676 Y27.429 E64.65303
G1 F1500 E58.15303
G0 F3600 X77.157 Y29.13
G0 X77.664 Y29.635
G0 X77.665 Y65.6
G0 X77.071 Y66.394
G1 F1500 E64.65303
G1 F1200 X77.074 Y66.522 E64.65942
G1 X77.14 Y67.429 E64.70479
G1 X77.14 Y67.853 E64.72594
G1 X77.024 Y67.969 E64.73412
G1 X72.102 Y67.963 E64.97968
G1 X71.986 Y67.847 E64.98787
G1 X71.986 Y66.425 E65.05881
G1 X72.02 Y66.459 E65.06121
G1 X76.997 Y66.468 E65.30952
G1 X77.071 Y66.394 E65.31474
G0 F3600 X76.925 Y66.675
G1 F1200 X72.146 Y66.675 E65.55316
G0 F3600 X74.676 Y66.624
G1 F1200 X74.676 Y67.806 E65.61213
G1 F1500 E59.11213
;MESH:Brake Pedal.stl
G0 F3600 X71.828 Y66.09
G0 X71.376 Y65.638
G0 X56.57 Y22.608
G0 X56.106 Y21.41
G0 X56.218 Y21.193
G0 X56.218 Y21.093
;TYPE:WALL-INNER
G1 F1500 E65.61213
G1 F1200 X56.424 Y21.092 E65.62241
G1 X56.219 Y21.348 E65.63052
G1 X56.115 Y21.428 E65.63707
G1 X56.065 Y21.448 E65.63976
G1 X55.956 Y21.477 E65.64538
G1 X17.112 Y21.476 E67.58332
G1 X16.957 Y21.43 E67.59138
G1 X16.843 Y21.344 E67.59851
G1 X16.643 Y21.093 E67.61452
G1 X16.843 Y21.093 E67.61642
G1 X16.957 Y21.093 E67.61804
G1 X17.112 Y21.093 E67.62416
G1 X55.956 Y21.093 E69.48216
G1 X56.065 Y21.093 E69.48613
G1 X56.115 Y21.093 E69.48642
G1 X56.218 Y21.093 E69.48758
G0 F3600 X56.964 Y20.987
;TYPE:WALL-OUTER
G1 F1200 X56.84 Y21.213 E69.50044
G1 X56.504 Y21.634 E69.52732
G1 X56.311 Y21.781 E69.53942
G1 X56.198 Y21.826 E69.54549
G1 X56.007 Y21.877 E69.55535
G1 X17.061 Y21.876 E71.49837
G1 X16.866 Y21.825 E71.50843
G1 X16.757 Y21.781 E71.51429
G1 X16.563 Y21.635 E71.52641
G1 X16.226 Y21.212 E71.55339
G1 X16.103 Y20.988 E71.56614
G1 X15.942 Y20.693 E71.58291
G1 X16.278 Y20.693 E71.59247
G1 X16.279 Y20.693 E71.59252
G1 X56.789 Y20.692 E73.61357
G1 X56.79 Y20.692 E73.61362
G1 X57.126 Y20.692 E73.63039
G1 X56.964 Y20.987 E73.63996
G0 F3600 X56.868 Y21.162
G1 F1500 E67.13996
;MESH:Gas_Pedal.stl
G0 F3600 X56.838 Y21.01
G0 X57.134 Y20.687
G0 X57.888 Y21.101
G0 X71.321 Y30.418
G0 X72.6 Y30.418
G0 X76.303 Y30.593
G0 X76.403 Y30.593
;TYPE:WALL-INNER
G1 F1500 E73.63996
G1 F1200 X76.404 Y64.641 E75.33862
G1 X76.404 Y64.841 E75.3486
G1 X76.204 Y64.841 E75.35506
G1 X72.586 Y64.831 E75.53556
G1 X72.586 Y30.404 E77.25313
G1 X74.495 Y30.394 E77.34837
G1 X76.203 Y30.393 E77.43359
G1 X76.403 Y30.393 E77.44356
G1 X76.403 Y30.593 E77.45002
G0 F3600 X76.803 Y30.193
;TYPE:WALL-OUTER
G1 F1200 X76.804 Y65.042 E79.18865
G1 X76.804 Y65.242 E79.19863
G1 X76.604 Y65.242 E79.20509
G1 X72.186 Y65.23 E79.4255
G1 X72.186 Y30.006 E81.18283
G1 X74.493 Y29.994 E81.29793
G1 X76.603 Y29.993 E81.4032
G1 X76.803 Y29.993 E81.41318
G1 X76.803 Y30.193 E81.41964
G0 F3600 X76.803 Y30.393
G0 X76.333 Y30.463
G0 X76.013 Y30.783
;TYPE:SKIN
G1 F1200 X76.014 Y64.45 E83.09929
G1 X72.976 Y64.442 E83.25086
G1 X72.976 Y30.792 E84.92967
G1 X76.013 Y30.783 E85.08118
G0 F3600 X75.832 Y31.143
G1 F1200 X75.653 Y30.964 E85.09381
G0 F3600 X75.089 Y30.965
G1 F1200 X75.832 Y31.709 E85.14627
G0 F3600 X75.832 Y32.275
G1 F1200 X74.524 Y30.967 E85.23856
G0 F3600 X73.96 Y30.968
G1 F1200 X75.832 Y32.84 E85.37064
G0 F3600 X75.832 Y33.406
G1 F1200 X73.396 Y30.97 E85.54251
G0 F3600 X73.155 Y31.294
G1 F1200 X75.832 Y33.972 E85.73142
G0 F3600 X75.832 Y34.537
G1 F1200 X73.155 Y31.86 E85.9203
G0 F3600 X73.155 Y32.425
G1 F1200 X75.832 Y35.103 E86.10921
G0 F3600 X75.832 Y35.669
G1 F1200 X73.155 Y32.991 E86.29812
G0 F3600 X73.155 Y33.557
G1 F1200 X75.832 Y36.234 E86.487
G0 F3600 X75.832 Y36.8
G1 F1200 X73.155 Y34.122 E86.67591
G0 F3600 X73.155 Y34.688
G1 F1200 X75.832 Y37.366 E86.86482
G0 F3600 X75.832 Y37.932
G1 F1200 X73.155 Y35.254 E87.05374
G0 F3600 X73.155 Y35.819
