;FLAVOR:Marlin
;TIME:4026
;Filament used: 2.86839m
;Layer height: 0.2
;Generated with Cura_SteamEngine 3.6.0
M104 S200
M105
M109 S200
M82 ;absolute extrusion mode
G28 ;Home
G1 Z15.0 F6000 ;Move the platform down 15mm
;Prime the extruder
G92 E0
G1 F200 E3
G92 E0
G92 E0
G1 F1500 E-6.5
;LAYER_COUNT:50
;LAYER:-6
M107
G0 F2400 X17.463 Y13.027 Z0.36
;TYPE:SUPPORT-INTERFACE
G1 F1500 E0
G1 F900 X17.647 Y12.779 E0.03698
G1 X18.069 Y12.296 E0.11377
G1 X18.458 Y11.95 E0.17611
G1 X18.673 Y11.783 E0.20871
G1 X18.904 Y11.627 E0.24208
G1 X19.172 Y11.469 E0.27933
G1 X19.429 Y11.339 E0.31382
G1 X19.699 Y11.223 E0.349
G1 X19.955 Y11.131 E0.38158
G1 X20.247 Y11.047 E0.41796
G1 X20.508 Y10.991 E0.44992
G1 X20.828 Y10.943 E0.48866
G1 X21.296 Y10.907 E0.54487
G1 X21.488 Y10.9 E0.56787
G1 X51.783 Y10.899 E4.19529
G1 X52.451 Y10.857 E4.27543
G1 X53.122 Y10.728 E4.35724
G1 X53.772 Y10.515 E4.43914
G1 X54.388 Y10.222 E4.52082
G1 X54.963 Y9.854 E4.60256
G1 X55.488 Y9.416 E4.68443
G1 X56.001 Y8.854 E4.77554
G1 X56.422 Y8.32 E4.85696
G1 X56.548 Y8.175 E4.87996
G1 X56.966 Y7.731 E4.95298
G1 X57.138 Y7.564 E4.98168
G1 X57.598 Y7.151 E5.0557
G1 X57.743 Y7.032 E5.07816
G1 X58.232 Y6.663 E5.15151
G1 X58.422 Y6.533 E5.17908
G1 X58.931 Y6.214 E5.251
G1 X59.103 Y6.117 E5.27465
G1 X59.672 Y5.826 E5.35117
G1 X59.833 Y5.752 E5.37239
G1 X60.411 Y5.517 E5.4471
G1 X60.627 Y5.44 E5.47455
G1 X61.18 Y5.269 E5.54386
G1 X61.407 Y5.209 E5.57197
G1 X62.001 Y5.078 E5.64481
G1 X62.189 Y5.045 E5.66766
G1 X62.794 Y4.965 E5.74073
G1 X63.025 Y4.946 E5.76849
G1 X63.646 Y4.918 E5.84292
G1 X63.832 Y4.917 E5.86519
G1 X64.444 Y4.941 E5.93852
G1 X64.622 Y4.955 E5.9599
G1 X65.231 Y5.03 E6.03337
G1 X65.443 Y5.065 E6.0591
G1 X66.052 Y5.195 E6.13366
G1 X66.241 Y5.244 E6.15704
G1 X66.854 Y5.43 E6.23374
G1 X67.009 Y5.484 E6.2534
G1 X67.606 Y5.724 E6.33044
G1 X67.793 Y5.809 E6.35504
G1 X68.358 Y6.095 E6.43086
G1 X68.51 Y6.181 E6.45177
G1 X69.047 Y6.512 E6.5273
G1 X69.225 Y6.633 E6.55307
G1 X69.699 Y6.985 E6.62377
G1 X69.878 Y7.13 E6.65135
G1 X70.348 Y7.546 E6.7265
G1 X70.477 Y7.67 E6.74793
G1 X70.905 Y8.122 E6.82246
G1 X71.052 Y8.291 E6.84928
G1 X71.432 Y8.767 E6.92221
G1 X71.544 Y8.919 E6.94482
G1 X71.888 Y9.433 E7.01887
G1 X71.986 Y9.596 E7.04165
G1 X72.306 Y10.178 E7.12117
G1 X72.374 Y10.315 E7.13949
G1 X72.631 Y10.896 E7.21555
G1 X72.712 Y11.1 E7.24184
G1 X72.911 Y11.679 E7.31514
G1 X72.971 Y11.882 E7.34049
G1 X73.118 Y12.47 E7.41306
G1 X73.161 Y12.683 E7.43908
G1 X73.259 Y13.294 E7.51317
G1 X73.28 Y13.478 E7.53535
G1 X73.326 Y14.1 E7.61003
G1 X73.333 Y14.3 E7.63399
G1 X73.326 Y14.937 E7.71027
G1 X73.317 Y15.104 E7.73029
G1 X73.255 Y15.745 E7.8074
G1 X73.228 Y15.94 E7.83097
G1 X73.113 Y16.553 E7.90565
G1 X73.069 Y16.743 E7.929
G1 X72.897 Y17.364 E8.00616
G1 X72.839 Y17.545 E8.02892
G1 X72.62 Y18.132 E8.10393
G1 X72.549 Y18.302 E8.12599
G1 X72.277 Y18.877 E8.20216
G1 X72.183 Y19.058 E8.22658
G1 X71.877 Y19.582 E8.29923
G1 X71.698 Y19.861 E8.33893
G1 X71.373 Y20.447 E8.41916
G1 X71.119 Y21.081 E8.50094
G1 X70.948 Y21.741 E8.58257
G1 X70.861 Y22.412 E8.66359
G1 X70.85 Y22.761 E8.7054
G1 X70.855 Y77.253 E15.23008
G1 X70.897 Y77.921 E15.31022
G1 X71.026 Y78.592 E15.39203
G1 X71.239 Y79.242 E15.47394
G1 X71.529 Y79.853 E15.55492
G1 X71.714 Y80.163 E15.59814
G1 X71.861 Y80.389 E15.63042
G1 X72.168 Y80.912 E15.70304
G1 X72.277 Y81.117 E15.73084
G1 X72.534 Y81.659 E15.80266
G1 X72.613 Y81.846 E15.82697
G1 X72.837 Y82.444 E15.90343
G1 X72.892 Y82.611 E15.92448
G1 X73.058 Y83.202 E15.99798
G1 X73.105 Y83.405 E16.02293
G1 X73.221 Y84.017 E16.09752
G1 X73.251 Y84.221 E16.12221
G1 X73.313 Y84.832 E16.19574
G1 X73.325 Y85.024 E16.21877
G1 X73.335 Y85.66 E16.29494
G1 X73.33 Y85.851 E16.31781
G1 X73.285 Y86.497 E16.39535
G1 X73.264 Y86.681 E16.41753
G1 X73.165 Y87.309 E16.49365
G1 X73.128 Y87.493 E16.51612
G1 X72.98 Y88.089 E16.58965
G1 X72.921 Y88.29 E16.61473
G1 X72.718 Y88.888 E16.69035
G1 X72.656 Y89.051 E16.71123
G1 X72.404 Y89.625 E16.78629
G1 X72.307 Y89.822 E16.81258
G1 X72 Y90.383 E16.88916
G1 X71.916 Y90.521 E16.9085
G1 X71.554 Y91.065 E16.98674
G1 X71.446 Y91.214 E17.00877
G1 X71.067 Y91.691 E17.08172
G1 X70.933 Y91.847 E17.10635
G1 X70.492 Y92.314 E17.18326
G1 X70.363 Y92.439 E17.20476
G1 X69.884 Y92.866 E17.2816
G1 X69.742 Y92.983 E17.30363
G1 X69.22 Y93.373 E17.38165
G1 X69.082 Y93.466 E17.40157
G1 X68.526 Y93.812 E17.47999
G1 X68.38 Y93.893 E17.49998
G1 X67.8 Y94.188 E17.57789
G1 X67.636 Y94.262 E17.59943
G1 X67.045 Y94.501 E17.67577
G1 X66.876 Y94.562 E17.69728
G1 X66.278 Y94.747 E17.77223
G1 X66.072 Y94.8 E17.7977
G1 X65.464 Y94.931 E17.87217
G1 X65.265 Y94.965 E17.89634
G1 X64.652 Y95.042 E17.97032
G1 X64.46 Y95.059 E17.9934
G1 X63.827 Y95.085 E18.06925
G1 X63.648 Y95.084 E18.09069
G1 X63.013 Y95.056 E18.16679
G1 X62.817 Y95.039 E18.19035
G1 X62.155 Y94.953 E18.27028
G1 X61.995 Y94.925 E18.28973
G1 X61.372 Y94.786 E18.36616
G1 X61.2 Y94.74 E18.38748
G1 X60.577 Y94.545 E18.46564
G1 X60.422 Y94.489 E18.48538
G1 X59.856 Y94.258 E18.55857
G1 X59.653 Y94.165 E18.58531
G1 X59.098 Y93.881 E18.65996
G1 X58.936 Y93.789 E18.68227
G1 X58.384 Y93.442 E18.76034
G1 X58.236 Y93.341 E18.78179
G1 X57.738 Y92.966 E18.85643
G1 X57.58 Y92.835 E18.88101
G1 X57.112 Y92.415 E18.9563
G1 X56.976 Y92.282 E18.97908
G1 X56.557 Y91.836 E19.05235
G1 X56.407 Y91.662 E19.07986
G1 X55.997 Y91.143 E19.15905
G1 X55.55 Y90.644 E19.23927
G1 X55.033 Y90.198 E19.32102
G1 X54.464 Y89.821 E19.40275
G1 X53.852 Y89.517 E19.48457
G1 X53.207 Y89.295 E19.56625
G1 X52.537 Y89.154 E19.64823
G1 X51.782 Y89.1 E19.73886
G1 X21.317 Y89.096 E23.38663
G1 X20.94 Y89.072 E23.43187
G1 X20.642 Y89.035 E23.46782
G1 X20.358 Y88.98 E23.50246
G1 X20.067 Y88.904 E23.53847
G1 X19.807 Y88.819 E23.57122
G1 X19.53 Y88.709 E23.60691
G1 X19.271 Y88.586 E23.64124
G1 X19.013 Y88.443 E23.67656
G1 X18.794 Y88.304 E23.70762
G1 X18.521 Y88.101 E23.74835
G1 X18.046 Y87.685 E23.82396
G1 X17.7 Y87.296 E23.88629
G1 X17.533 Y87.081 E23.91889
G1 X17.376 Y86.848 E23.95253
G1 X17.219 Y86.582 E23.98951
G1 X17.089 Y86.325 E24.024
G1 X16.973 Y86.055 E24.05919
G1 X16.881 Y85.799 E24.09176
G1 X16.798 Y85.51 E24.12776
G1 X16.739 Y85.24 E24.16085
G1 X16.693 Y84.927 E24.19873
G1 X16.656 Y84.447 E24.25638
G1 X16.65 Y84.27 E24.27758
G1 X16.654 Y80.709 E24.70396
G1 X16.681 Y80.203 E24.76464
G1 X16.722 Y79.879 E24.80374
G1 X16.777 Y79.595 E24.83838
G1 X16.848 Y79.321 E24.87227
G1 X16.941 Y79.039 E24.90782
G1 X17.041 Y78.788 E24.94017
G1 X17.168 Y78.521 E24.97558
G1 X17.314 Y78.258 E25.01159
G1 X17.463 Y78.027 E25.04451
G1 X17.647 Y77.779 E25.08148
G1 X18.069 Y77.296 E25.15828
G1 X18.458 Y76.95 E25.22062
G1 X18.673 Y76.783 E25.25321
G1 X18.904 Y76.627 E25.28659
G1 X19.172 Y76.469 E25.32384
G1 X19.429 Y76.339 E25.35832
G1 X19.699 Y76.223 E25.39351
G1 X19.955 Y76.131 E25.42608
G1 X20.247 Y76.047 E25.46246
G1 X20.508 Y75.991 E25.49443
G1 X20.828 Y75.943 E25.53317
G1 X21.296 Y75.907 E25.58937
G1 X21.488 Y75.9 E25.61238
G1 X50.24 Y75.9 E29.05504
G1 X50.908 Y75.858 E29.13518
G1 X51.579 Y75.729 E29.217
G1 X52.228 Y75.516 E29.29878
G1 X52.845 Y75.224 E29.38052
G1 X53.42 Y74.856 E29.46226
G1 X53.944 Y74.418 E29.54403
G1 X54.408 Y73.918 E29.62571
G1 X54.807 Y73.362 E29.70765
G1 X55.131 Y72.762 E29.7893
G1 X55.377 Y72.126 E29.87095
G1 X55.543 Y71.457 E29.95348
G1 X55.627 Y70.518 E30.06636
G1 X55.627 Y29.487 E34.97927
G1 X55.585 Y28.819 E35.05941
G1 X55.456 Y28.148 E35.14123
G1 X55.243 Y27.499 E35.22301
G1 X54.951 Y26.882 E35.30475
G1 X54.583 Y26.307 E35.38649
G1 X54.145 Y25.783 E35.46826
G1 X53.645 Y25.319 E35.54994
G1 X53.089 Y24.92 E35.63188
G1 X52.489 Y24.596 E35.71353
G1 X51.853 Y24.35 E35.79518
G1 X51.184 Y24.184 E35.87771
G1 X50.245 Y24.1 E35.99059
G1 X21.317 Y24.096 E39.45433
G1 X20.94 Y24.072 E39.49956
G1 X20.642 Y24.035 E39.53552
G1 X20.358 Y23.98 E39.57015
G1 X20.067 Y23.904 E39.60616
G1 X19.807 Y23.819 E39.63892
G1 X19.53 Y23.709 E39.6746
G1 X19.271 Y23.586 E39.70894
G1 X19.013 Y23.443 E39.74426
G1 X18.794 Y23.304 E39.77531
G1 X18.528 Y23.106 E39.81502
G1 X18.046 Y22.685 E39.89165
G1 X17.7 Y22.296 E39.95398
G1 X17.533 Y22.081 E39.98658
G1 X17.376 Y21.848 E40.02022
G1 X17.219 Y21.582 E40.0572
G1 X17.091 Y21.33 E40.09105
G1 X16.97 Y21.048 E40.12779
G1 X16.879 Y20.791 E40.16043
G1 X16.798 Y20.51 E40.19545
G1 X16.739 Y20.24 E40.22854
G1 X16.693 Y19.927 E40.26642
G1 X16.656 Y19.447 E40.32407
G1 X16.65 Y19.275 E40.34467
G1 X16.654 Y15.709 E40.77165
G1 X16.681 Y15.203 E40.83233
G1 X16.722 Y14.879 E40.87143
G1 X16.777 Y14.595 E40.90607
G1 X16.848 Y14.321 E40.93996
G1 X16.941 Y14.039 E40.97551
G1 X17.041 Y13.788 E41.00786
G1 X17.168 Y13.521 E41.04327
G1 X17.314 Y13.258 E41.07928
G1 X17.463 Y13.027 E41.1122
G0 F2400 X17.6 Y12.842
G1 F900 X17.6 Y22.167 E42.22874
G0 F2400 X19.2 Y23.546
G1 F900 X19.2 Y11.454 E43.67659
G0 F2400 X20.8 Y10.947
G1 F900 X20.8 Y24.054 E45.24598
G0 F2400 X22.4 Y24.096
G1 F900 X22.4 Y10.899 E46.82614
G0 F2400 X24 Y10.899
G1 F900 X24 Y24.096 E48.40631
G0 F2400 X25.6 Y24.096
G1 F900 X25.6 Y10.899 E49.98647
G0 F2400 X27.2 Y10.899
G1 F900 X27.2 Y24.096 E51.56663
G0 F2400 X28.8 Y24.097
G1 F900 X28.8 Y10.899 E53.14691
G0 F2400 X30.4 Y10.899
G1 F900 X30.4 Y24.097 E54.72719
G0 F2400 X32 Y24.097
G1 F900 X32 Y10.899 E56.30748
G0 F2400 X33.6 Y10.899
G1 F900 X33.6 Y24.097 E57.88776
G0 F2400 X35.2 Y24.097
G1 F900 X35.2 Y10.899 E59.46804
G0 F2400 X36.8 Y10.899
G1 F900 X36.8 Y24.098 E61.04844
G0 F2400 X38.4 Y24.098
G1 F900 X38.4 Y10.899 E62.62884
G0 F2400 X40 Y10.899
G1 F900 X40 Y24.098 E64.20925
G0 F2400 X41.6 Y24.098
G1 F900 X41.6 Y10.899 E65.78965
G0 F2400 X43.2 Y10.899
G1 F900 X43.2 Y24.099 E67.37017
G0 F2400 X44.8 Y24.099
G1 F900 X44.8 Y10.899 E68.95069
G0 F2400 X46.4 Y10.899
G1 F900 X46.4 Y24.099 E70.53121
G0 F2400 X48 Y24.099
G1 F900 X48 Y10.899 E72.11173
G0 F2400 X49.6 Y10.899
G1 F900 X49.6 Y24.099 E73.69226
G0 F2400 X51.2 Y24.187
G1 F900 X51.2 Y10.899 E75.28331
G0 F2400 X52.8 Y10.789
G1 F900 X52.8 Y24.763 E76.95651
G0 F2400 X54.4 Y26.088
G1 F900 X54.4 Y10.214 E78.85721
G0 F2400 X56 Y8.855
G1 F900 X56 Y91.146 E88.71044
G0 F2400 X54.4 Y89.789
G1 F900 X54.4 Y73.926 E90.60982
G0 F2400 X52.8 Y75.245
G1 F900 X52.8 Y89.209 E92.28182
G0 F2400 X51.2 Y89.099
G1 F900 X51.2 Y75.801 E93.87408
G0 F2400 X49.6 Y75.9
G1 F900 X49.6 Y89.099 E95.45448
G0 F2400 X48 Y89.099
G1 F900 X48 Y75.9 E97.03488
G0 F2400 X46.4 Y75.9
G1 F900 X46.4 Y89.099 E98.61529
G0 F2400 X44.8 Y89.099
G1 F900 X44.8 Y75.9 E100.19569
G0 F2400 X43.2 Y75.9
G1 F900 X43.2 Y89.098 E101.77597
G0 F2400 X41.6 Y89.098
G1 F900 X41.6 Y75.9 E103.35625
G0 F2400 X40 Y75.9
G1 F900 X40 Y89.098 E104.93653
G0 F2400 X38.4 Y89.098
G1 F900 X38.4 Y75.9 E106.51682
G0 F2400 X36.8 Y75.9
G1 F900 X36.8 Y89.098 E108.0971
G0 F2400 X35.2 Y89.097
G1 F900 X35.2 Y75.9 E109.67726
G0 F2400 X33.6 Y75.9
G1 F900 X33.6 Y89.097 E111.25742
G0 F2400 X32 Y89.097
G1 F900 X32 Y75.9 E112.83759
G0 F2400 X30.4 Y75.9
G1 F900 X30.4 Y89.097 E114.41775
G0 F2400 X28.8 Y89.096
G1 F900 X28.8 Y75.9 E115.99779
G0 F2400 X27.2 Y75.9
G1 F900 X27.2 Y89.096 E117.57783
G0 F2400 X25.6 Y89.096
G1 F900 X25.6 Y75.9 E119.15788
G0 F2400 X24 Y75.9
G1 F900 X24 Y89.096 E120.73792
G0 F2400 X22.4 Y89.096
G1 F900 X22.4 Y75.9 E122.31796
G0 F2400 X20.8 Y75.947
G1 F900 X20.8 Y89.054 E123.88735
G0 F2400 X19.2 Y88.546
G1 F900 X19.2 Y76.454 E125.3352
G0 F2400 X17.6 Y77.842
G1 F900 X17.6 Y87.167 E126.45174
G0 F2400 X52.472 Y89.612
G0 X53.081 Y89.739
G0 X53.676 Y89.945
G0 X54.239 Y90.224
G0 X54.383 Y90.32
G0 X57.6 Y92.851
G1 F900 X57.6 Y7.149 E136.7134
G0 F2400 X59.2 Y6.067
G1 F900 X59.2 Y93.933 E147.23417
G0 F2400 X60.8 Y94.614
G1 F900 X60.8 Y5.386 E157.91801
G0 F2400 X62.4 Y5.017
G1 F900 X62.4 Y94.984 E168.69035
G0 F2400 X64 Y95.078
G1 F900 X64 Y4.924 E179.48507
G0 F2400 X65.6 Y5.099
G1 F900 X65.6 Y94.902 E190.23777
G0 F2400 X67.2 Y94.439
G1 F900 X67.2 Y5.561 E200.8797
G0 F2400 X68.8 Y6.36
G1 F900 X68.8 Y93.642 E211.33054
G0 F2400 X70.4 Y92.404
G1 F900 X70.4 Y7.596 E221.48516
G0 F2400 X72 Y9.622
G1 F900 X72 Y19.372 E222.65259
G0 F2400 X71.399 Y21.835
G0 X71.311 Y22.77
G0 X71.316 Y77.241
G0 X71.352 Y77.803
G0 X72 Y80.626
G1 F900 X72 Y90.383 E223.82086
G0 F2400 X54.815 Y27.67
G0 X54.547 Y27.106
G0 X54.212 Y26.582
G0 X53.808 Y26.099
G0 X53.352 Y25.676
G0 X52.846 Y25.312
G0 X51.715 Y24.79
G0 X51.373 Y24.706
G0 X17.095 Y21.337
;TIME_ELAPSED:140.855388
;LAYER:-5
G0 X17.095 Y21.337 Z0.66
;TYPE:SUPPORT
G1 F900 X19.406 Y23.649 E224.14703
G1 X19.27 Y23.585 E224.16203
G1 X19.012 Y23.442 E224.19146
G1 X18.793 Y23.303 E224.21735
G1 X18.527 Y23.105 E224.25043
G1 X18.046 Y22.684 E224.31422
G1 X17.7 Y22.295 E224.36616
G1 X17.533 Y22.08 E224.39333
G1 X17.375 Y21.847 E224.42142
G1 X17.218 Y21.581 E224.45224
G0 F2400 X19.406 Y23.649
G1 F900 X19.53 Y23.707 E224.4659
G1 X19.807 Y23.818 E224.49567
G1 X20.066 Y23.903 E224.52287
G1 X20.357 Y23.979 E224.55288
G1 X20.641 Y24.034 E224.58175
G1 X20.94 Y24.071 E224.61181
G1 X21.263 Y24.091 E224.6441
G1 X16.658 Y19.487 E225.29384
G1 X16.655 Y19.446 E225.29794
G1 X16.649 Y19.274 E225.31512
G1 X16.65 Y18.065 E225.43575
G1 X22.681 Y24.095 E226.28672
G1 X24.095 Y24.095 E226.42781
G1 X16.652 Y16.652 E227.4781
G1 X16.653 Y15.709 E227.57219
G1 X16.677 Y15.262 E227.61686
G1 X25.509 Y24.095 E228.86322
G1 X26.924 Y24.096 E229.00441
G1 X16.922 Y14.094 E230.4158
G1 X16.94 Y14.038 E230.42167
G1 X17.04 Y13.787 E230.44863
G1 X17.167 Y13.521 E230.47804
G1 X17.313 Y13.257 E230.50814
G1 X17.386 Y13.143 E230.52165
G1 X28.338 Y24.096 E232.06716
G1 X29.752 Y24.096 E232.20825
G1 X18.014 Y12.357 E233.86468
G1 X18.068 Y12.295 E233.87289
G1 X18.456 Y11.95 E233.92469
G1 X18.671 Y11.783 E233.95186
G1 X18.78 Y11.709 E233.965
G1 X31.167 Y24.096 E235.71294
G1 X32.582 Y24.096 E235.85413
G1 X19.706 Y11.221 E237.671
G1 X19.954 Y11.131 E237.69733
G1 X20.246 Y11.047 E237.72764
G1 X20.507 Y10.991 E237.75428
G1 X20.827 Y10.943 E237.78657
G1 X20.841 Y10.942 E237.78797
G1 X33.996 Y24.096 E239.64421
G1 X35.41 Y24.096 E239.7853
G1 X22.213 Y10.9 E241.64747
G1 X23.627 Y10.9 E241.78856
G1 X36.825 Y24.097 E243.65087
G1 X38.239 Y24.097 E243.79196
G1 X25.042 Y10.9 E245.6542
G1 X26.456 Y10.9 E245.79528
G1 X39.653 Y24.097 E247.65752
G1 X41.068 Y24.098 E247.79871
G1 X27.87 Y10.9 E249.66109
G1 X29.284 Y10.9 E249.80218
G1 X42.482 Y24.098 E251.66456
G1 X43.897 Y24.098 E251.80575
G1 X30.699 Y10.9 E253.66813
G1 X32.113 Y10.9 E253.80922
G1 X45.311 Y24.098 E255.6716
G1 X46.726 Y24.098 E255.81279
G1 X33.527 Y10.9 E257.67524
G1 X34.941 Y10.9 E257.81633
G1 X48.14 Y24.098 E259.67878
G1 X49.554 Y24.098 E259.81987
G1 X36.355 Y10.9 E261.68232
G1 X37.769 Y10.899 E261.82341
G1 X51.041 Y24.171 E263.69624
G1 X51.183 Y24.184 E263.71046
G1 X51.852 Y24.349 E263.77922
G1 X52.488 Y24.596 E263.8473
G1 X53.088 Y24.919 E263.91529
G1 X53.498 Y25.214 E263.96569
G1 X39.183 Y10.899 E265.98569
G1 X40.597 Y10.899 E266.12678
G1 X70.851 Y41.152 E270.39587
G1 X70.851 Y39.738 E270.53696
G1 X42.012 Y10.899 E274.60646
G1 X43.426 Y10.899 E274.74755
G1 X70.851 Y38.324 E278.61751
G1 X70.851 Y36.91 E278.7586
G1 X44.84 Y10.899 E282.42903
G1 X46.254 Y10.899 E282.57012
G1 X70.85 Y35.495 E286.04088
G1 X70.85 Y34.081 E286.18197
G1 X47.668 Y10.899 E289.4532
G1 X49.083 Y10.899 E289.59439
G1 X70.85 Y32.666 E292.66595
G1 X70.85 Y31.252 E292.80704
G1 X50.497 Y10.899 E295.67907
G1 X51.782 Y10.898 E295.80729
G1 X51.903 Y10.891 E295.81938
G1 X70.85 Y29.838 E298.49301
G1 X70.849 Y28.423 E298.6342
G1 X53.146 Y10.719 E301.13235
G1 X53.771 Y10.514 E301.19798
G1 X54.167 Y10.327 E301.24168
G1 X70.849 Y27.009 E303.59569
G1 X70.849 Y25.595 E303.73678
G1 X55.042 Y9.787 E305.96739
G1 X55.487 Y9.416 E306.0252
G1 X55.772 Y9.103 E306.06744
G1 X70.849 Y24.18 E308.19496
G1 X70.849 Y22.766 E308.33605
G1 X56.412 Y8.329 E310.37327
G1 X56.421 Y8.319 E310.37461
G1 X56.547 Y8.175 E310.39371
G1 X56.965 Y7.73 E310.45462
G1 X57.099 Y7.602 E310.47311
G1 X71.007 Y21.51 E312.43568
G1 X71.118 Y21.08 E312.48
G1 X71.368 Y20.457 E312.54698
G1 X57.856 Y6.945 E314.45367
G1 X58.23 Y6.663 E314.5004
G1 X58.421 Y6.532 E314.52351
G1 X58.69 Y6.364 E314.55516
G1 X71.888 Y19.562 E316.41754
G1 X72.182 Y19.057 E316.47585
G1 X72.276 Y18.876 E316.4962
G1 X72.385 Y18.645 E316.52168
