;FLAVOR:Marlin
;TIME:10897
;Filament used: 7.52436m
;Layer height: 0.2
;Generated with Cura_SteamEngine 3.6.0
M104 S200
M105
M109 S200
M82 ;absolute extrusion mode
G28 ;Home
G1 Z15.0 F6000 ;Move the platform down 15mm
;Prime the extruder
G92 E0
G1 F200 E3
G92 E0
G92 E0
G1 F1500 E-6.5
;LAYER_COUNT:222
;LAYER:-6
M107
G0 F2400 X22.765 Y17.367 Z0.36
;TYPE:SUPPORT-INTERFACE
G1 F1500 E0
G1 F900 X23.172 Y16.896 E0.07453
G1 X23.561 Y16.542 E0.13751
G1 X23.761 Y16.385 E0.16796
G1 X24.034 Y16.196 E0.20771
G1 X24.249 Y16.068 E0.23767
G1 X24.533 Y15.92 E0.27602
G1 X24.781 Y15.811 E0.30845
G1 X25.059 Y15.71 E0.34387
G1 X25.335 Y15.628 E0.37835
G1 X25.602 Y15.567 E0.41114
G1 X25.92 Y15.518 E0.44966
G1 X26.422 Y15.476 E0.50998
G1 X26.589 Y15.469 E0.53
G1 X63.161 Y15.331 E4.90903
G1 X63.692 Y15.358 E4.97269
G1 X63.967 Y15.392 E5.00587
G1 X64.269 Y15.449 E5.04267
G1 X64.524 Y15.514 E5.07418
G1 X64.831 Y15.613 E5.1128
G1 X65.077 Y15.709 E5.14442
G1 X65.361 Y15.844 E5.18207
G1 X65.603 Y15.976 E5.21508
G1 X65.843 Y16.128 E5.24909
G1 X66.089 Y16.309 E5.28566
G1 X66.56 Y16.716 E5.3602
G1 X66.914 Y17.105 E5.42317
G1 X67.071 Y17.305 E5.45362
G1 X67.26 Y17.578 E5.49338
G1 X67.388 Y17.793 E5.52334
G1 X67.539 Y18.083 E5.56248
G1 X67.645 Y18.325 E5.59412
G1 X67.747 Y18.606 E5.62991
G1 X67.828 Y18.879 E5.66401
G1 X67.889 Y19.146 E5.6968
G1 X67.938 Y19.459 E5.73474
G1 X67.98 Y19.956 E5.79446
G1 X67.987 Y20.133 E5.81567
G1 X68.065 Y40.75 E8.28429
G1 X68.11 Y41.419 E8.36458
G1 X68.241 Y42.089 E8.44632
G1 X68.456 Y42.737 E8.52807
G1 X68.751 Y43.353 E8.60985
G1 X69.122 Y43.926 E8.69158
G1 X69.565 Y44.453 E8.77402
G1 X70.272 Y45.072 E8.88653
G1 X70.519 Y45.252 E8.92312
G1 X70.734 Y45.43 E8.95655
G1 X70.952 Y45.635 E8.99238
G1 X71.137 Y45.833 E9.02482
G1 X71.333 Y46.071 E9.06174
G1 X71.504 Y46.308 E9.09673
G1 X71.655 Y46.548 E9.13068
G1 X71.8 Y46.815 E9.16706
G1 X71.917 Y47.065 E9.20011
G1 X72.022 Y47.333 E9.23458
G1 X72.112 Y47.612 E9.26968
G1 X72.176 Y47.866 E9.30104
G1 X72.234 Y48.21 E9.34281
G1 X72.285 Y48.754 E9.40824
G1 X72.296 Y48.985 E9.43593
G1 X72.305 Y50.839 E9.65792
G1 X72.279 Y51.365 E9.72098
G1 X72.244 Y51.658 E9.75631
G1 X72.192 Y51.934 E9.78994
G1 X72.115 Y52.233 E9.82691
G1 X72.031 Y52.497 E9.86008
G1 X71.917 Y52.786 E9.89728
G1 X71.809 Y53.017 E9.92781
G1 X71.662 Y53.286 E9.96452
G1 X71.491 Y53.555 E10.00268
G1 X71.343 Y53.761 E10.03306
G1 X71.147 Y53.996 E10.0697
G1 X70.947 Y54.209 E10.10468
G1 X70.737 Y54.405 E10.13908
G1 X70.514 Y54.59 E10.17377
G1 X70.366 Y54.697 E10.19564
G1 X69.847 Y55.123 E10.27603
G1 X69.38 Y55.619 E10.3576
G1 X68.978 Y56.171 E10.43937
G1 X68.648 Y56.769 E10.52115
G1 X68.397 Y57.404 E10.60291
G1 X68.228 Y58.067 E10.68483
G1 X68.145 Y58.738 E10.76578
G1 X68.135 Y59.083 E10.80711
G1 X68.213 Y79.702 E13.27598
G1 X68.187 Y80.228 E13.33903
G1 X68.152 Y80.51 E13.37306
G1 X68.095 Y80.812 E13.40986
G1 X68.03 Y81.067 E13.44137
G1 X67.931 Y81.374 E13.47999
G1 X67.836 Y81.617 E13.51123
G1 X67.7 Y81.904 E13.54926
G1 X67.568 Y82.146 E13.58226
G1 X67.416 Y82.386 E13.61628
G1 X67.235 Y82.632 E13.65285
G1 X66.828 Y83.103 E13.72738
G1 X66.443 Y83.453 E13.78968
G1 X66.239 Y83.614 E13.8208
G1 X65.969 Y83.801 E13.86013
G1 X65.751 Y83.931 E13.89052
G1 X65.467 Y84.079 E13.92886
G1 X65.219 Y84.188 E13.9613
G1 X64.941 Y84.289 E13.99671
G1 X64.665 Y84.371 E14.03119
G1 X64.398 Y84.432 E14.06398
G1 X64.08 Y84.481 E14.10251
G1 X63.578 Y84.523 E14.16283
G1 X63.411 Y84.53 E14.18284
G1 X26.839 Y84.669 E18.56187
G1 X26.308 Y84.642 E18.62554
G1 X26.033 Y84.608 E18.65871
G1 X25.731 Y84.551 E18.69551
G1 X25.469 Y84.484 E18.72789
G1 X25.18 Y84.392 E18.76421
G1 X24.919 Y84.289 E18.79781
G1 X24.639 Y84.156 E18.83492
G1 X24.396 Y84.023 E18.86809
G1 X24.157 Y83.872 E18.90194
G1 X23.911 Y83.691 E18.93851
G1 X23.44 Y83.284 E19.01304
G1 X23.086 Y82.895 E19.07602
G1 X22.929 Y82.695 E19.10647
G1 X22.74 Y82.422 E19.14622
G1 X22.612 Y82.207 E19.17618
G1 X22.461 Y81.917 E19.21533
G1 X22.355 Y81.675 E19.24697
G1 X22.253 Y81.394 E19.28276
G1 X22.172 Y81.119 E19.31709
G1 X22.111 Y80.854 E19.34965
G1 X22.062 Y80.536 E19.38817
G1 X22.019 Y80.027 E19.44933
G1 X22.013 Y79.867 E19.46851
G1 X21.935 Y59.262 E21.93569
G1 X21.89 Y58.593 E22.01598
G1 X21.759 Y57.923 E22.09772
G1 X21.544 Y57.275 E22.17947
G1 X21.249 Y56.659 E22.26125
G1 X20.878 Y56.086 E22.34298
G1 X20.435 Y55.559 E22.42542
G1 X19.725 Y54.938 E22.53836
G1 X19.488 Y54.766 E22.57342
G1 X19.263 Y54.579 E22.60845
G1 X19.05 Y54.379 E22.64344
G1 X18.864 Y54.18 E22.67605
G1 X18.661 Y53.934 E22.71424
G1 X18.501 Y53.712 E22.74701
G1 X18.34 Y53.458 E22.78302
G1 X18.211 Y53.22 E22.81543
G1 X18.079 Y52.937 E22.85282
G1 X17.975 Y52.67 E22.88713
G1 X17.887 Y52.395 E22.9217
G1 X17.824 Y52.145 E22.95257
G1 X17.767 Y51.806 E22.99373
G1 X17.713 Y51.234 E23.06253
G1 X17.704 Y51.032 E23.08674
G1 X17.695 Y49.162 E23.31065
G1 X17.72 Y48.646 E23.3725
G1 X17.757 Y48.339 E23.40953
G1 X17.809 Y48.063 E23.44316
G1 X17.882 Y47.775 E23.47873
G1 X17.971 Y47.501 E23.51323
G1 X18.085 Y47.212 E23.55043
G1 X18.191 Y46.985 E23.58042
G1 X18.338 Y46.716 E23.61713
G1 X18.509 Y46.447 E23.65529
G1 X18.657 Y46.241 E23.68567
G1 X18.853 Y46.006 E23.72231
G1 X19.053 Y45.793 E23.75729
G1 X19.263 Y45.597 E23.79169
G1 X19.489 Y45.41 E23.82681
G1 X19.634 Y45.305 E23.84824
G1 X20.153 Y44.879 E23.92864
G1 X20.62 Y44.383 E24.01021
G1 X21.022 Y43.831 E24.09198
G1 X21.352 Y43.233 E24.17376
G1 X21.603 Y42.598 E24.25551
G1 X21.772 Y41.935 E24.33744
G1 X21.855 Y41.264 E24.41839
G1 X21.865 Y40.919 E24.45972
G1 X21.787 Y20.297 E26.92894
G1 X21.813 Y19.771 E26.992
G1 X21.849 Y19.484 E27.02663
G1 X21.905 Y19.187 E27.06282
G1 X21.97 Y18.932 E27.09433
G1 X22.069 Y18.625 E27.13296
G1 X22.164 Y18.382 E27.1642
G1 X22.303 Y18.088 E27.20313
G1 X22.432 Y17.853 E27.23523
G1 X22.584 Y17.613 E27.26925
G1 X22.765 Y17.367 E27.30582
G0 F2400 X35.242 Y29.62
G1 F900 X34.845 Y30.176 E27.38762
G1 X34.523 Y30.778 E27.46936
G1 X34.279 Y31.416 E27.55115
G1 X34.117 Y32.084 E27.63346
G1 X34.036 Y33.024 E27.74642
G1 X34.165 Y67.053 E31.82097
G1 X34.21 Y67.722 E31.90125
G1 X34.341 Y68.392 E31.98299
G1 X34.556 Y69.04 E32.06474
G1 X34.851 Y69.656 E32.14652
G1 X35.222 Y70.229 E32.22826
G1 X35.661 Y70.752 E32.31002
G1 X36.164 Y71.214 E32.39179
G1 X36.72 Y71.611 E32.47359
G1 X37.321 Y71.933 E32.55523
G1 X37.959 Y72.177 E32.63702
G1 X38.628 Y72.339 E32.71944
G1 X39.567 Y72.42 E32.83229
G1 X50.598 Y72.379 E34.15311
G1 X51.266 Y72.334 E34.23328
G1 X51.937 Y72.203 E34.31514
G1 X52.585 Y71.988 E34.39689
G1 X53.2 Y71.693 E34.47856
G1 X53.774 Y71.324 E34.56026
G1 X54.297 Y70.884 E34.6421
G1 X54.759 Y70.381 E34.72388
G1 X55.156 Y69.825 E34.80568
G1 X55.478 Y69.222 E34.88753
G1 X55.722 Y68.585 E34.96921
G1 X55.884 Y67.917 E35.05151
G1 X55.965 Y66.976 E35.1646
G1 X55.836 Y32.946 E39.23926
G1 X55.791 Y32.277 E39.31954
G1 X55.66 Y31.607 E39.40129
G1 X55.445 Y30.959 E39.48303
G1 X55.15 Y30.343 E39.56481
G1 X54.779 Y29.77 E39.64655
G1 X54.34 Y29.247 E39.72831
G1 X53.837 Y28.785 E39.81008
G1 X53.281 Y28.388 E39.89189
G1 X52.68 Y28.066 E39.97353
G1 X52.042 Y27.822 E40.05531
G1 X51.373 Y27.66 E40.13773
G1 X50.433 Y27.579 E40.2507
G1 X39.403 Y27.621 E41.5714
G1 X38.734 Y27.666 E41.65169
G1 X38.064 Y27.797 E41.73343
G1 X37.416 Y28.012 E41.81518
G1 X36.8 Y28.307 E41.89696
G1 X36.227 Y28.678 E41.97869
G1 X35.704 Y29.117 E42.06045
G1 X35.242 Y29.62 E42.14223
G0 F2400 X35.2 Y29.679
G1 F900 X35.2 Y15.436 E43.84764
G0 F2400 X33.6 Y15.442
G1 F900 X33.6 Y84.644 E52.13364
G0 F2400 X32 Y84.65
G1 F900 X32 Y15.448 E60.41965
G0 F2400 X30.4 Y15.454
G1 F900 X30.4 Y84.656 E68.70565
G0 F2400 X28.8 Y84.662
G1 F900 X28.8 Y15.46 E76.99165
G0 F2400 X27.2 Y15.466
G1 F900 X27.2 Y84.668 E85.27766
G0 F2400 X25.6 Y84.517
G1 F900 X25.6 Y15.567 E93.53349
G0 F2400 X24 Y16.219
G1 F900 X24 Y83.756 E101.62013
G0 F2400 X22.4 Y81.777
G1 F900 X22.4 Y17.911 E109.26722
G0 F2400 X36.8 Y15.43
G1 F900 X36.8 Y28.307 E110.80907
G0 F2400 X38.4 Y27.732
G1 F900 X38.4 Y15.424 E112.28279
G0 F2400 X40 Y15.418
G1 F900 X40 Y27.619 E113.74369
G0 F2400 X41.6 Y27.613
G1 F900 X41.6 Y15.412 E115.2046
G0 F2400 X43.2 Y15.406
G1 F900 X43.2 Y27.607 E116.6655
G0 F2400 X44.8 Y27.601
G1 F900 X44.8 Y15.4 E118.12641
G0 F2400 X46.4 Y15.394
G1 F900 X46.4 Y27.595 E119.58731
G0 F2400 X48 Y27.589
G1 F900 X48 Y15.388 E121.04822
G0 F2400 X49.6 Y15.382
G1 F900 X49.6 Y27.583 E122.50912
G0 F2400 X51.2 Y27.645
G1 F900 X51.2 Y15.376 E123.97817
G0 F2400 X52.8 Y15.37
G1 F900 X52.8 Y28.13 E125.506
G0 F2400 X54.4 Y29.318
G1 F900 X54.4 Y15.364 E127.17681
G0 F2400 X56 Y15.358
G1 F900 X56 Y84.559 E135.46269
G0 F2400 X54.4 Y84.565
G1 F900 X54.4 Y70.771 E137.11434
G0 F2400 X52.8 Y71.884
G1 F900 X52.8 Y84.571 E138.63343
G0 F2400 X51.2 Y84.577
G1 F900 X51.2 Y72.338 E140.09889
G0 F2400 X49.6 Y72.382
G1 F900 X49.6 Y84.583 E141.55979
G0 F2400 X48 Y84.589
G1 F900 X48 Y72.388 E143.0207
G0 F2400 X46.4 Y72.394
G1 F900 X46.4 Y84.595 E144.4816
G0 F2400 X44.8 Y84.601
G1 F900 X44.8 Y72.4 E145.94251
G0 F2400 X43.2 Y72.406
G1 F900 X43.2 Y84.607 E147.40341
G0 F2400 X41.6 Y84.613
G1 F900 X41.6 Y72.412 E148.86432
G0 F2400 X40 Y72.418
G1 F900 X40 Y84.619 E150.32522
G0 F2400 X38.4 Y84.626
G1 F900 X38.4 Y72.284 E151.80301
G0 F2400 X36.8 Y71.654
G1 F900 X36.8 Y84.632 E153.35695
G0 F2400 X35.2 Y84.638
G1 F900 X35.2 Y70.196 E155.08619
G0 F2400 X20.8 Y55.993
G1 F900 X20.8 Y44.135 E156.50602
G0 F2400 X19.2 Y45.655
G1 F900 X19.2 Y54.519 E157.56736
G0 F2400 X36.459 Y70.86
G0 X57.6 Y84.553
G1 F900 X57.6 Y15.351 E165.85337
G0 F2400 X59.2 Y15.345
G1 F900 X59.2 Y84.547 E174.13937
G0 F2400 X60.8 Y84.54
G1 F900 X60.8 Y15.339 E182.42526
G0 F2400 X62.4 Y15.333
G1 F900 X62.4 Y84.534 E190.71114
G0 F2400 X64 Y84.488
G1 F900 X64 Y15.399 E198.98362
G0 F2400 X65.6 Y15.975
G1 F900 X65.6 Y84.01 E207.12989
G0 F2400 X67.2 Y82.673
G1 F900 X67.2 Y17.492 E214.93443
G0 F2400 X68.568 Y41.362
G0 X68.8 Y43.429
G1 F900 X68.8 Y56.494 E216.49879
G0 F2400 X70.4 Y54.673
G1 F900 X70.4 Y45.166 E217.63712
G0 F2400 X72 Y47.277
G1 F900 X72 Y52.576 E218.27161
G0 F2400 X54.007 Y29.569
G0 X51.806 Y27.764
;TIME_ELAPSED:135.907907
;LAYER:-5
G0 X51.806 Y27.764 Z0.66
;TYPE:SUPPORT
G1 F900 X39.462 Y15.42 E220.01348
G1 X38.053 Y15.426 E220.15407
G1 X50.206 Y27.579 E221.86899
G1 X48.797 Y27.584 E222.00958
G1 X36.644 Y15.431 E223.7245
G1 X35.235 Y15.436 E223.86509
G1 X47.388 Y27.589 E225.58001
G1 X45.98 Y27.595 E225.72051
G1 X33.826 Y15.441 E227.43557
G1 X32.418 Y15.447 E227.57606
G1 X44.571 Y27.6 E229.29098
G1 X43.162 Y27.606 E229.43157
G1 X31.008 Y15.452 E231.14663
G1 X29.6 Y15.458 E231.28712
G1 X41.753 Y27.611 E233.00204
G1 X40.344 Y27.616 E233.14263
G1 X28.19 Y15.463 E234.85762
G1 X26.781 Y15.467 E234.99821
G1 X38.963 Y27.649 E236.71723
G1 X38.733 Y27.665 E236.74023
G1 X38.062 Y27.797 E236.80847
G1 X37.787 Y27.888 E236.83737
G1 X25.491 Y15.592 E238.57247
G1 X25.334 Y15.628 E238.58854
G1 X25.058 Y15.71 E238.61727
G1 X24.779 Y15.81 E238.64684
G1 X24.532 Y15.919 E238.67378
G1 X24.448 Y15.963 E238.68324
G1 X36.794 Y28.309 E240.4254
G1 X36.225 Y28.678 E240.49307
G1 X35.966 Y28.895 E240.52678
G1 X23.59 Y16.519 E242.27317
G1 X23.56 Y16.542 E242.27694
G1 X23.171 Y16.896 E242.32942
G1 X22.884 Y17.227 E242.37313
G1 X35.258 Y29.601 E244.11924
G1 X35.241 Y29.619 E244.12171
G1 X34.844 Y30.175 E244.18988
G1 X34.696 Y30.453 E244.2213
G1 X22.312 Y18.069 E245.96882
G1 X22.302 Y18.087 E245.97087
G1 X22.163 Y18.381 E246.00332
G1 X22.068 Y18.625 E246.02945
G1 X21.969 Y18.932 E246.06164
G1 X21.926 Y19.098 E246.07875
G1 X34.272 Y31.443 E247.82083
G1 X34.116 Y32.084 E247.88666
G1 X34.067 Y32.653 E247.94364
G1 X21.785 Y20.371 E249.67676
G1 X21.791 Y21.791 E249.81845
G1 X34.039 Y34.039 E251.54678
G1 X34.045 Y35.459 E251.68847
G1 X21.796 Y23.21 E253.41693
G1 X21.802 Y24.63 E253.55862
G1 X34.05 Y36.878 E255.28695
G1 X34.055 Y38.298 E255.42864
G1 X21.807 Y26.049 E257.15703
G1 X21.812 Y27.469 E257.29872
G1 X34.06 Y39.717 E259.02705
G1 X34.066 Y41.137 E259.16874
G1 X21.818 Y28.889 E260.89706
G1 X21.823 Y30.308 E261.03865
G1 X34.071 Y42.557 E262.76705
G1 X34.076 Y43.976 E262.90864
G1 X21.829 Y31.728 E264.63689
G1 X21.834 Y33.148 E264.77858
G1 X34.082 Y45.396 E266.5069
G1 X34.088 Y46.816 E266.64859
G1 X21.839 Y34.567 E268.37706
G1 X21.845 Y35.987 E268.51875
G1 X34.093 Y48.235 E270.24708
G1 X34.098 Y49.655 E270.38876
G1 X21.851 Y37.407 E272.11702
G1 X21.855 Y38.826 E272.25861
G1 X34.104 Y51.075 E273.98707
G1 X34.109 Y52.494 E274.12866
G1 X21.861 Y40.246 E275.85699
G1 X21.864 Y40.918 E275.92404
G1 X21.854 Y41.263 E275.95848
G1 X21.811 Y41.61 E275.99337
G1 X34.115 Y53.914 E277.7296
G1 X34.12 Y55.333 E277.87119
G1 X21.54 Y42.753 E279.64636
G1 X21.351 Y43.232 E279.69774
G1 X21.085 Y43.713 E279.75258
G1 X34.125 Y56.753 E281.59267
G1 X34.131 Y58.172 E281.73426
G1 X20.484 Y44.525 E283.66
G1 X20.153 Y44.877 E283.70821
G1 X19.751 Y45.207 E283.76011
G1 X34.136 Y59.592 E285.78998
G1 X34.141 Y61.012 E285.93167
G1 X18.989 Y45.859 E288.06986
G1 X18.852 Y46.005 E288.08983
G1 X18.657 Y46.239 E288.12023
G1 X18.508 Y46.446 E288.14567
G1 X18.374 Y46.658 E288.1707
G1 X34.147 Y62.431 E290.39644
G1 X34.152 Y63.851 E290.53813
G1 X17.929 Y47.627 E292.82744
G1 X17.882 Y47.774 E292.84284
G1 X17.809 Y48.062 E292.87249
G1 X17.756 Y48.337 E292.90043
G1 X17.72 Y48.644 E292.93127
G1 X17.71 Y48.823 E292.94916
G1 X34.158 Y65.27 E295.27008
G1 X34.163 Y66.69 E295.41177
G1 X17.699 Y50.226 E297.73502
G1 X17.703 Y51.031 E297.81534
G1 X17.713 Y51.232 E297.83542
G1 X17.756 Y51.697 E297.88202
G1 X34.315 Y68.256 E300.21867
G1 X34.341 Y68.391 E300.23239
G1 X34.556 Y69.039 E300.30051
G1 X34.851 Y69.654 E300.36857
G1 X35.222 Y70.228 E300.43677
G1 X35.66 Y70.751 E300.50484
G1 X36.163 Y71.213 E300.57299
G1 X36.72 Y71.61 E300.64124
G1 X37.321 Y71.932 E300.70927
G1 X37.958 Y72.175 E300.7773
G0 F2400 X22.461 Y81.916
G1 F900 X22.611 Y82.206 E300.80987
G1 X22.739 Y82.421 E300.83484
G1 X22.929 Y82.694 E300.86803
G1 X23.085 Y82.894 E300.89334
G1 X23.439 Y83.283 E300.94582
G1 X23.911 Y83.69 E301.00801
G1 X24.157 Y83.871 E301.03848
G1 X24.395 Y84.021 E301.06655
G1 X24.639 Y84.154 E301.09428
G1 X24.864 Y84.261 E301.11914
G1 X22.415 Y81.812 E301.46472
G1 X22.355 Y81.674 E301.47973
G1 X22.252 Y81.393 E301.5096
G1 X22.172 Y81.117 E301.53827
G1 X22.111 Y80.853 E301.56531
G1 X22.061 Y80.535 E301.59743
G1 X22.019 Y80.026 E301.64839
G1 X22.017 Y80 E301.65099
G1 X26.677 Y84.659 E302.30849
G1 X26.839 Y84.668 E302.32468
G1 X28.094 Y84.663 E302.44991
G1 X22.007 Y78.576 E303.30885
G1 X22.003 Y77.157 E303.45044
G1 X29.503 Y84.657 E304.50877
G1 X30.912 Y84.652 E304.64936
G1 X21.997 Y75.737 E305.90736
G1 X21.991 Y74.317 E306.04905
G1 X32.321 Y84.647 E307.50673
G1 X33.73 Y84.642 E307.64732
G1 X21.986 Y72.898 E309.30453
G1 X21.981 Y71.478 E309.44621
G1 X35.138 Y84.636 E311.30288
G1 X36.547 Y84.63 E311.44347
G1 X21.975 Y70.058 E313.49974
G1 X21.969 Y68.638 E313.64143
G1 X37.956 Y84.625 E315.89737
G1 X39.365 Y84.62 E316.03796
G1 X21.964 Y67.219 E318.49343
G1 X21.959 Y65.799 E318.63512
G1 X40.774 Y84.615 E321.29019
G1 X42.183 Y84.609 E321.43078
G1 X21.953 Y64.379 E324.28545
G1 X21.948 Y62.96 E324.42704
G1 X43.592 Y84.604 E327.48124
G1 X45 Y84.598 E327.62173
G1 X21.942 Y61.54 E330.87547
G1 X21.937 Y60.121 E331.01706
G1 X46.41 Y84.594 E334.47046
G1 X47.818 Y84.588 E334.61095
G1 X21.894 Y58.664 E338.26911
G1 X21.89 Y58.592 E338.2763
G1 X21.759 Y57.921 E338.34452
G1 X21.544 Y57.274 E338.41255
G1 X21.249 Y56.658 E338.4807
G1 X21.15 Y56.505 E338.49888
G1 X49.228 Y84.583 E342.46099
G1 X50.636 Y84.577 E342.60148
G1 X38.323 Y72.264 E344.33898
G1 X38.627 Y72.338 E344.3702
G1 X39.566 Y72.419 E344.46424
G1 X39.891 Y72.418 E344.49667
G1 X52.045 Y84.572 E346.21173
G1 X53.454 Y84.567 E346.35232
G1 X41.299 Y72.412 E348.06752
G1 X42.709 Y72.407 E348.20822
G1 X54.863 Y84.561 E349.92328
G1 X56.272 Y84.556 E350.06387
G1 X44.118 Y72.402 E351.77893
G1 X45.527 Y72.397 E351.91952
G1 X57.68 Y84.55 E353.63444
G1 X59.09 Y84.545 E353.77513
G1 X46.936 Y72.392 E355.49012
G1 X48.344 Y72.386 E355.63061
G1 X60.498 Y84.54 E357.34567
G1 X61.907 Y84.535 E357.48627
G1 X49.754 Y72.381 E359.20126
G1 X50.597 Y72.378 E359.28537
G1 X51.129 Y72.342 E359.33858
