;FLAVOR:Marlin
;TIME:4047
;Filament used: 2.85502m
;Layer height: 0.2
;Generated with Cura_SteamEngine 3.6.0
M104 S200
M105
M109 S200
M82 ;absolute extrusion mode
G28 ;Home
G1 Z15.0 F6000 ;Move the platform down 15mm
;Prime the extruder
G92 E0
G1 F200 E3
G92 E0
G92 E0
G1 F1500 E-6.5
;LAYER_COUNT:50
;LAYER:-6
M107
G0 F2400 X18.001 Y9.616 Z0.36
;TYPE:SUPPORT-INTERFACE
G1 F1500 E0
G1 F900 X18.089 Y9.471 E0.02031
G1 X18.446 Y8.935 E0.09742
G1 X18.554 Y8.786 E0.11945
G1 X18.933 Y8.309 E0.1924
G1 X19.067 Y8.153 E0.21703
G1 X19.508 Y7.686 E0.29394
G1 X19.637 Y7.561 E0.31544
G1 X20.118 Y7.132 E0.39262
G1 X20.258 Y7.017 E0.41431
G1 X20.78 Y6.627 E0.49233
G1 X20.918 Y6.534 E0.51225
G1 X21.475 Y6.188 E0.59077
G1 X21.62 Y6.107 E0.61065
G1 X22.203 Y5.811 E0.68894
G1 X22.364 Y5.738 E0.71011
G1 X22.955 Y5.499 E0.78644
G1 X23.125 Y5.438 E0.80807
G1 X23.722 Y5.253 E0.8829
G1 X23.928 Y5.2 E0.90837
G1 X24.536 Y5.069 E0.98284
G1 X24.735 Y5.035 E1.00702
G1 X25.328 Y4.96 E1.07859
G1 X25.553 Y4.941 E1.10562
G1 X26.167 Y4.915 E1.17921
G1 X26.35 Y4.916 E1.20112
G1 X26.961 Y4.942 E1.27434
G1 X27.164 Y4.958 E1.29873
G1 X27.782 Y5.038 E1.37334
G1 X27.979 Y5.072 E1.39728
G1 X28.594 Y5.205 E1.47262
G1 X28.769 Y5.251 E1.49428
G1 X29.352 Y5.431 E1.56734
G1 X29.576 Y5.511 E1.59582
G1 X30.138 Y5.739 E1.66844
G1 X30.299 Y5.812 E1.68961
G1 X30.877 Y6.105 E1.7672
G1 X31.029 Y6.191 E1.78811
G1 X31.725 Y6.628 E1.88651
G1 X32.231 Y6.997 E1.9615
G1 X32.549 Y7.261 E2.01098
G1 X32.868 Y7.551 E2.0626
G1 X33.137 Y7.821 E2.10824
G1 X33.548 Y8.281 E2.1821
G1 X34.01 Y8.864 E2.27117
G1 X34.459 Y9.363 E2.35154
G1 X34.976 Y9.808 E2.43322
G1 X35.547 Y10.185 E2.51515
G1 X36.159 Y10.486 E2.59681
G1 X36.805 Y10.709 E2.67864
G1 X37.475 Y10.847 E2.76055
G1 X38.22 Y10.9 E2.84998
G1 X68.683 Y10.904 E6.49751
G1 X69.06 Y10.928 E6.54274
G1 X69.358 Y10.965 E6.5787
G1 X69.642 Y11.02 E6.61333
G1 X69.933 Y11.096 E6.64934
G1 X70.191 Y11.18 E6.68183
G1 X70.47 Y11.291 E6.71779
G1 X70.728 Y11.413 E6.75196
G1 X70.987 Y11.557 E6.78744
G1 X71.203 Y11.694 E6.81807
G1 X71.472 Y11.894 E6.8582
G1 X71.954 Y12.315 E6.93483
G1 X72.3 Y12.704 E6.99717
G1 X72.467 Y12.919 E7.02976
G1 X72.623 Y13.15 E7.06314
G1 X72.781 Y13.418 E7.10039
G1 X72.913 Y13.677 E7.1352
G1 X73.016 Y13.916 E7.16636
G1 X73.123 Y14.214 E7.20427
G1 X73.203 Y14.493 E7.23902
G1 X73.259 Y14.754 E7.27099
G1 X73.307 Y15.074 E7.30973
G1 X73.343 Y15.535 E7.3651
G1 X73.35 Y15.72 E7.38726
G1 X73.346 Y19.433 E7.83185
G1 X73.322 Y19.81 E7.87708
G1 X73.285 Y20.108 E7.91303
G1 X73.23 Y20.392 E7.94767
G1 X73.154 Y20.683 E7.98368
G1 X73.07 Y20.941 E8.01617
G1 X72.959 Y21.22 E8.05212
G1 X72.837 Y21.478 E8.0863
G1 X72.693 Y21.737 E8.12178
G1 X72.554 Y21.956 E8.15284
G1 X72.356 Y22.222 E8.19254
G1 X71.935 Y22.704 E8.26917
G1 X71.548 Y23.048 E8.33117
G1 X71.331 Y23.217 E8.3641
G1 X71.1 Y23.373 E8.39748
G1 X70.832 Y23.531 E8.43473
G1 X70.575 Y23.661 E8.46921
G1 X70.306 Y23.776 E8.50424
G1 X70.049 Y23.869 E8.53697
G1 X69.757 Y23.953 E8.57335
G1 X69.496 Y24.009 E8.60531
G1 X69.176 Y24.057 E8.64405
G1 X68.708 Y24.093 E8.70026
G1 X68.516 Y24.1 E8.72326
G1 X39.677 Y24.1 E12.17634
G1 X39.009 Y24.142 E12.25648
G1 X38.338 Y24.271 E12.3383
G1 X37.689 Y24.484 E12.42008
G1 X37.072 Y24.776 E12.50182
G1 X36.497 Y25.144 E12.58356
G1 X35.973 Y25.582 E12.66533
G1 X35.509 Y26.082 E12.74701
G1 X35.11 Y26.638 E12.82895
G1 X34.786 Y27.238 E12.9106
G1 X34.54 Y27.874 E12.99225
G1 X34.374 Y28.543 E13.07478
G1 X34.29 Y29.482 E13.18766
G1 X34.29 Y70.513 E18.10057
G1 X34.332 Y71.181 E18.18071
G1 X34.461 Y71.852 E18.26253
G1 X34.674 Y72.501 E18.34431
G1 X34.966 Y73.118 E18.42605
G1 X35.334 Y73.693 E18.50779
G1 X35.772 Y74.217 E18.58956
G1 X36.272 Y74.681 E18.67124
G1 X36.828 Y75.08 E18.75318
G1 X37.428 Y75.404 E18.83483
G1 X38.064 Y75.65 E18.91648
G1 X38.733 Y75.816 E18.99901
G1 X39.672 Y75.9 E19.11189
G1 X68.683 Y75.904 E22.58557
G1 X69.06 Y75.928 E22.6308
G1 X69.358 Y75.965 E22.66675
G1 X69.642 Y76.02 E22.70139
G1 X69.933 Y76.096 E22.7374
G1 X70.191 Y76.18 E22.76989
G1 X70.47 Y76.291 E22.80584
G1 X70.728 Y76.413 E22.84002
G1 X70.987 Y76.557 E22.8755
G1 X71.206 Y76.696 E22.90656
G1 X71.472 Y76.894 E22.94626
G1 X71.954 Y77.315 E23.02289
G1 X72.3 Y77.704 E23.08523
G1 X72.467 Y77.919 E23.11782
G1 X72.623 Y78.15 E23.1512
G1 X72.781 Y78.418 E23.18845
G1 X72.913 Y78.677 E23.22326
G1 X73.016 Y78.916 E23.25442
G1 X73.123 Y79.214 E23.29233
G1 X73.203 Y79.493 E23.32708
G1 X73.259 Y79.754 E23.35905
G1 X73.307 Y80.074 E23.39779
G1 X73.343 Y80.535 E23.45316
G1 X73.35 Y80.72 E23.47532
G1 X73.346 Y84.433 E23.91991
G1 X73.322 Y84.807 E23.96478
G1 X73.285 Y85.108 E24.00109
G1 X73.23 Y85.392 E24.03573
G1 X73.154 Y85.683 E24.07174
G1 X73.07 Y85.941 E24.10423
G1 X72.959 Y86.22 E24.14018
G1 X72.837 Y86.478 E24.17435
G1 X72.693 Y86.737 E24.20984
G1 X72.554 Y86.956 E24.24089
G1 X72.356 Y87.222 E24.2806
G1 X71.935 Y87.704 E24.35723
G1 X71.548 Y88.048 E24.41922
G1 X71.331 Y88.217 E24.45216
G1 X71.1 Y88.373 E24.48553
G1 X70.832 Y88.531 E24.52278
G1 X70.575 Y88.661 E24.55727
G1 X70.306 Y88.776 E24.5923
G1 X70.049 Y88.869 E24.62502
G1 X69.757 Y88.953 E24.6614
G1 X69.496 Y89.009 E24.69337
G1 X69.176 Y89.057 E24.73211
G1 X68.708 Y89.093 E24.78831
G1 X68.516 Y89.1 E24.81132
G1 X38.215 Y89.101 E28.43945
G1 X37.547 Y89.143 E28.5196
G1 X36.876 Y89.272 E28.60141
G1 X36.226 Y89.485 E28.68331
G1 X35.61 Y89.778 E28.76499
G1 X35.035 Y90.146 E28.84673
G1 X34.51 Y90.584 E28.92859
G1 X33.999 Y91.143 E29.01928
G1 X33.441 Y91.841 E29.12628
G1 X33.031 Y92.287 E29.19882
G1 X32.77 Y92.54 E29.24234
G1 X32.457 Y92.818 E29.29247
G1 X32.113 Y93.093 E29.3452
G1 X31.619 Y93.442 E29.41762
G1 X31.029 Y93.809 E29.50082
G1 X30.878 Y93.894 E29.52157
G1 X30.302 Y94.187 E29.59894
G1 X30.138 Y94.261 E29.62049
G1 X29.576 Y94.489 E29.69311
G1 X29.352 Y94.569 E29.72159
G1 X28.769 Y94.749 E29.79464
G1 X28.599 Y94.794 E29.8157
G1 X27.961 Y94.932 E29.89386
G1 X27.789 Y94.962 E29.91476
G1 X27.149 Y95.043 E29.99201
G1 X26.969 Y95.058 E30.01363
G1 X26.319 Y95.085 E30.09153
G1 X26.137 Y95.084 E30.11332
G1 X25.519 Y95.057 E30.18739
G1 X25.324 Y95.04 E30.21083
G1 X24.695 Y94.959 E30.28676
G1 X24.521 Y94.929 E30.3079
G1 X23.894 Y94.792 E30.38475
G1 X23.681 Y94.735 E30.41115
G1 X22.91 Y94.486 E30.50816
G1 X22.334 Y94.251 E30.58265
G1 X22.17 Y94.175 E30.60429
G1 X21.59 Y93.877 E30.68237
G1 X21.416 Y93.777 E30.7064
G1 X20.925 Y93.469 E30.7758
G1 X20.734 Y93.338 E30.80353
G1 X20.241 Y92.967 E30.87741
G1 X20.079 Y92.835 E30.90243
G1 X19.619 Y92.421 E30.97653
G1 X19.48 Y92.285 E30.99982
G1 X19.048 Y91.827 E31.0752
G1 X18.937 Y91.697 E31.09567
G1 X18.536 Y91.191 E31.17298
G1 X18.417 Y91.027 E31.19724
G1 X18.083 Y90.519 E31.27003
G1 X17.961 Y90.316 E31.29839
G1 X17.669 Y89.774 E31.37211
G1 X17.591 Y89.613 E31.39353
G1 X17.34 Y89.036 E31.46887
G1 X17.268 Y88.848 E31.49298
G1 X17.069 Y88.259 E31.56742
G1 X17.019 Y88.084 E31.58921
G1 X16.867 Y87.463 E31.66576
G1 X16.826 Y87.26 E31.69056
G1 X16.731 Y86.643 E31.76531
G1 X16.712 Y86.473 E31.78579
G1 X16.669 Y85.836 E31.86223
G1 X16.664 Y85.632 E31.88667
G1 X16.677 Y84.995 E31.96295
G1 X16.689 Y84.807 E31.98551
G1 X16.753 Y84.197 E32.05895
G1 X16.782 Y83.999 E32.08291
G1 X16.905 Y83.362 E32.16059
G1 X16.946 Y83.187 E32.18211
G1 X17.118 Y82.581 E32.25754
G1 X17.176 Y82.404 E32.27984
G1 X17.409 Y81.788 E32.3587
G1 X17.473 Y81.64 E32.37801
G1 X17.749 Y81.068 E32.45405
G1 X17.842 Y80.894 E32.47768
G1 X18.15 Y80.372 E32.55025
G1 X18.285 Y80.165 E32.57984
G1 X18.614 Y79.581 E32.6601
G1 X18.871 Y78.948 E32.7419
G1 X19.047 Y78.288 E32.82369
G1 X19.137 Y77.618 E32.90463
G1 X19.15 Y77.24 E32.94992
G1 X19.15 Y22.754 E39.47388
G1 X19.108 Y22.086 E39.55402
G1 X18.979 Y21.415 E39.63584
G1 X18.766 Y20.766 E39.71762
G1 X18.476 Y20.154 E39.79871
G1 X18.288 Y19.84 E39.84253
G1 X18.144 Y19.618 E39.87422
G1 X17.824 Y19.073 E39.94989
G1 X17.723 Y18.883 E39.97566
G1 X17.465 Y18.339 E40.04775
G1 X17.387 Y18.154 E40.07179
G1 X17.163 Y17.556 E40.14825
G1 X17.108 Y17.389 E40.1693
G1 X16.941 Y16.792 E40.24353
G1 X16.892 Y16.58 E40.26958
G1 X16.776 Y15.967 E40.34428
G1 X16.75 Y15.781 E40.36677
G1 X16.688 Y15.168 E40.44054
G1 X16.675 Y14.952 E40.46645
G1 X16.666 Y14.353 E40.53818
G1 X16.672 Y14.118 E40.56633
G1 X16.716 Y13.51 E40.63932
G1 X16.738 Y13.313 E40.66305
G1 X16.834 Y12.7 E40.73735
G1 X16.87 Y12.518 E40.75956
G1 X17.02 Y11.911 E40.83443
G1 X17.084 Y11.694 E40.86152
G1 X17.277 Y11.124 E40.93357
G1 X17.351 Y10.933 E40.9581
G1 X17.596 Y10.375 E41.03107
G1 X17.695 Y10.174 E41.0579
G1 X18.001 Y9.616 E41.1341
G0 F2400 X17.6 Y10.366
G1 F900 X17.6 Y18.623 E42.12276
G0 F2400 X19.2 Y8.012
G1 F900 X19.2 Y91.988 E52.17775
G0 F2400 X20.8 Y93.383
G1 F900 X20.8 Y6.613 E62.56729
G0 F2400 X22.4 Y5.723
G1 F900 X22.4 Y94.277 E73.17043
G0 F2400 X24 Y94.815
G1 F900 X24 Y5.184 E83.90253
G0 F2400 X25.6 Y4.939
G1 F900 X25.6 Y95.06 E94.6933
G0 F2400 X27.2 Y95.037
G1 F900 X27.2 Y4.963 E105.47845
G0 F2400 X28.8 Y5.261
G1 F900 X28.8 Y94.74 E116.19235
G0 F2400 X30.4 Y94.138
G1 F900 X30.4 Y5.864 E126.76197
G0 F2400 X32 Y6.829
G1 F900 X32 Y93.173 E137.10049
G0 F2400 X33.6 Y91.643
G1 F900 X33.6 Y8.347 E147.07407
G0 F2400 X35.2 Y9.956
G1 F900 X35.2 Y26.513 E149.05654
G0 F2400 X36.8 Y24.951
G1 F900 X36.8 Y10.708 E150.76195
G0 F2400 X38.4 Y10.901
G1 F900 X38.4 Y24.26 E152.36151
G0 F2400 X40 Y24.1
G1 F900 X40 Y10.901 E153.94191
G0 F2400 X41.6 Y10.901
G1 F900 X41.6 Y24.1 E155.52231
G0 F2400 X43.2 Y24.1
G1 F900 X43.2 Y10.901 E157.10271
G0 F2400 X44.8 Y10.901
G1 F900 X44.8 Y24.1 E158.68312
G0 F2400 X46.4 Y24.1
G1 F900 X46.4 Y10.902 E160.2634
G0 F2400 X48 Y10.902
G1 F900 X48 Y24.1 E161.84368
G0 F2400 X49.6 Y24.1
G1 F900 X49.6 Y10.902 E163.42396
G0 F2400 X51.2 Y10.902
G1 F900 X51.2 Y24.1 E165.00424
G0 F2400 X52.8 Y24.1
G1 F900 X52.8 Y10.902 E166.58453
G0 F2400 X54.4 Y10.903
G1 F900 X54.4 Y24.1 E168.16469
G0 F2400 X56 Y24.1
G1 F900 X56 Y10.903 E169.74485
G0 F2400 X57.6 Y10.903
G1 F900 X57.6 Y24.1 E171.32501
G0 F2400 X59.2 Y24.1
G1 F900 X59.2 Y10.903 E172.90518
G0 F2400 X60.8 Y10.903
G1 F900 X60.8 Y24.1 E174.48534
G0 F2400 X62.4 Y24.1
G1 F900 X62.4 Y10.904 E176.06538
G0 F2400 X64 Y10.904
G1 F900 X64 Y24.1 E177.64542
G0 F2400 X65.6 Y24.1
G1 F900 X65.6 Y10.904 E179.22547
G0 F2400 X67.2 Y10.904
G1 F900 X67.2 Y24.1 E180.80551
G0 F2400 X68.8 Y24.086
G1 F900 X68.8 Y10.912 E182.38292
G0 F2400 X70.4 Y11.264
G1 F900 X70.4 Y23.736 E183.87627
G0 F2400 X72 Y22.63
G1 F900 X72 Y12.367 E185.10513
G0 F2400 X37.86 Y24.912
G0 X37.296 Y25.18
G0 X36.772 Y25.515
G0 X36.289 Y25.919
G0 X35.866 Y26.375
G0 X35.502 Y26.881
G0 X35.205 Y27.432
G0 X34.98 Y28.012
G0 X34.831 Y28.617
G0 X34.751 Y29.508
G0 X34.751 Y70.501
G0 X34.791 Y71.126
G0 X34.908 Y71.736
G0 X35.102 Y72.33
G0 X35.37 Y72.894
G0 X35.705 Y73.418
G0 X36.109 Y73.901
G0 X36.565 Y74.324
G0 X37.071 Y74.688
G0 X37.622 Y74.985
G0 X38.202 Y75.21
G0 X38.807 Y75.359
G0 X39.311 Y75.403
G0 X68.8 Y75.912
G1 F900 X68.8 Y89.086 E186.68254
G0 F2400 X67.2 Y89.101
G1 F900 X67.2 Y75.904 E188.2627
G0 F2400 X65.6 Y75.904
G1 F900 X65.6 Y89.101 E189.84286
G0 F2400 X64 Y89.101
G1 F900 X64 Y75.904 E191.42302
G0 F2400 X62.4 Y75.904
G1 F900 X62.4 Y89.101 E193.00319
G0 F2400 X60.8 Y89.101
G1 F900 X60.8 Y75.903 E194.58347
G0 F2400 X59.2 Y75.903
G1 F900 X59.2 Y89.101 E196.16375
G0 F2400 X57.6 Y89.101
G1 F900 X57.6 Y75.903 E197.74403
G0 F2400 X56 Y75.903
G1 F900 X56 Y89.101 E199.32431
G0 F2400 X54.4 Y89.101
G1 F900 X54.4 Y75.903 E200.9046
G0 F2400 X52.8 Y75.902
G1 F900 X52.8 Y89.101 E202.485
G0 F2400 X51.2 Y89.101
G1 F900 X51.2 Y75.902 E204.0654
G0 F2400 X49.6 Y75.902
G1 F900 X49.6 Y89.101 E205.6458
G0 F2400 X48 Y89.101
G1 F900 X48 Y75.902 E207.2262
G0 F2400 X46.4 Y75.901
G1 F900 X46.4 Y89.101 E208.80673
G0 F2400 X44.8 Y89.101
G1 F900 X44.8 Y75.901 E210.38725
G0 F2400 X43.2 Y75.901
G1 F900 X43.2 Y89.101 E211.96777
G0 F2400 X41.6 Y89.101
G1 F900 X41.6 Y75.901 E213.54829
G0 F2400 X40 Y75.901
G1 F900 X40 Y89.101 E215.12881
G0 F2400 X38.4 Y89.101
G1 F900 X38.4 Y75.734 E216.72933
G0 F2400 X36.8 Y75.06
G1 F900 X36.8 Y89.297 E218.43402
G0 F2400 X35.2 Y90.041
G1 F900 X35.2 Y73.484 E220.41649
G0 F2400 X17.6 Y81.376
G1 F900 X17.6 Y89.631 E221.40492
G0 F2400 X70.4 Y88.736
G1 F900 X70.4 Y76.264 E222.89827
G0 F2400 X72 Y77.367
G1 F900 X72 Y87.63 E224.12713
G0 F2400 X37.622 Y74.985
G0 X37.071 Y74.688
G0 X36.565 Y74.324
G0 X36.109 Y73.901
G0 X35.705 Y73.418
G0 X35.37 Y72.894
G0 X35.102 Y72.33
G0 X34.908 Y71.736
G0 X34.791 Y71.126
G0 X34.751 Y70.501
G0 X34.751 Y29.508
G0 X34.831 Y28.617
G0 X34.98 Y28.012
G0 X35.205 Y27.432
G0 X35.502 Y26.881
G0 X35.866 Y26.375
G0 X36.289 Y25.919
G0 X36.772 Y25.515
G0 X37.296 Y25.18
G0 X37.615 Y25.029
G0 X72.621 Y13.15
;TIME_ELAPSED:143.982524
;LAYER:-5
G0 X72.621 Y13.15 Z0.66
;TYPE:SUPPORT
G1 F900 X72.466 Y12.919 E224.15489
G1 X72.298 Y12.703 E224.18219
G1 X71.953 Y12.314 E224.23407
G1 X71.471 Y11.893 E224.29793
G1 X71.202 Y11.694 E224.33131
G1 X70.986 Y11.556 E224.35689
G1 X70.913 Y11.516 E224.3652
G1 X72.729 Y13.332 E224.62145
G1 X72.779 Y13.418 E224.63138
G1 X72.912 Y13.676 E224.66034
G1 X73.015 Y13.915 E224.68631
G1 X73.121 Y14.214 E224.71796
G1 X73.202 Y14.492 E224.74686
G1 X73.258 Y14.753 E224.77349
G1 X73.305 Y15.074 E224.80586
G1 X73.327 Y15.344 E224.83289
G1 X68.901 Y10.918 E225.45745
G1 X68.681 Y10.904 E225.47944
G1 X67.472 Y10.904 E225.60008
G1 X73.348 Y16.78 E226.42925
G1 X73.347 Y18.193 E226.57024
G1 X66.058 Y10.904 E227.59879
G1 X64.644 Y10.904 E227.73988
G1 X73.335 Y19.595 E228.96628
G1 X73.321 Y19.81 E228.98777
G1 X73.283 Y20.107 E229.01765
G1 X73.229 Y20.391 E229.0465
G1 X73.153 Y20.682 E229.07651
G1 X73.117 Y20.791 E229.08796
G1 X63.229 Y10.903 E230.48326
G1 X61.815 Y10.903 E230.62435
G1 X72.675 Y21.764 E232.15689
G1 X72.553 Y21.955 E232.1795
G1 X72.355 Y22.221 E232.21259
G1 X72.059 Y22.561 E232.25757
G1 X60.401 Y10.903 E233.90264
G1 X58.986 Y10.903 E234.04383
G1 X71.311 Y23.228 E235.78302
G1 X71.099 Y23.372 E235.80859
G1 X70.83 Y23.531 E235.83977
G1 X70.574 Y23.66 E235.86837
G1 X70.403 Y23.734 E235.88696
G1 X57.571 Y10.902 E237.6977
G1 X56.157 Y10.902 E237.83879
G1 X69.293 Y24.038 E239.69242
G1 X69.174 Y24.057 E239.70444
G1 X68.707 Y24.093 E239.75118
G1 X68.515 Y24.1 E239.77035
G1 X67.94 Y24.1 E239.82772
G1 X54.743 Y10.902 E241.69003
G1 X53.328 Y10.902 E241.83122
G1 X66.526 Y24.1 E243.6936
G1 X65.112 Y24.1 E243.83469
G1 X51.914 Y10.902 E245.69707
G1 X50.5 Y10.902 E245.83816
G1 X63.698 Y24.1 E247.70054
G1 X62.284 Y24.1 E247.84163
G1 X49.085 Y10.902 E249.70408
G1 X47.671 Y10.901 E249.84517
G1 X60.869 Y24.1 E251.70762
G1 X59.455 Y24.1 E251.84871
G1 X46.256 Y10.901 E253.71123
G1 X44.842 Y10.901 E253.85232
G1 X58.041 Y24.1 E255.71485
G1 X56.627 Y24.1 E255.85593
G1 X43.428 Y10.901 E257.71846
G1 X42.013 Y10.9 E257.85965
G1 X55.213 Y24.1 E259.72231
G1 X53.798 Y24.1 E259.8635
G1 X40.599 Y10.9 E261.72609
G1 X39.185 Y10.9 E261.86718
G1 X52.384 Y24.1 E263.72977
G1 X50.97 Y24.1 E263.87086
G1 X37.736 Y10.866 E265.73832
G1 X37.473 Y10.847 E265.76463
G1 X36.804 Y10.709 E265.83279
G1 X36.157 Y10.485 E265.90111
G1 X35.732 Y10.277 E265.94832
G1 X49.556 Y24.1 E267.89897
G1 X48.141 Y24.1 E268.04016
G1 X29.54 Y5.499 E270.66496
G1 X29.351 Y5.431 E270.685
G1 X28.767 Y5.25 E270.74601
G1 X28.593 Y5.205 E270.76394
G1 X27.978 Y5.072 E270.82672
G1 X27.781 Y5.038 E270.84667
G1 X27.648 Y5.021 E270.86005
G1 X46.727 Y24.1 E273.5523
G1 X45.313 Y24.1 E273.69339
G1 X26.13 Y4.917 E276.40032
G1 X25.552 Y4.941 E276.45804
G1 X25.327 Y4.959 E276.48056
G1 X24.822 Y5.023 E276.53136
G1 X43.899 Y24.1 E279.22333
G1 X42.485 Y24.1 E279.36442
G1 X23.657 Y5.272 E282.02125
G1 X23.124 Y5.438 E282.07695
G1 X22.954 Y5.499 E282.09497
G1 X22.609 Y5.639 E282.13213
G1 X41.07 Y24.1 E284.73717
G1 X39.676 Y24.1 E284.87627
G1 X39.657 Y24.101 E284.87816
G1 X21.648 Y6.092 E287.41943
G1 X21.619 Y6.106 E287.42264
G1 X21.474 Y6.187 E287.43921
G1 X20.917 Y6.533 E287.50464
G1 X20.773 Y6.631 E287.52202
G1 X38.4 Y24.258 E290.00938
G1 X38.337 Y24.271 E290.0158
G1 X37.688 Y24.483 E290.08393
G1 X37.364 Y24.636 E290.11968
G1 X19.981 Y7.253 E292.57261
G1 X19.636 Y7.56 E292.61869
G1 X19.507 Y7.686 E292.63668
G1 X19.26 Y7.947 E292.67254
G1 X36.474 Y25.16 E295.10155
