;FLAVOR:Marlin
;TIME:5163
;Filament used: 3.7365m
;Layer height: 0.2
;Generated with Cura_SteamEngine 3.6.0
M104 S200
M105
M109 S200
M82 ;absolute extrusion mode
G28 ;Home
G1 Z15.0 F6000 ;Move the platform down 15mm
;Prime the extruder
G92 E0
G1 F200 E3
G92 E0
G92 E0
G1 F1500 E-6.5
;LAYER_COUNT:50
;LAYER:-6
M107
G0 F2400 X20.356 Y26.399 Z0.36
;TYPE:SUPPORT-INTERFACE
G1 F1500 E0
G1 F900 X20.944 Y25.979 E0.08652
G1 X22.119 Y25.259 E0.25152
G1 X22.285 Y25.166 E0.27431
G1 X22.799 Y24.904 E0.34339
G1 X22.953 Y24.833 E0.36369
G1 X24.236 Y24.303 E0.5299
G1 X24.369 Y24.254 E0.54688
G1 X24.935 Y24.071 E0.6181
G1 X25.113 Y24.021 E0.64024
G1 X26.42 Y23.709 E0.80113
G1 X26.6 Y23.673 E0.82311
G1 X27.17 Y23.582 E0.89222
G1 X27.316 Y23.565 E0.90982
G1 X28.844 Y23.447 E1.09333
G1 X29.086 Y23.439 E1.12232
G1 X71.457 Y23.436 E6.19567
G1 X71.96 Y23.464 E6.25599
G1 X72.258 Y23.501 E6.29195
G1 X72.542 Y23.556 E6.32659
G1 X72.833 Y23.632 E6.3626
G1 X73.091 Y23.716 E6.39509
G1 X73.37 Y23.827 E6.43104
G1 X73.628 Y23.949 E6.46521
G1 X73.887 Y24.093 E6.50069
G1 X74.106 Y24.232 E6.53175
G1 X74.372 Y24.43 E6.57146
G1 X74.854 Y24.851 E6.64809
G1 X75.2 Y25.24 E6.71042
G1 X75.367 Y25.455 E6.74302
G1 X75.523 Y25.686 E6.77639
G1 X75.681 Y25.954 E6.81364
G1 X75.813 Y26.213 E6.84845
G1 X75.916 Y26.452 E6.87961
G1 X76.023 Y26.75 E6.91753
G1 X76.103 Y27.029 E6.95228
G1 X76.159 Y27.29 E6.98424
G1 X76.207 Y27.61 E7.02298
G1 X76.243 Y28.071 E7.07835
G1 X76.25 Y28.267 E7.10183
G1 X76.246 Y73.469 E12.51416
G1 X76.222 Y73.846 E12.5594
G1 X76.185 Y74.144 E12.59535
G1 X76.13 Y74.428 E12.62999
G1 X76.054 Y74.719 E12.666
G1 X75.97 Y74.977 E12.69849
G1 X75.859 Y75.256 E12.73444
G1 X75.737 Y75.514 E12.76861
G1 X75.593 Y75.773 E12.8041
G1 X75.454 Y75.992 E12.83515
G1 X75.256 Y76.258 E12.87486
G1 X74.835 Y76.74 E12.95149
G1 X74.448 Y77.084 E13.01348
G1 X74.231 Y77.253 E13.04642
G1 X74 Y77.409 E13.07979
G1 X73.732 Y77.567 E13.11704
G1 X73.475 Y77.697 E13.15153
G1 X73.206 Y77.812 E13.18656
G1 X72.949 Y77.905 E13.21928
G1 X72.657 Y77.989 E13.25566
G1 X72.396 Y78.045 E13.28763
G1 X72.076 Y78.093 E13.32637
G1 X71.608 Y78.129 E13.38257
G1 X71.416 Y78.136 E13.40558
G1 X19.217 Y78.132 E19.6557
G1 X18.84 Y78.108 E19.70093
G1 X18.542 Y78.071 E19.73689
G1 X18.258 Y78.016 E19.77153
G1 X17.967 Y77.94 E19.80754
G1 X17.707 Y77.855 E19.84029
G1 X17.43 Y77.745 E19.87598
G1 X17.171 Y77.622 E19.91031
G1 X16.913 Y77.479 E19.94563
G1 X16.694 Y77.34 E19.97669
G1 X16.428 Y77.142 E20.01639
G1 X15.946 Y76.721 E20.09302
G1 X15.6 Y76.332 E20.15536
G1 X15.433 Y76.117 E20.18795
G1 X15.274 Y75.881 E20.22203
G1 X15.119 Y75.618 E20.25858
G1 X14.989 Y75.361 E20.29306
G1 X14.873 Y75.091 E20.32825
G1 X14.781 Y74.835 E20.36082
G1 X14.697 Y74.543 E20.3972
G1 X14.641 Y74.282 E20.42917
G1 X14.593 Y73.962 E20.46791
G1 X14.556 Y73.484 E20.52532
G1 X14.55 Y73.316 E20.54544
G1 X14.552 Y37.99 E24.77526
G1 X14.569 Y37.602 E24.82176
G1 X14.681 Y36.209 E24.98909
G1 X14.704 Y36.012 E25.01284
G1 X14.822 Y35.306 E25.09854
G1 X15.143 Y33.967 E25.26341
G1 X15.367 Y33.258 E25.35244
G1 X15.429 Y33.092 E25.37366
G1 X15.953 Y31.827 E25.53761
G1 X16.037 Y31.646 E25.5615
G1 X16.297 Y31.138 E25.62983
G1 X16.376 Y30.999 E25.64897
G1 X17.093 Y29.831 E25.81307
G1 X17.197 Y29.676 E25.83542
G1 X17.521 Y29.231 E25.90133
G1 X17.644 Y29.075 E25.92512
G1 X18.528 Y28.041 E26.08801
G1 X19.05 Y27.512 E26.17699
G1 X19.18 Y27.392 E26.19818
G1 X20.212 Y26.512 E26.36057
G1 X20.356 Y26.399 E26.38249
G0 F2400 X20.8 Y26.081
G1 F900 X20.8 Y78.132 E32.61489
G0 F2400 X22.4 Y78.132
G1 F900 X22.4 Y25.107 E38.96392
G0 F2400 X24 Y24.4
G1 F900 X24 Y78.132 E45.3976
G0 F2400 X25.6 Y78.132
G1 F900 X25.6 Y23.904 E51.89067
G0 F2400 X27.2 Y23.578
G1 F900 X27.2 Y78.132 E58.42277
G0 F2400 X28.8 Y78.132
G1 F900 X28.8 Y23.45 E64.9702
G0 F2400 X30.4 Y23.438
G1 F900 X30.4 Y78.132 E71.51907
G0 F2400 X32 Y78.132
G1 F900 X32 Y23.438 E78.06794
G0 F2400 X33.6 Y23.438
G1 F900 X33.6 Y78.133 E84.61693
G0 F2400 X35.2 Y78.133
G1 F900 X35.2 Y23.438 E91.16591
G0 F2400 X36.8 Y23.438
G1 F900 X36.8 Y78.133 E97.7149
G0 F2400 X38.4 Y78.133
G1 F900 X38.4 Y23.438 E104.26389
G0 F2400 X40 Y23.438
G1 F900 X40 Y78.133 E110.81287
G0 F2400 X41.6 Y78.133
G1 F900 X41.6 Y23.438 E117.36186
G0 F2400 X43.2 Y23.438
G1 F900 X43.2 Y78.133 E123.91085
G0 F2400 X44.8 Y78.133
G1 F900 X44.8 Y23.437 E130.45995
G0 F2400 X46.4 Y23.437
G1 F900 X46.4 Y78.134 E137.00918
G0 F2400 X48 Y78.134
G1 F900 X48 Y23.437 E143.55841
G0 F2400 X49.6 Y23.437
G1 F900 X49.6 Y78.134 E150.10763
G0 F2400 X51.2 Y78.134
G1 F900 X51.2 Y23.437 E156.65686
G0 F2400 X52.8 Y23.437
G1 F900 X52.8 Y78.134 E163.20609
G0 F2400 X54.4 Y78.134
G1 F900 X54.4 Y23.437 E169.75531
G0 F2400 X56 Y23.437
G1 F900 X56 Y78.134 E176.30454
G0 F2400 X57.6 Y78.134
G1 F900 X57.6 Y23.436 E182.85389
G0 F2400 X59.2 Y23.436
G1 F900 X59.2 Y78.135 E189.40335
G0 F2400 X60.8 Y78.135
G1 F900 X60.8 Y23.436 E195.95282
G0 F2400 X62.4 Y23.436
G1 F900 X62.4 Y78.135 E202.50229
G0 F2400 X64 Y78.135
G1 F900 X64 Y23.436 E209.05175
G0 F2400 X65.6 Y23.436
G1 F900 X65.6 Y78.135 E215.60122
G0 F2400 X67.2 Y78.135
G1 F900 X67.2 Y23.436 E222.15068
G0 F2400 X68.8 Y23.436
G1 F900 X68.8 Y78.135 E228.70015
G0 F2400 X70.4 Y78.135
G1 F900 X70.4 Y23.436 E235.24962
G0 F2400 X72 Y23.469
G1 F900 X72 Y78.099 E241.79082
G0 F2400 X73.6 Y77.634
G1 F900 X73.6 Y23.936 E248.22043
G0 F2400 X75.2 Y25.24
G1 F900 X75.2 Y76.323 E254.33693
G0 F2400 X19.2 Y78.13
G1 F900 X19.2 Y27.374 E260.41427
G0 F2400 X17.6 Y29.13
G1 F900 X17.6 Y77.812 E266.24329
G0 F2400 X16 Y76.768
G1 F900 X16 Y31.725 E271.63658
G0 F2400 X17.096 Y29.824
;TIME_ELAPSED:162.739549
;LAYER:-5
G0 X17.096 Y29.824 Z0.66
;TYPE:SUPPORT
G1 F900 X65.406 Y78.134 E278.45364
G1 X66.82 Y78.134 E278.59473
G1 X17.697 Y29.011 E285.52651
G1 X18.349 Y28.248 E285.62666
G1 X68.235 Y78.134 E292.66611
G1 X69.649 Y78.134 E292.8072
G1 X19.038 Y27.523 E299.94896
G1 X19.05 Y27.511 E299.95065
G1 X19.18 Y27.391 E299.9683
G1 X19.795 Y26.866 E300.04899
G1 X71.063 Y78.134 E307.28346
G1 X71.416 Y78.135 E307.31868
G1 X71.607 Y78.128 E307.33775
G1 X72.076 Y78.092 E307.38469
G1 X72.387 Y78.044 E307.41608
G1 X20.581 Y26.237 E314.72654
G1 X20.943 Y25.978 E314.77095
G1 X21.435 Y25.677 E314.82851
G1 X73.459 Y77.701 E322.16965
G1 X73.474 Y77.696 E322.17123
G1 X73.732 Y77.566 E322.20006
G1 X74 Y77.408 E322.2311
G1 X74.231 Y77.252 E322.25891
G1 X74.338 Y77.167 E322.27255
G1 X22.319 Y25.148 E329.61299
G1 X22.799 Y24.903 E329.66676
G1 X22.952 Y24.832 E329.68359
G1 X23.282 Y24.696 E329.71921
G1 X75.063 Y76.477 E337.02607
G1 X75.255 Y76.257 E337.0552
G1 X75.453 Y75.991 E337.08829
G1 X75.592 Y75.772 E337.11417
G1 X75.656 Y75.656 E337.12739
G1 X24.284 Y24.284 E344.37654
G1 X24.368 Y24.253 E344.38547
G1 X24.933 Y24.071 E344.4447
G1 X25.112 Y24.02 E344.46327
G1 X25.373 Y23.958 E344.49004
G1 X76.069 Y74.655 E351.64386
G1 X76.129 Y74.427 E351.66739
G1 X76.184 Y74.143 E351.69625
G1 X76.221 Y73.845 E351.72621
G1 X76.245 Y73.469 E351.76381
G1 X76.245 Y73.417 E351.76899
G1 X26.517 Y23.689 E358.78615
G1 X26.599 Y23.673 E358.79449
G1 X27.169 Y23.582 E358.85208
G1 X27.315 Y23.565 E358.86675
G1 X27.773 Y23.53 E358.91258
G1 X76.245 Y72.003 E365.75258
G1 X76.245 Y70.589 E365.89367
G1 X29.095 Y23.438 E372.54711
G1 X30.509 Y23.438 E372.6882
G1 X76.245 Y69.174 E379.14204
G1 X76.245 Y67.76 E379.28313
G1 X31.923 Y23.438 E385.53745
G1 X33.337 Y23.438 E385.67854
G1 X76.245 Y66.346 E391.73332
G1 X76.246 Y64.932 E391.87441
G1 X34.752 Y23.438 E397.72966
G1 X36.166 Y23.438 E397.87075
G1 X76.246 Y63.518 E403.52647
G1 X76.246 Y62.104 E403.66756
G1 X37.58 Y23.438 E409.12375
G1 X38.994 Y23.438 E409.26484
G1 X76.246 Y60.69 E414.5215
G1 X76.246 Y59.276 E414.66259
G1 X40.409 Y23.438 E419.71965
G1 X41.823 Y23.438 E419.86074
G1 X76.247 Y57.862 E424.71833
G1 X76.247 Y56.448 E424.85942
G1 X43.236 Y23.437 E429.51763
G1 X44.65 Y23.437 E429.65872
G1 X76.247 Y55.034 E434.1174
G1 X76.247 Y53.619 E434.25859
G1 X46.065 Y23.437 E438.5176
G1 X47.479 Y23.437 E438.65868
G1 X76.247 Y52.205 E442.71816
G1 X76.248 Y50.792 E442.85915
G1 X48.893 Y23.437 E446.71924
G1 X50.307 Y23.437 E446.86033
G1 X76.248 Y49.377 E450.52081
G1 X76.248 Y47.963 E450.6619
G1 X51.722 Y23.437 E454.12278
G1 X53.136 Y23.437 E454.26387
G1 X76.248 Y46.549 E457.52523
G1 X76.248 Y45.135 E457.66632
G1 X54.55 Y23.437 E460.72814
G1 X55.964 Y23.437 E460.86923
G1 X76.248 Y43.721 E463.73152
G1 X76.248 Y42.307 E463.87261
G1 X57.378 Y23.437 E466.53537
G1 X58.792 Y23.437 E466.67646
G1 X76.248 Y40.893 E469.13969
G1 X76.248 Y39.479 E469.28078
G1 X60.206 Y23.437 E471.54448
G1 X61.62 Y23.437 E471.68557
G1 X76.248 Y38.064 E473.74967
G1 X76.248 Y36.65 E473.89075
G1 X63.035 Y23.437 E475.75525
G1 X64.449 Y23.437 E475.89634
G1 X76.249 Y35.237 E477.56145
G1 X76.249 Y33.823 E477.70254
G1 X65.863 Y23.437 E479.16811
G1 X67.277 Y23.437 E479.3092
G1 X76.249 Y32.408 E480.57518
G1 X76.249 Y30.994 E480.71627
G1 X68.691 Y23.437 E481.78271
G1 X70.106 Y23.437 E481.9239
G1 X76.249 Y29.58 E482.79075
G1 X76.249 Y28.266 E482.92186
G1 X76.245 Y28.162 E482.93224
G1 X71.523 Y23.44 E483.59857
G1 X71.958 Y23.463 E483.64203
G1 X72.257 Y23.5 E483.6721
G1 X72.541 Y23.555 E483.70096
G1 X72.832 Y23.632 E483.731
G1 X73.09 Y23.715 E483.75804
G1 X73.294 Y23.796 E483.77994
G1 X75.89 Y26.392 E484.14626
G0 F2400 X75.812 Y26.213
G1 F900 X75.68 Y25.953 E484.17536
G1 X75.522 Y25.685 E484.2064
G1 X75.366 Y25.454 E484.23421
G1 X75.199 Y25.239 E484.26138
G1 X74.853 Y24.851 E484.31325
G1 X74.371 Y24.429 E484.37717
G1 X74.105 Y24.231 E484.41026
G1 X73.886 Y24.093 E484.43609
G1 X73.627 Y23.948 E484.46571
G1 X73.369 Y23.826 E484.49418
G1 X73.294 Y23.796 E484.50224
G0 F2400 X17.092 Y29.83
G1 F900 X16.558 Y30.7 E484.6041
G1 X63.992 Y78.134 E491.29755
G1 X62.578 Y78.134 E491.43864
G1 X16.054 Y31.61 E498.00368
G1 X16.036 Y31.645 E498.0076
G1 X15.953 Y31.826 E498.02747
G1 X15.631 Y32.601 E498.11121
G1 X61.164 Y78.134 E504.53641
G1 X59.749 Y78.133 E504.6776
G1 X15.248 Y33.632 E510.95717
G1 X15.143 Y33.966 E510.99211
G1 X14.953 Y34.752 E511.07279
G1 X58.334 Y78.133 E517.19432
G1 X56.92 Y78.133 E517.33541
G1 X14.717 Y35.93 E523.29071
G1 X14.703 Y36.011 E523.29891
G1 X14.68 Y36.208 E523.3187
G1 X14.598 Y37.226 E523.42061
G1 X55.506 Y78.133 E529.1931
G1 X54.092 Y78.133 E529.33419
G1 X14.55 Y38.592 E534.91392
G1 X14.55 Y40.006 E535.05501
G1 X52.678 Y78.133 E540.43521
G1 X51.263 Y78.133 E540.5764
G1 X14.55 Y41.42 E545.757
G1 X14.55 Y42.835 E545.89819
G1 X49.848 Y78.133 E550.87912
G1 X48.434 Y78.133 E551.02021
G1 X14.55 Y44.249 E555.80161
G1 X14.55 Y45.663 E555.9427
G1 X47.02 Y78.133 E560.52456
G1 X45.606 Y78.133 E560.66565
G1 X14.55 Y47.077 E565.04799
G1 X14.55 Y48.491 E565.18908
G1 X44.192 Y78.133 E569.37189
G1 X42.777 Y78.133 E569.51308
G1 X14.55 Y49.906 E573.49621
G1 X14.55 Y51.32 E573.6373
G1 X41.363 Y78.133 E577.4209
G1 X39.948 Y78.132 E577.56209
G1 X14.55 Y52.734 E581.14602
G1 X14.55 Y54.148 E581.28711
G1 X38.534 Y78.132 E584.67152
G1 X37.12 Y78.132 E584.81261
G1 X14.55 Y55.563 E587.99741
G1 X14.55 Y56.976 E588.1384
G1 X35.706 Y78.132 E591.12374
G1 X34.291 Y78.132 E591.26492
G1 X14.55 Y58.39 E594.05066
G1 X14.55 Y59.804 E594.19175
G1 X32.877 Y78.132 E596.77796
G1 X31.463 Y78.132 E596.91905
G1 X14.55 Y61.219 E599.30566
G1 X14.55 Y62.633 E599.44675
G1 X30.049 Y78.132 E601.63382
G1 X28.634 Y78.131 E601.77501
G1 X14.55 Y64.047 E603.76242
G1 X14.55 Y65.461 E603.90351
G1 X27.22 Y78.131 E605.69138
G1 X25.805 Y78.131 E605.83257
G1 X14.55 Y66.876 E607.42077
G1 X14.55 Y68.29 E607.56186
G1 X24.391 Y78.131 E608.95053
G1 X22.977 Y78.131 E609.09162
G1 X14.55 Y69.704 E610.28076
G1 X14.55 Y71.118 E610.42185
G1 X21.563 Y78.131 E611.41146
G1 X20.149 Y78.131 E611.55255
G1 X14.55 Y72.532 E612.34263
G1 X14.55 Y73.314 E612.42066
G1 X14.555 Y73.483 E612.43753
G1 X14.592 Y73.961 E612.48537
G1 X14.597 Y73.994 E612.4887
G1 X18.691 Y78.088 E613.06641
G1 X18.541 Y78.07 E613.08148
G1 X18.257 Y78.015 E613.11034
G1 X17.966 Y77.939 E613.14035
G1 X17.706 Y77.854 E613.16765
G1 X17.429 Y77.744 E613.19739
G1 X17.17 Y77.621 E613.226
G1 X16.913 Y77.478 E613.25534
G1 X16.694 Y77.339 E613.28122
G1 X16.427 Y77.141 E613.31439
G1 X15.945 Y76.72 E613.37825
G1 X15.599 Y76.331 E613.4302
G1 X15.432 Y76.116 E613.45736
G1 X15.274 Y75.88 E613.4857
G1 X15.118 Y75.617 E613.51621
G1 X14.989 Y75.36 E613.5449
G1 X14.873 Y75.09 E613.57422
G1 X14.781 Y74.834 E613.60137
G1 X14.697 Y74.542 E613.63168
G1 X14.641 Y74.281 E613.65832
G0 F2400 X26.017 Y23.6
;TIME_ELAPSED:394.107974
;LAYER:-4
G0 X26.017 Y23.6 Z0.86
;TYPE:SUPPORT-INTERFACE
G1 F1200 X25.074 Y23.825 E613.69056
G1 X24.866 Y23.883 E613.69775
G1 X24.504 Y24 E613.7104
G1 X74.115 Y24 E615.36047
G1 X74.231 Y24.074 E615.36505
G1 X74.497 Y24.272 E615.37607
G1 X74.644 Y24.4 E615.38256
G1 X23.477 Y24.4 E617.08438
G1 X22.867 Y24.652 E617.10633
G1 X22.715 Y24.722 E617.1119
G1 X22.563 Y24.8 E617.11758
G1 X75.078 Y24.8 E618.86423
G1 X75.343 Y25.098 E618.8775
G1 X75.423 Y25.2 E618.88181
G1 X21.833 Y25.2 E620.66422
G1 X21.181 Y25.6 E620.68966
G1 X75.706 Y25.6 E622.50317
G1 X75.86 Y25.862 E622.51328
G1 X75.93 Y26 E622.51843
G1 X20.566 Y26 E624.35984
G1 X20.227 Y26.245 E624.37375
G1 X20.095 Y26.349 E624.37934
G1 X20.036 Y26.4 E624.38193
G1 X76.111 Y26.4 E626.247
G1 X76.212 Y26.681 E626.25693
G1 X76.247 Y26.8 E626.26105
G1 X19.567 Y26.8 E628.14624
G1 X19.098 Y27.2 E628.16674
G1 X76.346 Y27.2 E630.07082
G1 X76.356 Y27.249 E630.07248
G1 X76.407 Y27.591 E630.08398
G0 F2400 X76.408 Y27.6
G1 F1200 X18.679 Y27.6 E632.00405
G1 X18.5 Y27.779 E632.01247
G1 X18.37 Y27.918 E632.0188
G1 X18.3 Y28 E632.02239
G1 X76.439 Y28 E633.9561
G1 X76.443 Y28.063 E633.9582
G1 X76.45 Y28.252 E633.96449
G1 X76.449 Y28.4 E633.96941
G1 X17.959 Y28.4 E635.9148
G1 X17.617 Y28.8 E635.9323
G1 X76.449 Y28.8 E637.88906
G1 X76.449 Y29.2 E637.90237
G1 X17.297 Y29.2 E639.86977
G1 X17.027 Y29.571 E639.88503
G1 X17.008 Y29.6 E639.88618
G1 X76.449 Y29.6 E641.8632
G1 X76.449 Y30 E641.8765
G1 X16.754 Y30 E643.86197
G1 X16.508 Y30.4 E643.87759
G1 X76.449 Y30.4 E645.87123
G1 X76.449 Y30.8 E645.88454
G1 X16.263 Y30.8 E647.88633
G1 X16.201 Y30.9 E647.89024
G1 X16.122 Y31.039 E647.89556
G1 X16.04 Y31.2 E647.90157
G1 X76.449 Y31.2 E649.91078
G1 X76.449 Y31.6 E649.92409
G1 X15.837 Y31.6 E651.94005
G1 X15.767 Y31.751 E651.94559
G1 X15.664 Y32 E651.95455
G1 X76.449 Y32 E653.97627
G1 X76.449 Y32.4 E653.98957
G1 X15.498 Y32.4 E656.01681
G1 X15.332 Y32.8 E656.03121
G1 X76.449 Y32.8 E658.06397
G1 X76.449 Y33.2 E658.07728
G1 X15.175 Y33.2 E660.11526
G1 X15.048 Y33.6 E660.12922
G1 X76.449 Y33.6 E662.17142
G1 X76.449 Y34 E662.18473
G1 X14.928 Y34 E664.23092
G1 X14.833 Y34.4 E664.2446
G1 X76.449 Y34.4 E666.29395
G1 X76.449 Y34.8 E666.30726
G1 X14.737 Y34.8 E668.35981
G1 X14.641 Y35.2 E668.37349
G1 X76.449 Y35.2 E670.42923
G1 X76.449 Y35.6 E670.44254
G1 X14.57 Y35.6 E672.50064
G1 X14.507 Y35.973 E672.51322
G1 X14.504 Y36 E672.51412
G1 X76.449 Y36 E674.57442
G1 X76.449 Y36.4 E674.58773
G1 X14.464 Y36.4 E676.64936
G1 X14.432 Y36.8 E676.6627
G1 X76.449 Y36.8 E678.7254
G1 X76.449 Y37.2 E678.7387
G1 X14.4 Y37.2 E680.80246
G1 X14.369 Y37.581 E680.81517
G1 X14.369 Y37.6 E680.81581
G1 X76.449 Y37.6 E682.88059
G1 X76.449 Y38 E682.8939
G1 X14.351 Y38 E684.95929
G1 X14.351 Y38.4 E684.97259
G1 X76.449 Y38.4 E687.03798
G1 X76.449 Y38.8 E687.05128
G1 X14.351 Y38.8 E689.11667
G1 X14.351 Y39.2 E689.12997
G1 X76.449 Y39.2 E691.19536
G1 X76.448 Y39.6 E691.20867
G1 X14.351 Y39.6 E693.27402
G1 X14.351 Y40 E693.28733
G1 X76.448 Y40 E695.35268
G1 X76.448 Y40.4 E695.36598
G1 X14.351 Y40.4 E697.43134
G1 X14.351 Y40.8 E697.44464
G1 X76.448 Y40.8 E699.51
G1 X76.448 Y41.2 E699.5233
G1 X14.351 Y41.2 E701.58866
G1 X14.351 Y41.6 E701.60196
G1 X76.448 Y41.6 E703.66731
G1 X76.448 Y42 E703.68062
G1 X14.351 Y42 E705.74597
G1 X14.351 Y42.4 E705.75928
G1 X76.448 Y42.4 E707.82463
G1 X76.448 Y42.8 E707.83794
G1 X14.351 Y42.8 E709.90329
G1 X14.351 Y43.2 E709.91659
G1 X76.448 Y43.2 E711.98195
G1 X76.448 Y43.6 E711.99525
G1 X14.351 Y43.6 E714.06061
G1 X14.351 Y44 E714.07391
G1 X76.448 Y44 E716.13927
G1 X76.448 Y44.4 E716.15257
G1 X14.351 Y44.4 E718.21793
G1 X14.351 Y44.8 E718.23123
G1 X76.448 Y44.8 E720.29658
