;FLAVOR:Marlin
;TIME:5214
;Filament used: 3.75473m
;Layer height: 0.2
;Generated with Cura_SteamEngine 3.6.0
M104 S200
M105
M109 S200
M82 ;absolute extrusion mode
G28 ;Home
G1 Z15.0 F6000 ;Move the platform down 15mm
;Prime the extruder
G92 E0
G1 F200 E3
G92 E0
G92 E0
G1 F1500 E-6.5
;LAYER_COUNT:50
;LAYER:-6
M107
G0 F2400 X16.169 Y23.533 Z0.36
;TYPE:SUPPORT-INTERFACE
G1 F1500 E0
G1 F900 X16.4 Y23.377 E0.03338
G1 X16.668 Y23.219 E0.07063
G1 X16.925 Y23.089 E0.10511
G1 X17.195 Y22.973 E0.1403
G1 X17.451 Y22.881 E0.17287
G1 X17.743 Y22.797 E0.20925
G1 X18.004 Y22.741 E0.24121
G1 X18.324 Y22.693 E0.27996
G1 X18.792 Y22.657 E0.33616
G1 X18.984 Y22.65 E0.35916
G1 X71.183 Y22.654 E6.60929
G1 X71.56 Y22.678 E6.65452
G1 X71.858 Y22.715 E6.69048
G1 X72.142 Y22.77 E6.72511
G1 X72.433 Y22.846 E6.76113
G1 X72.691 Y22.93 E6.79361
G1 X72.97 Y23.041 E6.82957
G1 X73.228 Y23.163 E6.86374
G1 X73.487 Y23.307 E6.89922
G1 X73.706 Y23.446 E6.93028
G1 X73.972 Y23.644 E6.96998
G1 X74.454 Y24.065 E7.04661
G1 X74.8 Y24.454 E7.10895
G1 X74.967 Y24.669 E7.14155
G1 X75.123 Y24.9 E7.17492
G1 X75.281 Y25.168 E7.21217
G1 X75.413 Y25.427 E7.24698
G1 X75.516 Y25.666 E7.27814
G1 X75.621 Y25.958 E7.3153
G1 X75.702 Y26.24 E7.35043
G1 X75.758 Y26.494 E7.38157
G1 X75.807 Y26.824 E7.42152
G1 X75.843 Y27.285 E7.47688
G1 X75.85 Y27.47 E7.49905
G1 X75.848 Y62.796 E11.72886
G1 X75.831 Y63.184 E11.77536
G1 X75.719 Y64.581 E11.94317
G1 X75.697 Y64.764 E11.96524
G1 X75.578 Y65.48 E12.05215
G1 X75.26 Y66.806 E12.21542
G1 X75.209 Y66.986 E12.23782
G1 X75.032 Y67.531 E12.30643
G1 X74.971 Y67.695 E12.32739
G1 X74.447 Y68.959 E12.49122
G1 X74.367 Y69.133 E12.51415
G1 X74.103 Y69.648 E12.58345
G1 X74.024 Y69.787 E12.60259
G1 X73.307 Y70.955 E12.76669
G1 X73.203 Y71.11 E12.78904
G1 X72.879 Y71.555 E12.85495
G1 X72.759 Y71.707 E12.87814
G1 X71.874 Y72.743 E13.04128
G1 X71.35 Y73.274 E13.13061
G1 X71.22 Y73.394 E13.15179
G1 X70.188 Y74.274 E13.31419
G1 X70.049 Y74.383 E13.33534
G1 X69.456 Y74.807 E13.42262
G1 X68.281 Y75.527 E13.58763
G1 X68.115 Y75.62 E13.61041
G1 X67.601 Y75.882 E13.67949
G1 X67.447 Y75.953 E13.69979
G1 X66.164 Y76.483 E13.86601
G1 X66.031 Y76.532 E13.88298
G1 X65.465 Y76.715 E13.9542
G1 X65.287 Y76.765 E13.97634
G1 X63.98 Y77.077 E14.13723
G1 X63.8 Y77.113 E14.15921
G1 X63.23 Y77.204 E14.22833
G1 X63.084 Y77.221 E14.24593
G1 X61.556 Y77.339 E14.42943
G1 X61.314 Y77.347 E14.45842
G1 X18.943 Y77.35 E19.53178
G1 X18.44 Y77.322 E19.5921
G1 X18.142 Y77.285 E19.62805
G1 X17.858 Y77.23 E19.66269
G1 X17.567 Y77.154 E19.6987
G1 X17.307 Y77.069 E19.73145
G1 X17.03 Y76.959 E19.76714
G1 X16.771 Y76.836 E19.80147
G1 X16.513 Y76.693 E19.83679
G1 X16.294 Y76.554 E19.86785
G1 X16.028 Y76.356 E19.90755
G1 X15.546 Y75.935 E19.98418
G1 X15.2 Y75.546 E20.04652
G1 X15.033 Y75.331 E20.07912
G1 X14.876 Y75.098 E20.11276
G1 X14.719 Y74.832 E20.14974
G1 X14.589 Y74.575 E20.18423
G1 X14.473 Y74.305 E20.21941
G1 X14.381 Y74.049 E20.25198
G1 X14.297 Y73.757 E20.28836
G1 X14.241 Y73.496 E20.32033
G1 X14.192 Y73.167 E20.36015
G1 X14.156 Y72.699 E20.41636
G1 X14.15 Y72.53 E20.4366
G1 X14.154 Y27.317 E25.85025
G1 X14.178 Y26.94 E25.89548
G1 X14.215 Y26.642 E25.93144
G1 X14.27 Y26.358 E25.96608
G1 X14.346 Y26.067 E26.00209
G1 X14.43 Y25.809 E26.03458
G1 X14.541 Y25.53 E26.07053
G1 X14.663 Y25.272 E26.1047
G1 X14.802 Y25.022 E26.13895
G1 X14.954 Y24.784 E26.17276
G1 X15.144 Y24.528 E26.21094
G1 X15.565 Y24.046 E26.28756
G1 X15.954 Y23.7 E26.3499
G1 X16.169 Y23.533 E26.3825
G0 F2400 X16 Y23.664
G1 F900 X16 Y76.331 E32.68866
G0 F2400 X17.6 Y77.162
G1 F900 X17.6 Y22.838 E39.19322
G0 F2400 X19.2 Y22.651
G1 F900 X19.2 Y77.35 E45.74269
G0 F2400 X20.8 Y77.35
G1 F900 X20.8 Y22.651 E52.29216
G0 F2400 X22.4 Y22.651
G1 F900 X22.4 Y77.35 E58.84162
G0 F2400 X24 Y77.35
G1 F900 X24 Y22.651 E65.39109
G0 F2400 X25.6 Y22.651
G1 F900 X25.6 Y77.35 E71.94055
G0 F2400 X27.2 Y77.35
G1 F900 X27.2 Y22.651 E78.49002
G0 F2400 X28.8 Y22.651
G1 F900 X28.8 Y77.35 E85.03949
G0 F2400 X30.4 Y77.35
G1 F900 X30.4 Y22.651 E91.58895
G0 F2400 X32 Y22.651
G1 F900 X32 Y77.35 E98.13842
G0 F2400 X33.6 Y77.349
G1 F900 X33.6 Y22.652 E104.68764
G0 F2400 X35.2 Y22.652
G1 F900 X35.2 Y77.349 E111.23687
G0 F2400 X36.8 Y77.349
G1 F900 X36.8 Y22.652 E117.7861
G0 F2400 X38.4 Y22.652
G1 F900 X38.4 Y77.349 E124.33532
G0 F2400 X40 Y77.349
G1 F900 X40 Y22.652 E130.88455
G0 F2400 X41.6 Y22.652
G1 F900 X41.6 Y77.349 E137.43378
G0 F2400 X43.2 Y77.349
G1 F900 X43.2 Y22.652 E143.983
G0 F2400 X44.8 Y22.652
G1 F900 X44.8 Y77.349 E150.53223
G0 F2400 X46.4 Y77.349
G1 F900 X46.4 Y22.653 E157.08134
G0 F2400 X48 Y22.653
G1 F900 X48 Y77.348 E163.63032
G0 F2400 X49.6 Y77.348
G1 F900 X49.6 Y22.653 E170.17931
G0 F2400 X51.2 Y22.653
G1 F900 X51.2 Y77.348 E176.7283
G0 F2400 X52.8 Y77.348
G1 F900 X52.8 Y22.653 E183.27729
G0 F2400 X54.4 Y22.653
G1 F900 X54.4 Y77.348 E189.82627
G0 F2400 X56 Y77.348
G1 F900 X56 Y22.653 E196.37526
G0 F2400 X57.6 Y22.653
G1 F900 X57.6 Y77.348 E202.92425
G0 F2400 X59.2 Y77.348
G1 F900 X59.2 Y22.654 E209.47311
G0 F2400 X60.8 Y22.654
G1 F900 X60.8 Y77.348 E216.02198
G0 F2400 X62.4 Y77.274
G1 F900 X62.4 Y22.654 E222.56199
G0 F2400 X64 Y22.654
G1 F900 X64 Y77.073 E229.07793
G0 F2400 X65.6 Y76.672
G1 F900 X65.6 Y22.654 E235.54585
G0 F2400 X67.2 Y22.654
G1 F900 X67.2 Y76.056 E241.94002
G0 F2400 X68.8 Y75.209
G1 F900 X68.8 Y22.654 E248.23277
G0 F2400 X70.4 Y22.654
G1 F900 X70.4 Y74.094 E254.39202
G0 F2400 X72 Y72.596
G1 F900 X72 Y22.743 E260.36124
G0 F2400 X73.6 Y23.379
G1 F900 X73.6 Y70.478 E266.00071
G0 F2400 X75.2 Y67.014
G1 F900 X75.2 Y25.031 E271.02761
G0 F2400 X14.4 Y25.901
G1 F900 X14.4 Y74.101 E276.79891
G0 F2400 X14.296 Y73.756
;TIME_ELAPSED:165.753853
;LAYER:-5
G0 X14.296 Y73.756 Z0.66
;TYPE:SUPPORT
G1 F900 X14.381 Y74.048 E276.82925
G1 X14.473 Y74.304 E276.85639
G1 X14.589 Y74.574 E276.88572
G1 X14.719 Y74.831 E276.91445
G1 X14.876 Y75.097 E276.94527
G1 X15.032 Y75.33 E276.97325
G1 X15.199 Y75.545 E277.00042
G1 X15.545 Y75.934 E277.05236
G1 X16.027 Y76.355 E277.11622
G1 X16.293 Y76.553 E277.14931
G1 X16.513 Y76.692 E277.17527
G1 X16.771 Y76.835 E277.20471
G1 X17.029 Y76.958 E277.23323
G1 X17.306 Y77.068 E277.26296
G1 X17.566 Y77.153 E277.29026
G1 X17.823 Y77.22 E277.31676
G1 X14.28 Y73.676 E277.81678
G1 X14.241 Y73.495 E277.83526
G1 X14.192 Y73.166 E277.86845
G1 X14.155 Y72.698 E277.91529
G1 X14.15 Y72.529 E277.93216
G1 X14.15 Y72.133 E277.97168
G1 X19.365 Y77.348 E278.70757
G1 X20.779 Y77.348 E278.84866
G1 X14.15 Y70.719 E279.78408
G1 X14.15 Y69.304 E279.92527
G1 X22.193 Y77.348 E281.0603
G1 X23.608 Y77.348 E281.20148
G1 X14.15 Y67.89 E282.53611
G1 X14.15 Y66.476 E282.6772
G1 X25.022 Y77.348 E284.21136
G1 X26.436 Y77.348 E284.35245
G1 X14.15 Y65.062 E286.08613
G1 X14.15 Y63.648 E286.22722
G1 X27.85 Y77.348 E288.16044
G1 X29.265 Y77.348 E288.30163
G1 X14.151 Y62.234 E290.43438
G1 X14.151 Y60.82 E290.57547
G1 X30.679 Y77.348 E292.90775
G1 X32.093 Y77.348 E293.04884
G1 X14.151 Y59.406 E295.58065
G1 X14.151 Y57.991 E295.72184
G1 X33.506 Y77.347 E298.45311
G1 X34.921 Y77.347 E298.5943
G1 X14.151 Y56.577 E301.52517
G1 X14.151 Y55.163 E301.66626
G1 X36.335 Y77.347 E304.79666
G1 X37.749 Y77.347 E304.93775
G1 X14.152 Y53.75 E308.26754
G1 X14.152 Y52.335 E308.40873
G1 X39.163 Y77.347 E311.93812
G1 X40.578 Y77.347 E312.07931
G1 X14.152 Y50.921 E315.80831
G1 X14.152 Y49.507 E315.9494
G1 X41.992 Y77.347 E319.87792
G1 X43.406 Y77.347 E320.01901
G1 X14.152 Y48.093 E324.14706
G1 X14.152 Y46.678 E324.28825
G1 X44.82 Y77.347 E328.61591
G1 X46.234 Y77.347 E328.757
G1 X14.152 Y45.265 E333.28412
G1 X14.152 Y43.851 E333.42521
G1 X47.648 Y77.346 E338.15178
G1 X49.062 Y77.346 E338.29287
G1 X14.152 Y42.437 E343.21898
G1 X14.152 Y41.022 E343.36017
G1 X50.476 Y77.346 E348.48588
G1 X51.891 Y77.346 E348.62707
G1 X14.152 Y39.608 E353.95238
G1 X14.152 Y38.194 E354.09347
G1 X53.305 Y77.346 E359.61831
G1 X54.719 Y77.346 E359.7594
G1 X14.152 Y36.78 E365.48377
G1 X14.153 Y35.366 E365.62486
G1 X56.133 Y77.346 E371.54869
G1 X57.547 Y77.346 E371.68978
G1 X14.153 Y33.952 E377.81314
G1 X14.153 Y32.538 E377.95423
G1 X58.962 Y77.346 E384.27719
G1 X60.376 Y77.346 E384.41828
G1 X14.153 Y31.124 E390.94078
G1 X14.153 Y29.709 E391.08197
G1 X61.765 Y77.322 E397.80061
G1 X63.078 Y77.22 E397.93201
G1 X14.153 Y28.295 E404.83586
G1 X14.154 Y27.316 E404.93354
G1 X14.177 Y26.939 E404.97123
G1 X14.181 Y26.908 E404.97435
G1 X64.276 Y77.004 E412.04336
G1 X65.286 Y76.764 E412.14695
G1 X65.414 Y76.728 E412.16022
G1 X14.448 Y25.762 E419.35207
G1 X14.54 Y25.529 E419.37707
G1 X14.663 Y25.271 E419.40558
G1 X14.801 Y25.02 E419.43416
G1 X14.926 Y24.825 E419.45728
G1 X66.46 Y76.359 E426.72928
G1 X67.447 Y75.952 E426.83581
G1 X67.46 Y75.946 E426.83724
G1 X15.562 Y24.047 E434.16068
G1 X15.953 Y23.699 E434.2129
G1 X16.168 Y23.532 E434.24007
G1 X16.344 Y23.415 E434.26116
G1 X68.388 Y75.459 E441.60513
G1 X69.265 Y74.922 E441.70774
G1 X17.284 Y22.941 E449.04282
G1 X17.451 Y22.88 E449.06056
G1 X17.743 Y22.796 E449.09087
G1 X18.004 Y22.74 E449.11751
G1 X18.323 Y22.692 E449.1497
G1 X18.441 Y22.683 E449.16151
G1 X70.099 Y74.342 E456.45108
G1 X70.188 Y74.273 E456.46232
G1 X70.866 Y73.694 E456.55128
G1 X19.821 Y22.65 E463.75421
G1 X21.235 Y22.65 E463.8953
G1 X71.603 Y73.017 E471.0027
G1 X71.873 Y72.742 E471.04115
G1 X72.274 Y72.274 E471.10265
G1 X22.65 Y22.65 E478.10513
G1 X24.064 Y22.65 E478.24622
G1 X72.916 Y71.502 E485.13976
G1 X73.201 Y71.11 E485.18812
G1 X73.306 Y70.954 E485.20688
G1 X73.488 Y70.659 E485.24147
G1 X25.478 Y22.65 E492.01613
G1 X26.892 Y22.65 E492.15722
G1 X74.025 Y69.782 E498.80812
G1 X74.102 Y69.647 E498.82363
G1 X74.365 Y69.133 E498.88124
G1 X74.446 Y68.959 E498.90039
G1 X74.496 Y68.839 E498.91336
G1 X28.307 Y22.65 E505.43113
G1 X29.721 Y22.65 E505.57222
G1 X74.91 Y67.839 E511.94888
G1 X74.97 Y67.695 E511.96444
G1 X75.031 Y67.53 E511.982
G1 X75.208 Y66.986 E512.03908
G1 X75.258 Y66.806 E512.05772
G1 X75.265 Y66.779 E512.0605
G1 X31.136 Y22.65 E518.28758
G1 X32.55 Y22.65 E518.42867
G1 X75.539 Y65.64 E524.49495
G1 X75.577 Y65.48 E524.51136
G1 X75.695 Y64.763 E524.58387
G1 X75.718 Y64.581 E524.60217
G1 X75.731 Y64.418 E524.61849
G1 X33.964 Y22.65 E530.51233
G1 X35.378 Y22.65 E530.65342
G1 X75.834 Y63.106 E536.3622
G1 X75.847 Y62.796 E536.39316
G1 X75.848 Y61.706 E536.50192
G1 X36.793 Y22.651 E542.013
G1 X38.207 Y22.651 E542.15409
G1 X75.848 Y60.292 E547.46564
G1 X75.848 Y58.877 E547.60683
G1 X39.622 Y22.651 E552.71871
G1 X41.036 Y22.651 E552.8598
G1 X75.848 Y57.463 E557.77215
G1 X75.848 Y56.049 E557.91324
G1 X42.45 Y22.651 E562.62606
G1 X43.864 Y22.651 E562.76715
G1 X75.848 Y54.635 E567.28044
G1 X75.848 Y53.221 E567.42153
G1 X45.279 Y22.652 E571.73514
G1 X46.693 Y22.652 E571.87623
G1 X75.848 Y51.806 E575.99025
G1 X75.848 Y50.392 E576.13134
G1 X48.108 Y22.652 E580.04575
G1 X49.522 Y22.652 E580.18684
G1 X75.848 Y48.978 E583.90172
G1 X75.848 Y47.564 E584.04281
G1 X50.936 Y22.652 E587.55816
G1 X52.35 Y22.652 E587.69925
G1 X75.848 Y46.15 E591.01507
G1 X75.849 Y44.736 E591.15616
G1 X53.764 Y22.652 E594.27253
G1 X55.179 Y22.652 E594.41372
G1 X75.849 Y43.322 E597.33048
G1 X75.849 Y41.908 E597.47156
G1 X56.593 Y22.652 E600.18879
G1 X58.008 Y22.652 E600.32998
G1 X75.849 Y40.493 E602.84754
G1 X75.849 Y39.079 E602.98863
G1 X59.422 Y22.652 E605.30666
G1 X60.836 Y22.652 E605.44775
G1 X75.849 Y37.665 E607.56624
G1 X75.849 Y36.251 E607.70733
G1 X62.25 Y22.652 E609.6263
G1 X63.665 Y22.653 E609.76749
G1 X75.849 Y34.837 E611.48678
G1 X75.849 Y33.422 E611.62797
G1 X65.079 Y22.653 E613.14766
G1 X66.494 Y22.653 E613.28885
G1 X75.849 Y32.008 E614.60895
G1 X75.849 Y30.594 E614.75004
G1 X67.908 Y22.653 E615.8706
G1 X69.322 Y22.653 E616.01169
G1 X75.849 Y29.18 E616.93272
G1 X75.849 Y27.765 E617.0739
G1 X70.736 Y22.653 E617.79533
G1 X71.182 Y22.653 E617.83984
G1 X71.559 Y22.678 E617.87754
G1 X71.857 Y22.715 E617.9075
G1 X72.141 Y22.769 E617.93634
G1 X72.312 Y22.814 E617.95399
G1 X75.686 Y26.189 E618.43017
G0 F2400 X75.62 Y25.957
G1 F900 X75.515 Y25.665 E618.46113
G1 X75.412 Y25.426 E618.4871
G1 X75.28 Y25.168 E618.51601
G1 X75.122 Y24.899 E618.54714
G1 X74.966 Y24.668 E618.57495
G1 X74.799 Y24.454 E618.60204
G1 X74.453 Y24.064 E618.65406
G1 X73.971 Y23.643 E618.71792
G1 X73.705 Y23.445 E618.75101
G1 X73.486 Y23.306 E618.77689
G1 X73.227 Y23.162 E618.80646
G1 X72.969 Y23.041 E618.83489
G1 X72.69 Y22.93 E618.86485
G1 X72.432 Y22.845 E618.89196
G1 X72.312 Y22.814 E618.90432
G0 F2400 X17.092 Y22.8
;TIME_ELAPSED:395.843272
;LAYER:-4
G0 X17.092 Y22.8 Z0.86
;TYPE:SUPPORT-INTERFACE
G1 F1200 X16.832 Y22.911 E618.91373
G1 X16.577 Y23.04 E618.92323
G1 X16.306 Y23.2 E618.9337
G1 X73.693 Y23.2 E620.8424
G1 X73.831 Y23.288 E620.84784
G1 X74.097 Y23.486 E620.85887
G1 X74.228 Y23.6 E620.86465
G1 X15.764 Y23.6 E622.80917
G1 X15.422 Y23.904 E622.82438
G1 X15.338 Y24 E622.82863
G1 X74.666 Y24 E624.80188
G1 X74.943 Y24.312 E624.81576
G1 X75.012 Y24.4 E624.81948
G1 X14.99 Y24.4 E626.81582
G1 X14.784 Y24.676 E626.82728
G1 X14.705 Y24.8 E626.83217
G1 X75.297 Y24.8 E628.84746
G1 X75.46 Y25.076 E628.85813
G1 X75.523 Y25.2 E628.86275
G1 X14.476 Y25.2 E630.89318
G1 X14.349 Y25.468 E630.90305
G1 X14.297 Y25.6 E630.90777
G1 X75.706 Y25.6 E632.95024
G1 X75.812 Y25.895 E632.96066
G1 X75.843 Y26 E632.9643
G1 X14.157 Y26 E635.01599
G1 X14.15 Y26.02 E635.01669
G1 X14.074 Y26.309 E635.02663
G1 X14.057 Y26.4 E635.02971
G1 X75.943 Y26.4 E637.08805
G1 X75.954 Y26.451 E637.08978
G1 X76.007 Y26.8 E637.10152
G1 X13.993 Y26.8 E639.16412
G1 X13.979 Y26.913 E639.16791
G1 X13.961 Y27.2 E639.17747
G1 X76.038 Y27.2 E641.24216
G1 X76.043 Y27.277 E641.24473
G1 X76.05 Y27.469 E641.25112
G1 X76.049 Y27.6 E641.25547
G1 X13.953 Y27.6 E643.32079
G1 X13.953 Y28 E643.3341
G1 X76.049 Y28 E645.39942
G1 X76.049 Y28.4 E645.41272
G1 X13.953 Y28.4 E647.47805
G1 X13.953 Y28.8 E647.49135
G1 X76.049 Y28.8 E649.55667
G1 X76.049 Y29.2 E649.56997
G1 X13.953 Y29.2 E651.6353
G1 X13.953 Y29.6 E651.6486
G1 X76.049 Y29.6 E653.71392
G1 X76.049 Y30 E653.72723
G1 X13.953 Y30 E655.79255
G1 X13.953 Y30.4 E655.80585
G1 X76.049 Y30.4 E657.87117
G1 X76.049 Y30.8 E657.88448
G1 X13.953 Y30.8 E659.9498
G1 X13.953 Y31.2 E659.9631
G1 X76.049 Y31.2 E662.02842
G1 X76.049 Y31.6 E662.04173
G1 X13.953 Y31.6 E664.10705
G1 X13.953 Y32 E664.12035
G1 X76.049 Y32 E666.18567
G1 X76.049 Y32.4 E666.19898
G1 X13.953 Y32.4 E668.2643
G1 X13.953 Y32.8 E668.2776
G1 X76.049 Y32.8 E670.34292
G1 X76.049 Y33.2 E670.35623
G1 X13.953 Y33.2 E672.42155
G1 X13.953 Y33.6 E672.43485
G1 X76.049 Y33.6 E674.50018
G1 X76.049 Y34 E674.51348
G1 X13.953 Y34 E676.5788
G1 X13.953 Y34.4 E676.59211
G1 X76.049 Y34.4 E678.65743
G1 X76.049 Y34.8 E678.67073
G1 X13.953 Y34.8 E680.73605
G1 X13.953 Y35.2 E680.74936
G1 X76.049 Y35.2 E682.81468
G1 X76.049 Y35.6 E682.82798
G1 X13.953 Y35.6 E684.8933
G1 X13.953 Y36 E684.90661
G1 X76.049 Y36 E686.97193
G1 X76.049 Y36.4 E686.98523
G1 X13.953 Y36.4 E689.05055
G1 X13.953 Y36.8 E689.06386
G1 X76.049 Y36.8 E691.12918
G1 X76.049 Y37.2 E691.14248
G1 X13.953 Y37.2 E693.2078
G1 X13.953 Y37.6 E693.22111
G1 X76.049 Y37.6 E695.28643
G1 X76.049 Y38 E695.29973
G1 X13.953 Y38 E697.36506
G1 X13.953 Y38.4 E697.37836
G1 X76.049 Y38.4 E699.44368
G1 X76.049 Y38.8 E699.45698
G1 X13.952 Y38.8 E701.52234
G1 X13.952 Y39.2 E701.53564
G1 X76.049 Y39.2 E703.601
G1 X76.049 Y39.6 E703.6143
G1 X13.952 Y39.6 E705.67966
G1 X13.952 Y40 E705.69296
G1 X76.049 Y40 E707.75832
G1 X76.049 Y40.4 E707.77162
G1 X13.952 Y40.4 E709.83697
G1 X13.952 Y40.8 E709.85028
G1 X76.049 Y40.8 E711.91563
G1 X76.049 Y41.2 E711.92894
G1 X13.952 Y41.2 E713.99429
G1 X13.952 Y41.6 E714.0076
G1 X76.049 Y41.6 E716.07295
G1 X76.049 Y42 E716.08625
G1 X13.952 Y42 E718.15161
G1 X13.952 Y42.4 E718.16491
G1 X76.049 Y42.4 E720.23027
G1 X76.049 Y42.8 E720.24357
G1 X13.952 Y42.8 E722.30893
G1 X13.952 Y43.2 E722.32223
G1 X76.049 Y43.2 E724.38758
G1 X76.049 Y43.6 E724.40089
G1 X13.952 Y43.6 E726.46624
G1 X13.952 Y44 E726.47955
G1 X76.049 Y44 E728.5449
G1 X76.049 Y44.4 E728.55821
G1 X13.952 Y44.4 E730.62356
G1 X13.952 Y44.8 E730.63686
G1 X76.049 Y44.8 E732.70222
G1 X76.048 Y45.2 E732.71552
G1 X13.952 Y45.2 E734.78084
G1 X13.952 Y45.6 E734.79415
