;FLAVOR:Marlin
;TIME:9270
;Filament used: 6.64733m
;Layer height: 0.2
;Generated with Cura_SteamEngine 3.6.0
M104 S200
M105
M109 S200
M82 ;absolute extrusion mode
G28 ;Home
G1 Z15.0 F6000 ;Move the platform down 15mm
;Prime the extruder
G92 E0
G1 F200 E3
G92 E0
G92 E0
G1 F1500 E-6.5
;LAYER_COUNT:53
;LAYER:-6
M107
G0 F2400 X26.741 Y5.191 Z0.36
;TYPE:SUPPORT-INTERFACE
G1 F1500 E0
G1 F900 X26.817 Y4.9 E0.03601
G1 X26.901 Y4.642 E0.0685
G1 X27.012 Y4.363 E0.10445
G1 X27.134 Y4.105 E0.13863
G1 X27.28 Y3.842 E0.17464
G1 X27.417 Y3.627 E0.20517
G1 X27.615 Y3.361 E0.24487
G1 X28.038 Y2.877 E0.32184
G1 X28.425 Y2.533 E0.38384
G1 X28.64 Y2.366 E0.41643
G1 X28.871 Y2.21 E0.44981
G1 X29.139 Y2.052 E0.48706
G1 X29.396 Y1.922 E0.52155
G1 X29.666 Y1.806 E0.55673
G1 X29.922 Y1.714 E0.5893
G1 X30.214 Y1.63 E0.62568
G1 X30.475 Y1.574 E0.65765
G1 X30.795 Y1.526 E0.69639
G1 X31.263 Y1.49 E0.75259
G1 X31.455 Y1.483 E0.7756
G1 X73.78 Y1.486 E5.84345
G1 X74.062 Y1.495 E5.87723
G1 X75.537 Y1.61 E6.05438
G1 X76.272 Y1.72 E6.14336
G1 X76.451 Y1.756 E6.16522
G1 X77.763 Y2.069 E6.32673
G1 X78.495 Y2.299 E6.4186
G1 X78.64 Y2.352 E6.43708
G1 X79.926 Y2.884 E6.60372
G1 X80.579 Y3.209 E6.69106
G1 X80.75 Y3.304 E6.71448
G1 X81.895 Y4.003 E6.87511
G1 X82.047 Y4.104 E6.89696
G1 X82.505 Y4.438 E6.96483
G1 X82.673 Y4.57 E6.99041
G1 X83.675 Y5.423 E7.14798
G1 X83.812 Y5.549 E7.17026
G1 X84.232 Y5.968 E7.2413
G1 X84.341 Y6.085 E7.26044
G1 X85.233 Y7.127 E7.42468
G1 X85.345 Y7.268 E7.44624
G1 X85.769 Y7.86 E7.53343
G1 X86.49 Y9.036 E7.6986
G1 X86.573 Y9.182 E7.71871
G1 X86.835 Y9.696 E7.78779
G1 X86.916 Y9.871 E7.81088
G1 X87.434 Y11.119 E7.97267
G1 X87.506 Y11.314 E7.99756
G1 X87.676 Y11.837 E8.0634
G1 X87.725 Y12.011 E8.08505
G1 X88.038 Y13.313 E8.24539
G1 X88.077 Y13.503 E8.26861
G1 X88.167 Y14.069 E8.33723
G1 X88.189 Y14.26 E8.36025
G1 X88.304 Y15.718 E8.53537
G1 X88.319 Y16.118 E8.5833
G1 X88.315 Y51.513 E12.82137
G1 X88.291 Y51.89 E12.86661
G1 X88.254 Y52.188 E12.90256
G1 X88.199 Y52.472 E12.9372
G1 X88.123 Y52.763 E12.97321
G1 X88.039 Y53.021 E13.0057
G1 X87.928 Y53.3 E13.04165
G1 X87.806 Y53.558 E13.07582
G1 X87.662 Y53.817 E13.11131
G1 X87.523 Y54.036 E13.14236
G1 X87.325 Y54.302 E13.18207
G1 X86.904 Y54.784 E13.2587
G1 X86.517 Y55.128 E13.32069
G1 X86.3 Y55.297 E13.35363
G1 X86.069 Y55.453 E13.387
G1 X85.801 Y55.611 E13.42425
G1 X85.544 Y55.741 E13.45874
G1 X85.275 Y55.856 E13.49377
G1 X85.018 Y55.949 E13.52649
G1 X84.726 Y56.033 E13.56287
G1 X84.465 Y56.089 E13.59484
G1 X84.145 Y56.137 E13.63358
G1 X83.678 Y56.173 E13.68966
G1 X83.486 Y56.18 E13.71267
G1 X73.735 Y56.181 E14.88022
G1 X73.2 Y56.153 E14.94437
G1 X72.905 Y56.116 E14.97997
G1 X72.607 Y56.058 E15.01632
G1 X72.335 Y55.988 E15.04995
G1 X72.063 Y55.899 E15.08421
G1 X71.793 Y55.791 E15.11903
G1 X71.527 Y55.666 E15.15422
G1 X71.285 Y55.532 E15.18735
G1 X70.921 Y55.299 E15.23909
G1 X70.335 Y54.974 E15.31933
G1 X69.701 Y54.721 E15.40106
G1 X69.04 Y54.549 E15.48284
G1 X68.362 Y54.463 E15.56468
G1 X67.68 Y54.463 E15.64634
G1 X67.003 Y54.548 E15.72803
G1 X66.342 Y54.719 E15.80979
G1 X65.701 Y54.974 E15.89239
G1 X65.455 Y55.12 E15.92664
G1 X65.442 Y55.101 E15.9294
G1 X64.71 Y55.557 E16.03266
G1 X64.465 Y55.689 E16.06598
G1 X64.197 Y55.812 E16.10129
G1 X63.926 Y55.917 E16.13609
G1 X63.65 Y56.004 E16.17074
G1 X63.409 Y56.062 E16.20042
G1 X62.378 Y56.223 E16.32536
G1 X61.721 Y56.41 E16.40715
G1 X61.094 Y56.678 E16.4888
G1 X60.504 Y57.024 E16.57069
G1 X59.963 Y57.441 E16.65248
G1 X59.479 Y57.922 E16.73419
G1 X59.06 Y58.461 E16.81593
G1 X58.712 Y59.048 E16.89764
G1 X58.441 Y59.676 E16.97954
G1 X58.252 Y60.331 E17.06116
G1 X58.146 Y61.003 E17.14262
G1 X58.124 Y61.492 E17.20123
G1 X58.124 Y65.014 E17.62294
G1 X58.166 Y65.682 E17.70308
G1 X58.295 Y66.353 E17.7849
G1 X58.508 Y67.002 E17.86669
G1 X58.8 Y67.619 E17.94842
G1 X59.168 Y68.194 E18.03016
G1 X59.606 Y68.718 E18.11193
G1 X60.105 Y69.182 E18.19352
G1 X60.606 Y69.545 E18.2676
G1 X60.98 Y69.783 E18.32068
G1 X61.246 Y69.981 E18.36039
G1 X61.728 Y70.402 E18.43701
G1 X62.074 Y70.791 E18.49935
G1 X62.241 Y71.006 E18.53195
G1 X62.397 Y71.237 E18.56532
G1 X62.555 Y71.505 E18.60257
G1 X62.687 Y71.764 E18.63738
G1 X62.79 Y72.003 E18.66854
G1 X62.897 Y72.301 E18.70645
G1 X62.977 Y72.58 E18.74121
G1 X63.033 Y72.841 E18.77317
G1 X63.081 Y73.161 E18.81191
G1 X63.117 Y73.622 E18.86728
G1 X63.124 Y73.807 E18.88945
G1 X63.12 Y94.02 E21.30968
G1 X63.096 Y94.397 E21.35491
G1 X63.059 Y94.695 E21.39087
G1 X63.004 Y94.979 E21.42551
G1 X62.928 Y95.27 E21.46152
G1 X62.844 Y95.528 E21.49401
G1 X62.733 Y95.807 E21.52996
G1 X62.611 Y96.065 E21.56413
G1 X62.467 Y96.324 E21.59961
G1 X62.328 Y96.543 E21.63067
G1 X62.13 Y96.809 E21.67038
G1 X61.711 Y97.289 E21.74667
G1 X61.322 Y97.635 E21.809
G1 X61.105 Y97.804 E21.84194
G1 X60.874 Y97.96 E21.87531
G1 X60.606 Y98.118 E21.91256
G1 X60.349 Y98.248 E21.94705
G1 X60.08 Y98.363 E21.98208
G1 X59.823 Y98.456 E22.0148
G1 X59.531 Y98.54 E22.05118
G1 X59.27 Y98.596 E22.08314
G1 X58.95 Y98.644 E22.12189
G1 X58.482 Y98.68 E22.17809
G1 X58.29 Y98.687 E22.2011
G1 X15.983 Y98.685 E27.26679
G1 X15.608 Y98.669 E27.31173
G1 X14.184 Y98.556 E27.48277
G1 X13.451 Y98.447 E27.5715
G1 X13.271 Y98.41 E27.59351
G1 X11.949 Y98.091 E27.75634
G1 X11.242 Y97.868 E27.8451
G1 X11.082 Y97.808 E27.86557
G1 X9.805 Y97.282 E28.03093
G1 X9.117 Y96.939 E28.12298
G1 X8.987 Y96.866 E28.14083
G1 X7.678 Y96.054 E28.32527
G1 X7.071 Y95.603 E28.41582
G1 X6.029 Y94.71 E28.58013
G1 X5.909 Y94.599 E28.59971
G1 X5.502 Y94.192 E28.66863
G1 X5.369 Y94.047 E28.69219
G1 X4.506 Y93.035 E28.85144
G1 X4.372 Y92.864 E28.87745
G1 X3.958 Y92.284 E28.96277
G1 X3.248 Y91.126 E29.12541
G1 X3.154 Y90.959 E29.14836
G1 X2.895 Y90.45 E29.21674
G1 X2.816 Y90.277 E29.23951
G1 X2.291 Y89.004 E29.40439
G1 X2.234 Y88.847 E29.42439
G1 X2.058 Y88.301 E29.49308
G1 X2.007 Y88.121 E29.51548
G1 X1.691 Y86.796 E29.67858
G1 X1.661 Y86.646 E29.6969
G1 X1.571 Y86.071 E29.76658
G1 X1.551 Y85.901 E29.78708
G1 X1.438 Y84.436 E29.96302
G1 X1.424 Y84.045 E30.00986
G1 X1.428 Y48.655 E34.24734
G1 X1.452 Y48.278 E34.29257
G1 X1.489 Y47.98 E34.32852
G1 X1.544 Y47.696 E34.36316
G1 X1.62 Y47.405 E34.39917
G1 X1.704 Y47.147 E34.43166
G1 X1.815 Y46.868 E34.46761
G1 X1.937 Y46.61 E34.50179
G1 X2.083 Y46.347 E34.5378
G1 X2.22 Y46.132 E34.56833
G1 X2.418 Y45.866 E34.60803
G1 X2.839 Y45.384 E34.68466
G1 X3.228 Y45.038 E34.747
G1 X3.443 Y44.871 E34.7796
G1 X3.674 Y44.715 E34.81297
G1 X3.942 Y44.557 E34.85022
G1 X4.199 Y44.427 E34.88471
G1 X4.469 Y44.311 E34.91989
G1 X4.725 Y44.219 E34.95246
G1 X5.017 Y44.135 E34.98885
G1 X5.278 Y44.079 E35.02081
G1 X5.598 Y44.031 E35.05955
G1 X6.066 Y43.995 E35.11575
G1 X6.258 Y43.988 E35.13876
G1 X23.328 Y43.992 E37.18266
G1 X23.705 Y44.016 E37.22789
G1 X24.003 Y44.053 E37.26385
G1 X24.288 Y44.108 E37.2986
G1 X25.231 Y44.353 E37.41526
G1 X25.231 Y44.348 E37.41586
G1 X25.886 Y44.429 E37.49489
G1 X26.569 Y44.429 E37.57667
G1 X27.246 Y44.341 E37.65841
G1 X27.906 Y44.17 E37.74005
G1 X28.54 Y43.916 E37.82182
G1 X29.138 Y43.583 E37.90378
G1 X29.687 Y43.179 E37.9854
G1 X30.182 Y42.708 E38.06721
G1 X30.613 Y42.179 E38.14891
G1 X30.974 Y41.599 E38.23071
G1 X31.259 Y40.979 E38.31242
G1 X31.464 Y40.328 E38.39414
G1 X31.584 Y39.657 E38.47576
G1 X31.619 Y39.051 E38.54844
G1 X31.619 Y35.153 E39.01517
G1 X31.577 Y34.485 E39.09531
G1 X31.448 Y33.814 E39.17713
G1 X31.235 Y33.165 E39.25891
G1 X30.943 Y32.548 E39.34065
G1 X30.575 Y31.973 E39.42239
G1 X30.137 Y31.449 E39.50416
G1 X29.637 Y30.985 E39.58584
G1 X29.138 Y30.623 E39.65965
G1 X28.769 Y30.388 E39.71203
G1 X28.499 Y30.187 E39.75234
G1 X28.017 Y29.766 E39.82897
G1 X27.671 Y29.377 E39.8913
G1 X27.504 Y29.162 E39.9239
G1 X27.347 Y28.929 E39.95754
G1 X27.19 Y28.663 E39.99452
G1 X27.06 Y28.406 E40.02901
G1 X26.944 Y28.136 E40.06419
G1 X26.852 Y27.88 E40.09677
G1 X26.768 Y27.588 E40.13315
G1 X26.712 Y27.327 E40.16511
G1 X26.664 Y27.007 E40.20385
G1 X26.627 Y26.529 E40.26126
G1 X26.621 Y26.361 E40.28139
G1 X26.625 Y6.15 E42.70138
G1 X26.649 Y5.773 E42.74661
G1 X26.686 Y5.475 E42.78257
G1 X26.741 Y5.191 E42.81721
G0 F2400 X27.2 Y3.986
G1 F900 X27.2 Y28.679 E45.77386
G0 F2400 X28.8 Y30.407
G1 F900 X28.8 Y2.257 E49.14444
G0 F2400 X30.4 Y1.59
G1 F900 X30.4 Y31.763 E52.75725
G0 F2400 X31.001 Y33.93
G0 X31.118 Y34.536
G0 X31.158 Y39.034
G0 X31.044 Y39.991
G0 X30.4 Y42.44
G1 F900 X30.4 Y98.685 E59.49183
G0 F2400 X28.8 Y98.685
G1 F900 X28.8 Y43.771 E66.06704
G0 F2400 X27.2 Y44.346
G1 F900 X27.2 Y98.685 E72.5734
G0 F2400 X25.6 Y98.685
G1 F900 X25.6 Y44.394 E79.07401
G0 F2400 X24 Y44.053
G1 F900 X24 Y98.685 E85.61546
G0 F2400 X22.4 Y98.685
G1 F900 X22.4 Y43.992 E92.1642
G0 F2400 X20.8 Y43.992
G1 F900 X20.8 Y98.685 E98.71295
G0 F2400 X19.2 Y98.685
G1 F900 X19.2 Y43.992 E105.2617
G0 F2400 X17.6 Y43.991
G1 F900 X17.6 Y98.685 E111.81057
G0 F2400 X16 Y98.685
G1 F900 X16 Y43.991 E118.35943
G0 F2400 X14.4 Y43.99
G1 F900 X14.4 Y98.573 E124.89501
G0 F2400 X12.8 Y98.296
G1 F900 X12.8 Y43.99 E131.39742
G0 F2400 X11.2 Y43.99
G1 F900 X11.2 Y97.852 E137.84667
G0 F2400 X9.6 Y97.179
G1 F900 X9.6 Y43.989 E144.21545
G0 F2400 X8 Y43.989
G1 F900 X8 Y96.253 E150.47336
G0 F2400 X6.4 Y95.027
G1 F900 X6.4 Y43.989 E156.58447
G0 F2400 X4.8 Y44.197
G1 F900 X4.8 Y93.379 E162.47335
G0 F2400 X3.2 Y91.04
G1 F900 X3.2 Y45.062 E167.97859
G0 F2400 X1.6 Y47.481
G1 F900 X1.6 Y86.256 E172.62138
G0 F2400 X32 Y98.685
G1 F900 X32 Y1.484 E184.25988
G0 F2400 X33.6 Y1.484
G1 F900 X33.6 Y98.685 E195.89839
G0 F2400 X35.2 Y98.685
G1 F900 X35.2 Y1.484 E207.53689
G0 F2400 X36.8 Y1.484
G1 F900 X36.8 Y98.685 E219.1754
G0 F2400 X38.4 Y98.686
G1 F900 X38.4 Y1.484 E230.81403
G0 F2400 X40 Y1.484
G1 F900 X40 Y98.686 E242.45265
G0 F2400 X41.6 Y98.686
G1 F900 X41.6 Y1.484 E254.09128
G0 F2400 X43.2 Y1.484
G1 F900 X43.2 Y98.686 E265.7299
G0 F2400 X44.8 Y98.686
G1 F900 X44.8 Y1.484 E277.36853
G0 F2400 X46.4 Y1.485
G1 F900 X46.4 Y98.686 E289.00704
G0 F2400 X48 Y98.686
G1 F900 X48 Y1.485 E300.64554
G0 F2400 X49.6 Y1.485
G1 F900 X49.6 Y98.686 E312.28405
G0 F2400 X51.2 Y98.686
G1 F900 X51.2 Y1.485 E323.92256
G0 F2400 X52.8 Y1.485
G1 F900 X52.8 Y98.686 E335.56106
G0 F2400 X54.4 Y98.686
G1 F900 X54.4 Y1.485 E347.19957
G0 F2400 X56 Y1.485
G1 F900 X56 Y98.686 E358.83807
G0 F2400 X57.6 Y98.686
G1 F900 X57.6 Y1.485 E370.47658
G0 F2400 X59.2 Y1.485
G1 F900 X59.2 Y58.281 E377.27713
G0 F2400 X60.8 Y56.851
G1 F900 X60.8 Y1.486 E383.90634
G0 F2400 X62.4 Y1.486
G1 F900 X62.4 Y56.22 E390.46
G0 F2400 X64 Y55.889
G1 F900 X64 Y1.486 E396.97403
G0 F2400 X65.6 Y1.486
G1 F900 X65.6 Y55.034 E403.38567
G0 F2400 X67.2 Y54.524
G1 F900 X67.2 Y1.486 E409.73626
G0 F2400 X68.8 Y1.486
G1 F900 X68.8 Y54.518 E416.08612
G0 F2400 X70.4 Y55.01
G1 F900 X70.4 Y1.486 E422.4949
G0 F2400 X72 Y1.486
G1 F900 X72 Y55.873 E429.00701
G0 F2400 X73.6 Y56.173
G1 F900 X73.6 Y1.486 E435.55504
G0 F2400 X75.2 Y1.584
G1 F900 X75.2 Y56.181 E442.09229
G0 F2400 X76.8 Y56.181
G1 F900 X76.8 Y1.84 E448.59889
G0 F2400 X78.4 Y2.27
G1 F900 X78.4 Y56.181 E455.054
G0 F2400 X80 Y56.181
G1 F900 X80 Y2.921 E461.43117
G0 F2400 X81.6 Y3.823
G1 F900 X81.6 Y56.181 E467.70033
G0 F2400 X83.2 Y56.181
G1 F900 X83.2 Y5.019 E473.82629
G0 F2400 X84.8 Y6.622
G1 F900 X84.8 Y56.012 E479.74008
G0 F2400 X86.4 Y55.22
G1 F900 X86.4 Y8.89 E485.28747
G0 F2400 X88 Y13.155
G1 F900 X88 Y53.12 E490.07274
G0 F2400 X67.092 Y55.001
G0 X66.485 Y55.158
G0 X61.301 Y57.09
G0 X60.272 Y57.783
G0 X59.821 Y58.233
G0 X59.125 Y59.255
G0 X58.875 Y59.834
G0 X58.702 Y60.431
G0 X58.585 Y61.506
G0 X58.625 Y65.627
G0 X58.742 Y66.237
G0 X58.936 Y66.831
G0 X59.204 Y67.395
G0 X59.474 Y67.818
G0 X62.4 Y71.243
G1 F900 X62.4 Y96.43 E493.08854
G0 F2400 X60.8 Y98.004
G1 F900 X60.8 Y69.669 E496.48127
G0 F2400 X59.2 Y68.233
G1 F900 X59.2 Y98.607 E500.11815
G0 F2400 X30.539 Y32.772
G0 X30.35 Y32.476
G0 X27.13 Y28.545
;TIME_ELAPSED:293.797560
;LAYER:-5
G0 X27.13 Y28.545 Z0.66
;TYPE:SUPPORT
G1 F900 X29.394 Y30.808 E500.43755
G1 X29.137 Y30.622 E500.46921
G1 X28.769 Y30.387 E500.51277
G1 X28.499 Y30.186 E500.54636
G1 X28.016 Y29.764 E500.61036
G1 X27.671 Y29.376 E500.66216
G1 X27.503 Y29.161 E500.68939
G1 X27.347 Y28.928 E500.71737
G1 X27.19 Y28.662 E500.74819
G0 F2400 X29.636 Y30.984
G1 F900 X30.136 Y31.447 E500.81618
G1 X30.575 Y31.972 E500.88447
G1 X30.604 Y32.019 E500.88998
G1 X58.4 Y59.814 E504.81222
G1 X58.44 Y59.675 E504.82666
G1 X58.711 Y59.046 E504.895
G1 X58.836 Y58.836 E504.91938
G1 X26.633 Y26.633 E509.46357
G1 X26.626 Y26.528 E509.47407
G1 X26.619 Y26.36 E509.49085
G1 X26.619 Y25.205 E509.6061
G1 X59.416 Y58.002 E514.23411
G1 X59.478 Y57.922 E514.24421
G1 X59.962 Y57.441 E514.31229
G1 X60.135 Y57.306 E514.33419
G1 X26.619 Y23.791 E519.06359
G1 X26.62 Y22.377 E519.20468
G1 X60.984 Y56.741 E524.05381
G1 X61.093 Y56.678 E524.06637
G1 X61.72 Y56.41 E524.13441
G1 X61.989 Y56.333 E524.16233
G1 X26.62 Y20.963 E529.15335
G1 X26.621 Y19.55 E529.29434
G1 X63.169 Y56.098 E534.45165
G1 X63.408 Y56.061 E534.47578
G1 X63.649 Y56.004 E534.5005
G1 X63.925 Y55.916 E534.5294
G1 X64.196 Y55.811 E534.5584
G1 X64.265 Y55.78 E534.56595
G1 X26.621 Y18.135 E539.87799
G1 X26.621 Y16.722 E540.01898
G1 X65.169 Y55.269 E545.45845
G1 X65.441 Y55.1 E545.4904
G1 X65.454 Y55.12 E545.49278
G1 X65.7 Y54.974 E545.52133
G1 X66.12 Y54.806 E545.56646
G1 X26.621 Y15.308 E551.14013
G1 X26.622 Y13.894 E551.28122
G1 X67.245 Y54.517 E557.01356
G1 X67.679 Y54.463 E557.0572
G1 X68.361 Y54.462 E557.12525
G1 X68.64 Y54.498 E557.15332
G1 X26.622 Y12.48 E563.08251
G1 X26.623 Y11.066 E563.2236
G1 X70.774 Y55.217 E569.45379
G1 X70.92 Y55.299 E569.4705
G1 X71.284 Y55.531 E569.51357
G1 X71.526 Y55.666 E569.54122
G1 X71.792 Y55.79 E569.5705
G1 X72.061 Y55.898 E569.59942
G1 X72.334 Y55.988 E569.6281
G1 X72.605 Y56.058 E569.65603
G1 X72.904 Y56.115 E569.6864
G1 X73.112 Y56.141 E569.70732
G1 X26.623 Y9.652 E576.26742
G1 X26.623 Y8.239 E576.40841
G1 X74.565 Y56.18 E583.17347
G1 X75.979 Y56.18 E583.31456
G1 X26.623 Y6.824 E590.27923
G1 X26.624 Y6.149 E590.34658
G1 X26.648 Y5.772 E590.38427
G1 X26.685 Y5.475 E590.41414
G0 F2400 X26.685 Y5.472
G1 F900 X77.393 Y56.18 E597.56958
G1 X78.807 Y56.179 E597.71067
G1 X27.005 Y4.377 E605.02049
G1 X27.011 Y4.362 E605.02211
G1 X27.133 Y4.105 E605.05049
G1 X27.279 Y3.841 E605.08059
G1 X27.416 Y3.626 E605.10603
G1 X27.523 Y3.481 E605.12401
G1 X80.221 Y56.179 E612.56027
G1 X81.635 Y56.179 E612.70136
G1 X28.194 Y2.738 E620.24246
G1 X28.424 Y2.532 E620.27327
G1 X28.639 Y2.365 E620.30044
G1 X28.87 Y2.209 E620.32825
G1 X29.002 Y2.132 E620.3435
G1 X83.049 Y56.179 E627.97011
G1 X83.485 Y56.179 E628.01362
G1 X83.676 Y56.173 E628.03268
G1 X84.144 Y56.137 E628.07952
G1 X84.384 Y56.1 E628.10375
G1 X29.981 Y1.697 E635.7806
G1 X30.213 Y1.63 E635.8047
G1 X30.474 Y1.574 E635.83133
G1 X30.794 Y1.525 E635.86363
G1 X31.194 Y1.495 E635.90366
G1 X85.47 Y55.771 E643.56259
G1 X85.542 Y55.741 E643.57037
G1 X85.8 Y55.611 E643.5992
G1 X86.068 Y55.453 E643.63024
G1 X86.299 Y55.297 E643.65805
G1 X86.361 Y55.248 E643.66594
G1 X32.596 Y1.483 E651.25276
G1 X34.01 Y1.483 E651.39385
G1 X87.093 Y54.566 E658.88443
G1 X87.324 Y54.302 E658.91944
G1 X87.522 Y54.036 E658.95252
G1 X87.661 Y53.816 E658.97849
G1 X87.696 Y53.754 E658.98559
G1 X35.424 Y1.483 E666.36167
G1 X36.838 Y1.483 E666.50276
G1 X88.121 Y52.766 E673.73934
G0 F2400 X88.122 Y52.762
G1 F900 X88.198 Y52.472 E673.76925
G1 X88.253 Y52.188 E673.79812
G1 X88.29 Y51.889 E673.82818
G1 X88.312 Y51.543 E673.86277
G1 X38.253 Y1.483 E680.92671
G1 X39.667 Y1.483 E681.0678
G1 X88.314 Y50.131 E687.93249
G1 X88.314 Y48.716 E688.07368
G1 X41.082 Y1.484 E694.73862
G1 X42.496 Y1.484 E694.87971
G1 X88.314 Y47.302 E701.34513
G1 X88.314 Y45.888 E701.48622
G1 X43.91 Y1.484 E707.7521
G1 X45.324 Y1.484 E707.89319
G1 X88.315 Y44.474 E713.95961
G1 X88.315 Y43.06 E714.1007
G1 X46.739 Y1.484 E719.96753
G1 X48.153 Y1.484 E720.10862
G1 X88.315 Y41.646 E725.77591
G1 X88.315 Y40.232 E725.917
G1 X49.568 Y1.484 E731.38469
G1 X50.982 Y1.484 E731.52578
G1 X88.316 Y38.818 E736.79401
G1 X88.316 Y37.404 E736.9351
G1 X52.396 Y1.484 E742.0038
G1 X53.81 Y1.484 E742.14489
G1 X88.316 Y35.99 E747.01406
G1 X88.316 Y34.576 E747.15515
