;FLAVOR:Marlin
;TIME:5197
;Filament used: 3.74198m
;Layer height: 0.2
;Generated with Cura_SteamEngine 3.6.0
M104 S200
M105
M109 S200
M82 ;absolute extrusion mode
G28 ;Home
G1 Z15.0 F6000 ;Move the platform down 15mm
;Prime the extruder
G92 E0
G1 F200 E3
G92 E0
G92 E0
G1 F1500 E-6.5
;LAYER_COUNT:50
;LAYER:-6
M107
G0 F2400 X16.169 Y23.533 Z0.36
;TYPE:SUPPORT-INTERFACE
G1 F1500 E0
G1 F900 X16.4 Y23.377 E0.03338
G1 X16.668 Y23.219 E0.07063
G1 X16.925 Y23.089 E0.10511
G1 X17.195 Y22.973 E0.1403
G1 X17.451 Y22.881 E0.17287
G1 X17.743 Y22.797 E0.20925
G1 X18.004 Y22.741 E0.24121
G1 X18.324 Y22.693 E0.27996
G1 X18.792 Y22.657 E0.33616
G1 X18.984 Y22.65 E0.35916
G1 X71.183 Y22.654 E6.60929
G1 X71.56 Y22.678 E6.65452
G1 X71.858 Y22.715 E6.69048
G1 X72.142 Y22.77 E6.72511
G1 X72.433 Y22.846 E6.76113
G1 X72.691 Y22.93 E6.79361
G1 X72.97 Y23.041 E6.82957
G1 X73.228 Y23.163 E6.86374
G1 X73.487 Y23.307 E6.89922
G1 X73.706 Y23.446 E6.93028
G1 X73.972 Y23.644 E6.96998
G1 X74.454 Y24.065 E7.04661
G1 X74.8 Y24.454 E7.10895
G1 X74.967 Y24.669 E7.14155
G1 X75.123 Y24.9 E7.17492
G1 X75.281 Y25.168 E7.21217
G1 X75.413 Y25.427 E7.24698
G1 X75.516 Y25.666 E7.27814
G1 X75.621 Y25.958 E7.3153
G1 X75.702 Y26.24 E7.35043
G1 X75.758 Y26.494 E7.38157
G1 X75.807 Y26.824 E7.42152
G1 X75.843 Y27.285 E7.47688
G1 X75.85 Y27.47 E7.49905
G1 X75.846 Y72.683 E12.9127
G1 X75.822 Y73.06 E12.95793
G1 X75.785 Y73.358 E12.99388
G1 X75.73 Y73.642 E13.02852
G1 X75.654 Y73.933 E13.06453
G1 X75.57 Y74.191 E13.09702
G1 X75.459 Y74.47 E13.13297
G1 X75.337 Y74.728 E13.16715
G1 X75.193 Y74.987 E13.20263
G1 X75.054 Y75.206 E13.23369
G1 X74.856 Y75.472 E13.27339
G1 X74.438 Y75.951 E13.34951
G1 X74.048 Y76.298 E13.41202
G1 X73.832 Y76.466 E13.44478
G1 X73.6 Y76.623 E13.47832
G1 X73.332 Y76.781 E13.51558
G1 X73.075 Y76.911 E13.55006
G1 X72.806 Y77.026 E13.58509
G1 X72.549 Y77.119 E13.61781
G1 X72.257 Y77.203 E13.6542
G1 X71.996 Y77.259 E13.68616
G1 X71.676 Y77.307 E13.7249
G1 X71.208 Y77.343 E13.7811
G1 X71.016 Y77.35 E13.80411
G1 X28.707 Y77.348 E18.87004
G1 X28.319 Y77.331 E18.91654
G1 X26.917 Y77.218 E19.08496
G1 X26.733 Y77.197 E19.10713
G1 X26.02 Y77.078 E19.19368
G1 X24.684 Y76.757 E19.35821
G1 X23.966 Y76.531 E19.44833
G1 X23.805 Y76.471 E19.46891
G1 X22.541 Y75.947 E19.63274
G1 X22.364 Y75.865 E19.6561
G1 X21.852 Y75.603 E19.72497
G1 X21.713 Y75.524 E19.74411
G1 X20.538 Y74.802 E19.90924
G1 X20.39 Y74.703 E19.93056
G1 X19.945 Y74.379 E19.99647
G1 X19.789 Y74.256 E20.02025
G1 X18.755 Y73.372 E20.18314
G1 X18.226 Y72.85 E20.27213
G1 X18.104 Y72.718 E20.29365
G1 X17.225 Y71.687 E20.45587
G1 X17.113 Y71.544 E20.47762
G1 X16.693 Y70.956 E20.56414
G1 X15.973 Y69.781 E20.72915
G1 X15.88 Y69.615 E20.75193
G1 X15.618 Y69.101 E20.82101
G1 X15.545 Y68.942 E20.84196
G1 X15.017 Y67.664 E21.00753
G1 X14.968 Y67.531 E21.0245
G1 X14.785 Y66.965 E21.09572
G1 X14.735 Y66.787 E21.11786
G1 X14.423 Y65.48 E21.27875
G1 X14.388 Y65.303 E21.30036
G1 X14.297 Y64.73 E21.36983
G1 X14.279 Y64.571 E21.38899
G1 X14.164 Y63.096 E21.56613
G1 X14.15 Y62.714 E21.6119
G1 X14.154 Y27.317 E25.85021
G1 X14.178 Y26.94 E25.89545
G1 X14.215 Y26.642 E25.9314
G1 X14.27 Y26.358 E25.96604
G1 X14.346 Y26.067 E26.00205
G1 X14.43 Y25.809 E26.03454
G1 X14.541 Y25.53 E26.07049
G1 X14.663 Y25.272 E26.10466
G1 X14.802 Y25.022 E26.13891
G1 X14.954 Y24.784 E26.17273
G1 X15.144 Y24.528 E26.2109
G1 X15.565 Y24.046 E26.28753
G1 X15.954 Y23.7 E26.34986
G1 X16.169 Y23.533 E26.38246
G0 F2400 X16 Y23.664
G1 F900 X16 Y69.825 E31.90962
G0 F2400 X17.6 Y72.126
G1 F900 X17.6 Y22.838 E37.81119
G0 F2400 X19.2 Y22.651
G1 F900 X19.2 Y73.752 E43.92984
G0 F2400 X20.8 Y74.962
G1 F900 X20.8 Y22.651 E50.19338
G0 F2400 X22.4 Y22.651
G1 F900 X22.4 Y75.881 E56.56695
G0 F2400 X24 Y76.541
G1 F900 X24 Y22.651 E63.01955
G0 F2400 X25.6 Y22.651
G1 F900 X25.6 Y76.977 E69.52436
G0 F2400 X27.2 Y77.24
G1 F900 X27.2 Y22.651 E76.06065
G0 F2400 X28.8 Y22.651
G1 F900 X28.8 Y77.348 E82.60988
G0 F2400 X30.4 Y77.348
G1 F900 X30.4 Y22.651 E89.1591
G0 F2400 X32 Y22.651
G1 F900 X32 Y77.348 E95.70833
G0 F2400 X33.6 Y77.348
G1 F900 X33.6 Y22.652 E102.25744
G0 F2400 X35.2 Y22.652
G1 F900 X35.2 Y77.348 E108.80654
G0 F2400 X36.8 Y77.348
G1 F900 X36.8 Y22.652 E115.35565
G0 F2400 X38.4 Y22.652
G1 F900 X38.4 Y77.348 E121.90476
G0 F2400 X40 Y77.348
G1 F900 X40 Y22.652 E128.45386
G0 F2400 X41.6 Y22.652
G1 F900 X41.6 Y77.348 E135.00297
G0 F2400 X43.2 Y77.348
G1 F900 X43.2 Y22.652 E141.55208
G0 F2400 X44.8 Y22.652
G1 F900 X44.8 Y77.348 E148.10118
G0 F2400 X46.4 Y77.348
G1 F900 X46.4 Y22.653 E154.65017
G0 F2400 X48 Y22.653
G1 F900 X48 Y77.348 E161.19916
G0 F2400 X49.6 Y77.348
G1 F900 X49.6 Y22.653 E167.74815
G0 F2400 X51.2 Y22.653
G1 F900 X51.2 Y77.349 E174.29725
G0 F2400 X52.8 Y77.349
G1 F900 X52.8 Y22.653 E180.84636
G0 F2400 X54.4 Y22.653
G1 F900 X54.4 Y77.349 E187.39547
G0 F2400 X56 Y77.349
G1 F900 X56 Y22.653 E193.94457
G0 F2400 X57.6 Y22.653
G1 F900 X57.6 Y77.349 E200.49368
G0 F2400 X59.2 Y77.349
G1 F900 X59.2 Y22.654 E207.04267
G0 F2400 X60.8 Y22.654
G1 F900 X60.8 Y77.349 E213.59165
G0 F2400 X62.4 Y77.349
G1 F900 X62.4 Y22.654 E220.14064
G0 F2400 X64 Y22.654
G1 F900 X64 Y77.349 E226.68963
G0 F2400 X65.6 Y77.349
G1 F900 X65.6 Y22.654 E233.23862
G0 F2400 X67.2 Y22.654
G1 F900 X67.2 Y77.349 E239.7876
G0 F2400 X68.8 Y77.349
G1 F900 X68.8 Y22.654 E246.33659
G0 F2400 X70.4 Y22.654
G1 F900 X70.4 Y77.349 E252.88558
G0 F2400 X72 Y77.259
G1 F900 X72 Y22.743 E259.41313
G0 F2400 X73.6 Y23.379
G1 F900 X73.6 Y76.623 E265.78838
G0 F2400 X75.2 Y74.975
G1 F900 X75.2 Y25.031 E271.7685
G0 F2400 X14.4 Y25.901
G1 F900 X14.4 Y65.363 E276.49354
G0 F2400 X15.972 Y69.78
;TIME_ELAPSED:165.674390
;LAYER:-5
G0 X15.972 Y69.78 Z0.66
;TYPE:SUPPORT
G1 F900 X16.693 Y70.955 E276.6311
G1 X17.112 Y71.542 E276.70306
G1 X17.225 Y71.686 E276.72132
G1 X18.104 Y72.716 E276.85643
G1 X18.225 Y72.849 E276.87437
G1 X18.754 Y73.371 E276.94853
G1 X19.789 Y74.254 E277.08428
G1 X19.945 Y74.378 E277.10416
G1 X20.389 Y74.702 E277.15901
G1 X20.537 Y74.801 E277.17677
G1 X21.712 Y75.523 E277.31438
G1 X21.852 Y75.602 E277.33042
G1 X21.872 Y75.612 E277.33265
G1 X15.887 Y69.627 E278.1772
G1 X15.88 Y69.614 E278.17867
G1 X15.617 Y69.1 E278.23628
G1 X15.545 Y68.941 E278.2537
G1 X15.016 Y67.663 E278.39171
G1 X14.968 Y67.53 E278.40582
G1 X14.854 Y67.18 E278.44255
G1 X24.313 Y76.639 E279.77732
G1 X24.683 Y76.756 E279.81604
G1 X26.02 Y77.077 E279.95323
G1 X26.194 Y77.106 E279.97084
G1 X14.387 Y65.299 E281.63693
G1 X14.296 Y64.729 E281.69453
G1 X14.279 Y64.57 E281.71048
G1 X14.211 Y63.708 E281.79676
G1 X27.79 Y77.287 E283.7129
G1 X28.318 Y77.329 E283.76575
G1 X28.707 Y77.347 E283.80461
G1 X29.264 Y77.347 E283.86019
G1 X14.15 Y62.233 E285.99294
G1 X14.15 Y60.819 E286.13403
G1 X30.678 Y77.347 E288.46631
G1 X32.092 Y77.347 E288.60739
G1 X14.15 Y59.405 E291.1392
G1 X14.15 Y57.991 E291.28029
G1 X33.506 Y77.347 E294.01163
G1 X34.921 Y77.347 E294.15282
G1 X14.15 Y56.577 E297.08377
G1 X14.151 Y55.163 E297.22486
G1 X36.335 Y77.347 E300.35526
G1 X37.749 Y77.347 E300.49635
G1 X14.151 Y53.749 E303.82628
G1 X14.151 Y52.335 E303.96737
G1 X39.163 Y77.347 E307.49683
G1 X40.578 Y77.347 E307.63802
G1 X14.151 Y50.92 E311.36716
G1 X14.151 Y49.506 E311.50825
G1 X41.992 Y77.347 E315.43691
G1 X43.406 Y77.347 E315.578
G1 X14.152 Y48.093 E319.70606
G1 X14.152 Y46.678 E319.84725
G1 X44.82 Y77.347 E324.1749
G1 X46.234 Y77.347 E324.31599
G1 X14.152 Y45.264 E328.84318
G1 X14.152 Y43.85 E328.98427
G1 X47.649 Y77.347 E333.71106
G1 X49.063 Y77.347 E333.85215
G1 X14.152 Y42.436 E338.77847
G1 X14.152 Y41.022 E338.91956
G1 X50.478 Y77.348 E344.04555
G1 X51.892 Y77.348 E344.18664
G1 X14.152 Y39.608 E349.51216
G1 X14.152 Y38.194 E349.65325
G1 X53.306 Y77.348 E355.1783
G1 X54.72 Y77.348 E355.31939
G1 X14.152 Y36.78 E361.04397
G1 X14.152 Y35.365 E361.18516
G1 X56.135 Y77.348 E367.10942
G1 X57.549 Y77.348 E367.25051
G1 X14.153 Y33.952 E373.37415
G1 X14.153 Y32.538 E373.51524
G1 X58.963 Y77.348 E379.83842
G1 X60.377 Y77.348 E379.9795
G1 X14.153 Y31.124 E386.50221
G1 X14.153 Y29.709 E386.6434
G1 X61.791 Y77.348 E393.36571
G1 X63.206 Y77.348 E393.5069
G1 X14.153 Y28.295 E400.4288
G1 X14.154 Y27.316 E400.52649
G1 X14.177 Y26.939 E400.56418
G1 X14.181 Y26.908 E400.5673
G1 X64.62 Y77.348 E407.68485
G1 X66.034 Y77.348 E407.82594
G1 X14.448 Y25.762 E415.10528
G1 X14.54 Y25.529 E415.13028
G1 X14.663 Y25.271 E415.1588
G1 X14.801 Y25.02 E415.18738
G1 X14.926 Y24.825 E415.21049
G1 X67.448 Y77.348 E422.62198
G1 X68.863 Y77.348 E422.76317
G1 X15.562 Y24.047 E430.28452
G1 X15.953 Y23.699 E430.33675
G1 X16.168 Y23.532 E430.36391
G1 X16.344 Y23.415 E430.385
G1 X70.277 Y77.348 E437.99553
G1 X71.016 Y77.348 E438.06927
G1 X71.207 Y77.342 E438.08833
G1 X71.65 Y77.307 E438.13268
G1 X17.284 Y22.941 E445.8043
G1 X17.451 Y22.88 E445.82205
G1 X17.743 Y22.796 E445.85236
G1 X18.004 Y22.74 E445.879
G1 X18.323 Y22.692 E445.91119
G1 X18.441 Y22.683 E445.92299
G1 X72.788 Y77.031 E453.59201
G1 X72.806 Y77.025 E453.59391
G1 X73.075 Y76.91 E453.6231
G1 X73.331 Y76.779 E453.65179
G1 X73.599 Y76.622 E453.68278
G1 X73.715 Y76.543 E453.69679
G1 X19.821 Y22.65 E461.30174
G1 X21.235 Y22.65 E461.44283
G1 X74.484 Y75.898 E468.95677
G1 X74.855 Y75.47 E469.01329
G1 X75.053 Y75.205 E469.04629
G1 X75.113 Y75.113 E469.05725
G1 X22.65 Y22.65 E476.46035
G1 X24.064 Y22.65 E476.60144
G1 X75.579 Y74.164 E483.87069
G1 X75.652 Y73.932 E483.89496
G1 X75.729 Y73.641 E483.925
G1 X75.784 Y73.358 E483.95376
G1 X75.821 Y73.059 E483.98382
G1 X75.825 Y72.997 E483.99002
G1 X25.478 Y22.65 E491.09453
G1 X26.892 Y22.65 E491.23562
G1 X75.845 Y71.603 E498.14342
G1 X75.845 Y70.188 E498.2846
G1 X28.307 Y22.65 E504.99273
G1 X29.721 Y22.65 E505.13382
G1 X75.845 Y68.774 E511.64241
G1 X75.845 Y67.36 E511.7835
G1 X31.136 Y22.65 E518.0925
G1 X32.55 Y22.65 E518.23359
G1 X75.845 Y65.946 E524.34305
G1 X75.846 Y64.532 E524.48414
G1 X33.964 Y22.65 E530.39414
G1 X35.378 Y22.65 E530.53523
G1 X75.846 Y63.118 E536.2457
G1 X75.846 Y61.704 E536.38679
G1 X36.793 Y22.651 E541.89759
G1 X38.207 Y22.651 E542.03868
G1 X75.846 Y60.29 E547.34995
G1 X75.846 Y58.875 E547.49114
G1 X39.622 Y22.651 E552.60274
G1 X41.036 Y22.651 E552.74383
G1 X75.847 Y57.462 E557.65604
G1 X75.847 Y56.048 E557.79713
G1 X42.45 Y22.651 E562.5098
G1 X43.864 Y22.651 E562.65089
G1 X75.847 Y54.633 E567.16397
G1 X75.847 Y53.219 E567.30506
G1 X45.279 Y22.652 E571.61846
G1 X46.693 Y22.652 E571.75955
G1 X75.847 Y51.805 E575.87343
G1 X75.847 Y50.391 E576.01452
G1 X48.108 Y22.652 E579.92879
G1 X49.522 Y22.652 E580.06988
G1 X75.847 Y48.977 E583.78462
G1 X75.847 Y47.563 E583.92571
G1 X50.936 Y22.652 E587.44092
G1 X52.35 Y22.652 E587.58201
G1 X75.847 Y46.149 E590.89769
G1 X75.847 Y44.735 E591.03878
G1 X53.764 Y22.652 E594.15493
G1 X55.179 Y22.652 E594.29612
G1 X75.847 Y43.32 E597.2126
G1 X75.848 Y41.907 E597.35359
G1 X56.593 Y22.652 E600.07067
G1 X58.008 Y22.652 E600.21186
G1 X75.848 Y40.493 E602.72935
G1 X75.848 Y39.078 E602.87054
G1 X59.422 Y22.652 E605.18843
G1 X60.836 Y22.652 E605.32952
G1 X75.848 Y37.664 E607.44787
G1 X75.848 Y36.25 E607.58896
G1 X62.25 Y22.652 E609.50779
G1 X63.665 Y22.653 E609.64898
G1 X75.849 Y34.837 E611.36827
G1 X75.849 Y33.422 E611.50946
G1 X65.079 Y22.653 E613.02915
G1 X66.494 Y22.653 E613.17034
G1 X75.849 Y32.008 E614.49043
G1 X75.849 Y30.594 E614.63152
G1 X67.908 Y22.653 E615.75208
G1 X69.322 Y22.653 E615.89317
G1 X75.849 Y29.18 E616.8142
G1 X75.849 Y27.765 E616.95539
G1 X70.736 Y22.653 E617.67682
G1 X71.182 Y22.653 E617.72132
G1 X71.559 Y22.678 E617.75902
G1 X71.857 Y22.715 E617.78899
G1 X72.141 Y22.769 E617.81783
G1 X72.312 Y22.814 E617.83547
G1 X75.686 Y26.189 E618.31165
G0 F2400 X75.62 Y25.957
G1 F900 X75.515 Y25.665 E618.34261
G1 X75.412 Y25.426 E618.36858
G1 X75.28 Y25.168 E618.3975
G1 X75.122 Y24.899 E618.42863
G1 X74.966 Y24.668 E618.45644
G1 X74.799 Y24.454 E618.48353
G1 X74.453 Y24.064 E618.53555
G1 X73.971 Y23.643 E618.5994
G1 X73.705 Y23.445 E618.63249
G1 X73.486 Y23.306 E618.65837
G1 X73.227 Y23.162 E618.68794
G1 X72.969 Y23.041 E618.71638
G1 X72.69 Y22.93 E618.74634
G1 X72.432 Y22.845 E618.77344
G1 X72.312 Y22.814 E618.78581
G0 F2400 X17.092 Y22.8
;TIME_ELAPSED:395.888739
;LAYER:-4
G0 X17.092 Y22.8 Z0.86
;TYPE:SUPPORT-INTERFACE
G1 F1200 X16.832 Y22.911 E618.79521
G1 X16.577 Y23.04 E618.80472
G1 X16.306 Y23.2 E618.81518
G1 X73.693 Y23.2 E620.72388
G1 X73.831 Y23.288 E620.72933
G1 X74.097 Y23.486 E620.74036
G1 X74.228 Y23.6 E620.74613
G1 X15.764 Y23.6 E622.69065
G1 X15.422 Y23.904 E622.70587
G1 X15.338 Y24 E622.71011
G1 X74.666 Y24 E624.68337
G1 X74.943 Y24.312 E624.69725
G1 X75.012 Y24.4 E624.70097
G1 X14.99 Y24.4 E626.69731
G1 X14.784 Y24.676 E626.70876
G1 X14.705 Y24.8 E626.71365
G1 X75.297 Y24.8 E628.72895
G1 X75.46 Y25.076 E628.73961
G1 X75.523 Y25.2 E628.74424
G1 X14.476 Y25.2 E630.77467
G1 X14.349 Y25.468 E630.78453
G1 X14.297 Y25.6 E630.78925
G1 X75.706 Y25.6 E632.83172
G1 X75.812 Y25.895 E632.84215
G1 X75.843 Y26 E632.84579
G1 X14.157 Y26 E634.89748
G1 X14.15 Y26.02 E634.89818
G1 X14.074 Y26.309 E634.90812
G1 X14.057 Y26.4 E634.9112
G1 X75.943 Y26.4 E636.96953
G1 X75.954 Y26.451 E636.97127
G1 X76.007 Y26.8 E636.98301
G1 X13.993 Y26.8 E639.0456
G1 X13.979 Y26.913 E639.04939
G1 X13.963 Y27.2 E639.05895
G1 X76.038 Y27.2 E641.12358
G1 X76.043 Y27.277 E641.12614
G1 X76.05 Y27.469 E641.13253
G1 X76.049 Y27.6 E641.13689
G1 X13.949 Y27.6 E643.20234
G1 X13.949 Y28 E643.21565
G1 X76.049 Y28 E645.2811
G1 X76.049 Y28.4 E645.29441
G1 X13.949 Y28.4 E647.35986
G1 X13.949 Y28.8 E647.37316
G1 X76.049 Y28.8 E649.43862
G1 X76.049 Y29.2 E649.45192
G1 X13.949 Y29.2 E651.51738
G1 X13.949 Y29.6 E651.53068
G1 X76.049 Y29.6 E653.59614
G1 X76.049 Y30 E653.60944
G1 X13.949 Y30 E655.67489
G1 X13.949 Y30.4 E655.6882
G1 X76.049 Y30.4 E657.75365
G1 X76.049 Y30.8 E657.76696
G1 X13.949 Y30.8 E659.83241
G1 X13.949 Y31.2 E659.84572
G1 X76.049 Y31.2 E661.91117
G1 X76.049 Y31.6 E661.92447
G1 X13.949 Y31.6 E663.98993
G1 X13.949 Y32 E664.00323
G1 X76.049 Y32 E666.06869
G1 X76.049 Y32.4 E666.08199
G1 X13.949 Y32.4 E668.14744
G1 X13.949 Y32.8 E668.16075
G1 X76.049 Y32.8 E670.2262
G1 X76.049 Y33.2 E670.23951
G1 X13.949 Y33.2 E672.30496
G1 X13.949 Y33.6 E672.31827
G1 X76.049 Y33.6 E674.38372
G1 X76.049 Y34 E674.39702
G1 X13.949 Y34 E676.46248
G1 X13.949 Y34.4 E676.47578
G1 X76.049 Y34.4 E678.54124
G1 X76.049 Y34.8 E678.55454
G1 X13.949 Y34.8 E680.62
G1 X13.949 Y35.2 E680.6333
G1 X76.049 Y35.2 E682.69875
G1 X76.049 Y35.6 E682.71206
G1 X13.949 Y35.6 E684.77751
G1 X13.949 Y36 E684.79082
G1 X76.049 Y36 E686.85627
G1 X76.049 Y36.4 E686.86957
G1 X13.949 Y36.4 E688.93503
G1 X13.949 Y36.8 E688.94833
G1 X76.049 Y36.8 E691.01379
G1 X76.049 Y37.2 E691.02709
G1 X13.949 Y37.2 E693.09255
G1 X13.949 Y37.6 E693.10585
G1 X76.049 Y37.6 E695.1713
G1 X76.049 Y38 E695.18461
G1 X13.949 Y38 E697.25006
G1 X13.949 Y38.4 E697.26337
G1 X76.049 Y38.4 E699.32882
G1 X76.048 Y38.8 E699.34213
G1 X13.949 Y38.8 E701.40755
G1 X13.949 Y39.2 E701.42085
G1 X76.048 Y39.2 E703.48627
G1 X76.048 Y39.6 E703.49958
G1 X13.949 Y39.6 E705.565
G1 X13.949 Y40 E705.5783
G1 X76.048 Y40 E707.64372
G1 X76.048 Y40.4 E707.65703
G1 X13.949 Y40.4 E709.72245
G1 X13.949 Y40.8 E709.73575
G1 X76.048 Y40.8 E711.80117
G1 X76.048 Y41.2 E711.81448
G1 X13.949 Y41.2 E713.8799
G1 X13.949 Y41.6 E713.8932
G1 X76.048 Y41.6 E715.95862
G1 X76.048 Y42 E715.97193
G1 X13.949 Y42 E718.03735
G1 X13.949 Y42.4 E718.05065
G1 X76.048 Y42.4 E720.11607
G1 X76.048 Y42.8 E720.12938
G1 X13.949 Y42.8 E722.1948
G1 X13.949 Y43.2 E722.2081
G1 X76.048 Y43.2 E724.27352
G1 X76.048 Y43.6 E724.28683
G1 X13.949 Y43.6 E726.35225
G1 X13.949 Y44 E726.36555
G1 X76.048 Y44 E728.43097
G1 X76.048 Y44.4 E728.44428
G1 X13.949 Y44.4 E730.5097
G1 X13.949 Y44.8 E730.523
G1 X76.048 Y44.8 E732.58842
G1 X76.048 Y45.2 E732.60173
G1 X13.95 Y45.2 E734.66712
G1 X13.95 Y45.6 E734.68042
G1 X76.048 Y45.6 E736.74581
G1 X76.048 Y46 E736.75911
G1 X13.95 Y46 E738.8245
G1 X13.95 Y46.4 E738.8378
G1 X76.048 Y46.4 E740.90319
G1 X76.048 Y46.8 E740.9165
G1 X13.95 Y46.8 E742.98188
G1 X13.95 Y47.2 E742.99519
G1 X76.048 Y47.2 E745.06058
G1 X76.048 Y47.6 E745.07388
G1 X13.95 Y47.6 E747.13927
