;FLAVOR:Marlin
;TIME:9106
;Filament used: 6.46858m
;Layer height: 0.2
;Generated with Cura_SteamEngine 3.6.0
M104 S200
M105
M109 S200
M82 ;absolute extrusion mode
G28 ;Home
G1 Z15.0 F6000 ;Move the platform down 15mm
;Prime the extruder
G92 E0
G1 F200 E3
G92 E0
G92 E0
G1 F1500 E-6.5
;LAYER_COUNT:53
;LAYER:-6
M107
G0 F2400 X5.597 Y5.943 Z0.36
;TYPE:SUPPORT-INTERFACE
G1 F1500 E0
G1 F900 X6.003 Y5.537 E0.06875
G1 X6.137 Y5.413 E0.09061
G1 X7.173 Y4.528 E0.25376
G1 X7.782 Y4.079 E0.34435
G1 X7.906 Y3.996 E0.36222
G1 X9.096 Y3.267 E0.52932
G1 X9.233 Y3.191 E0.54807
G1 X9.768 Y2.919 E0.61994
G1 X9.911 Y2.853 E0.63879
G1 X11.185 Y2.328 E0.80378
G1 X11.337 Y2.272 E0.82318
G1 X12.061 Y2.045 E0.91403
G1 X13.383 Y1.729 E1.07678
G1 X13.553 Y1.695 E1.09754
G1 X14.135 Y1.604 E1.16807
G1 X14.273 Y1.588 E1.18471
G1 X15.763 Y1.471 E1.36366
G1 X16.045 Y1.462 E1.39745
G1 X58.415 Y1.459 E6.47068
G1 X58.918 Y1.487 E6.531
G1 X59.216 Y1.524 E6.56696
G1 X59.5 Y1.579 E6.60159
G1 X59.791 Y1.655 E6.63761
G1 X60.049 Y1.739 E6.67009
G1 X60.328 Y1.85 E6.70605
G1 X60.586 Y1.972 E6.74022
G1 X60.845 Y2.116 E6.7757
G1 X61.064 Y2.255 E6.80676
G1 X61.33 Y2.453 E6.84647
G1 X61.812 Y2.874 E6.92309
G1 X62.158 Y3.263 E6.98543
G1 X62.325 Y3.478 E7.01803
G1 X62.481 Y3.709 E7.0514
G1 X62.639 Y3.977 E7.08865
G1 X62.771 Y4.236 E7.12346
G1 X62.874 Y4.475 E7.15462
G1 X62.981 Y4.773 E7.19253
G1 X63.061 Y5.052 E7.22729
G1 X63.116 Y5.304 E7.25817
G1 X63.166 Y5.633 E7.29802
G1 X63.201 Y6.094 E7.35337
G1 X63.208 Y6.278 E7.37542
G1 X63.204 Y26.49 E9.79553
G1 X63.18 Y26.867 E9.84077
G1 X63.143 Y27.165 E9.87672
G1 X63.088 Y27.449 E9.91136
G1 X63.012 Y27.74 E9.94737
G1 X62.928 Y27.998 E9.97986
G1 X62.817 Y28.277 E10.01581
G1 X62.695 Y28.535 E10.04998
G1 X62.551 Y28.794 E10.08547
G1 X62.412 Y29.013 E10.11652
G1 X62.214 Y29.279 E10.15623
G1 X61.793 Y29.761 E10.23286
G1 X61.406 Y30.105 E10.29486
G1 X61.189 Y30.274 E10.32779
G1 X60.941 Y30.442 E10.36366
G1 X60.855 Y30.492 E10.37557
G1 X60.301 Y30.868 E10.45574
G1 X59.788 Y31.32 E10.5376
G1 X59.337 Y31.832 E10.6193
G1 X58.954 Y32.397 E10.70103
G1 X58.646 Y33.006 E10.78274
G1 X58.416 Y33.649 E10.86451
G1 X58.269 Y34.319 E10.94664
G1 X58.208 Y35.122 E11.04307
G1 X58.208 Y38.03 E11.39126
G1 X58.25 Y38.698 E11.4714
G1 X58.379 Y39.369 E11.55322
G1 X58.592 Y40.018 E11.63501
G1 X58.884 Y40.635 E11.71674
G1 X59.252 Y41.21 E11.79848
G1 X59.69 Y41.734 E11.88025
G1 X60.19 Y42.198 E11.96193
G1 X60.746 Y42.597 E12.04387
G1 X61.346 Y42.921 E12.12552
G1 X61.982 Y43.167 E12.20717
G1 X62.645 Y43.331 E12.28895
G1 X63.259 Y43.406 E12.36301
G1 X63.689 Y43.432 E12.41459
G1 X63.993 Y43.47 E12.45128
G1 X64.275 Y43.525 E12.48568
G1 X64.563 Y43.6 E12.52131
G1 X64.824 Y43.685 E12.55418
G1 X65.103 Y43.796 E12.59013
G1 X65.361 Y43.918 E12.6243
G1 X65.62 Y44.061 E12.65973
G1 X65.969 Y44.285 E12.70938
G1 X66.556 Y44.608 E12.78961
G1 X67.191 Y44.861 E12.87145
G1 X67.852 Y45.031 E12.95317
G1 X68.529 Y45.116 E13.03487
G1 X69.212 Y45.116 E13.11665
G1 X69.889 Y45.028 E13.19839
G1 X70.55 Y44.857 E13.28015
G1 X71.184 Y44.603 E13.36192
G1 X71.782 Y44.27 E13.44388
G1 X72.093 Y44.069 E13.48822
G1 X72.339 Y43.932 E13.52193
G1 X72.607 Y43.803 E13.55755
G1 X72.871 Y43.697 E13.59161
G1 X73.156 Y43.602 E13.62758
G1 X73.442 Y43.527 E13.66298
G1 X73.701 Y43.476 E13.69459
G1 X74.018 Y43.435 E13.73286
G1 X74.549 Y43.405 E13.79654
G1 X84.496 Y43.409 E14.98756
G1 X84.873 Y43.433 E15.0328
G1 X85.171 Y43.47 E15.06875
G1 X85.455 Y43.525 E15.10339
G1 X85.743 Y43.6 E15.13902
G1 X86.004 Y43.685 E15.17189
G1 X86.283 Y43.796 E15.20784
G1 X86.541 Y43.918 E15.24201
G1 X86.8 Y44.062 E15.2775
G1 X87.019 Y44.201 E15.30855
G1 X87.285 Y44.399 E15.34826
G1 X87.767 Y44.82 E15.42489
G1 X88.113 Y45.209 E15.48722
G1 X88.28 Y45.424 E15.51982
G1 X88.436 Y45.655 E15.5532
G1 X88.594 Y45.923 E15.59045
G1 X88.726 Y46.182 E15.62525
G1 X88.829 Y46.421 E15.65642
G1 X88.936 Y46.719 E15.69433
G1 X89.016 Y46.998 E15.72908
G1 X89.072 Y47.259 E15.76104
G1 X89.12 Y47.579 E15.79979
G1 X89.156 Y48.04 E15.85515
G1 X89.163 Y48.225 E15.87732
G1 X89.161 Y83.555 E20.10761
G1 X89.149 Y83.878 E20.14631
G1 X89.029 Y85.355 E20.32375
G1 X89.01 Y85.517 E20.34328
G1 X88.922 Y86.07 E20.41032
G1 X88.886 Y86.25 E20.4323
G1 X88.527 Y87.722 E20.61372
G1 X88.345 Y88.28 E20.684
G1 X88.276 Y88.468 E20.70798
G1 X87.754 Y89.724 E20.87084
G1 X87.423 Y90.388 E20.95967
G1 X87.339 Y90.537 E20.98015
G1 X86.62 Y91.711 E21.14499
G1 X86.526 Y91.851 E21.16518
G1 X86.187 Y92.317 E21.23418
G1 X86.084 Y92.447 E21.25404
G1 X85.185 Y93.498 E21.41964
G1 X84.656 Y94.034 E21.50981
G1 X84.53 Y94.15 E21.53032
G1 X83.502 Y95.025 E21.69196
G1 X83.357 Y95.14 E21.71412
G1 X82.765 Y95.564 E21.80131
G1 X81.601 Y96.279 E21.96488
G1 X81.43 Y96.374 E21.9883
G1 X80.924 Y96.632 E22.05631
G1 X80.741 Y96.716 E22.08042
G1 X79.49 Y97.231 E22.2424
G1 X79.322 Y97.293 E22.26384
G1 X78.779 Y97.469 E22.33219
G1 X78.627 Y97.512 E22.35111
G1 X77.273 Y97.837 E22.51783
G1 X77.143 Y97.863 E22.53371
G1 X76.544 Y97.958 E22.60633
G1 X76.377 Y97.977 E22.62645
G1 X74.893 Y98.092 E22.80467
G1 X74.619 Y98.102 E22.8375
G1 X32.256 Y98.104 E27.9099
G1 X31.753 Y98.076 E27.97022
G1 X31.455 Y98.039 E28.00618
G1 X31.171 Y97.984 E28.04081
G1 X30.88 Y97.908 E28.07682
G1 X30.62 Y97.823 E28.10958
G1 X30.343 Y97.713 E28.14526
G1 X30.084 Y97.59 E28.1796
G1 X29.826 Y97.447 E28.21492
G1 X29.607 Y97.308 E28.24597
G1 X29.341 Y97.11 E28.28568
G1 X28.859 Y96.689 E28.36231
G1 X28.513 Y96.3 E28.42464
G1 X28.346 Y96.085 E28.45724
G1 X28.189 Y95.852 E28.49088
G1 X28.032 Y95.586 E28.52786
G1 X27.902 Y95.329 E28.56235
G1 X27.786 Y95.059 E28.59754
G1 X27.694 Y94.803 E28.63011
G1 X27.61 Y94.511 E28.66649
G1 X27.554 Y94.25 E28.69845
G1 X27.506 Y93.93 E28.7372
G1 X27.469 Y93.452 E28.7946
G1 X27.463 Y93.284 E28.81473
G1 X27.467 Y73.071 E31.23496
G1 X27.491 Y72.694 E31.28019
G1 X27.528 Y72.396 E31.31615
G1 X27.583 Y72.112 E31.35079
G1 X27.659 Y71.821 E31.3868
G1 X27.743 Y71.563 E31.41929
G1 X27.854 Y71.284 E31.45524
G1 X27.976 Y71.026 E31.48941
G1 X28.122 Y70.763 E31.52543
G1 X28.259 Y70.548 E31.55596
G1 X28.457 Y70.282 E31.59566
G1 X28.878 Y69.8 E31.67229
G1 X29.267 Y69.454 E31.73462
G1 X29.482 Y69.287 E31.76722
G1 X29.73 Y69.119 E31.80309
G1 X29.816 Y69.069 E31.815
G1 X30.37 Y68.693 E31.89517
G1 X30.883 Y68.241 E31.97703
G1 X31.334 Y67.729 E32.05873
G1 X31.717 Y67.164 E32.14046
G1 X32.025 Y66.555 E32.22218
G1 X32.255 Y65.912 E32.30394
G1 X32.402 Y65.242 E32.38608
G1 X32.463 Y64.439 E32.4825
G1 X32.463 Y60.755 E32.92361
G1 X32.421 Y60.087 E33.00375
G1 X32.292 Y59.416 E33.08557
G1 X32.079 Y58.767 E33.16735
G1 X31.787 Y58.15 E33.24909
G1 X31.419 Y57.575 E33.33083
G1 X30.981 Y57.051 E33.4126
G1 X30.481 Y56.587 E33.49428
G1 X29.925 Y56.188 E33.57622
G1 X29.325 Y55.864 E33.65787
G1 X28.689 Y55.618 E33.73952
G1 X28.025 Y55.454 E33.82141
G1 X27.347 Y55.375 E33.90314
G1 X26.664 Y55.382 E33.98493
G1 X25.988 Y55.475 E34.06663
G1 X25.485 Y55.611 E34.12902
G1 X25.479 Y55.596 E34.13096
G1 X24.679 Y55.899 E34.23338
G1 X24.405 Y55.985 E34.26777
G1 X24.16 Y56.044 E34.29794
G1 X23.805 Y56.102 E34.34101
G1 X23.266 Y56.148 E34.40579
G1 X23.058 Y56.158 E34.43072
G1 X6.175 Y56.154 E36.45223
G1 X5.798 Y56.13 E36.49746
G1 X5.5 Y56.093 E36.53342
G1 X5.216 Y56.038 E36.56806
G1 X4.925 Y55.962 E36.60407
G1 X4.665 Y55.877 E36.63682
G1 X4.388 Y55.767 E36.67251
G1 X4.129 Y55.644 E36.70684
G1 X3.87 Y55.501 E36.74226
G1 X3.652 Y55.362 E36.77322
G1 X3.386 Y55.164 E36.81293
G1 X2.904 Y54.743 E36.88955
G1 X2.558 Y54.354 E36.95189
G1 X2.391 Y54.139 E36.98449
G1 X2.234 Y53.906 E37.01813
G1 X2.077 Y53.64 E37.05511
G1 X1.947 Y53.383 E37.0896
G1 X1.831 Y53.113 E37.12478
G1 X1.739 Y52.857 E37.15736
G1 X1.655 Y52.565 E37.19374
G1 X1.599 Y52.304 E37.2257
G1 X1.551 Y51.984 E37.26444
G1 X1.514 Y51.506 E37.32185
G1 X1.508 Y51.338 E37.34198
G1 X1.51 Y16.014 E41.57155
G1 X1.526 Y15.646 E41.61565
G1 X1.657 Y14.064 E41.80572
G1 X1.75 Y13.48 E41.87653
G1 X1.785 Y13.306 E41.89778
G1 X2.101 Y11.991 E42.05972
G1 X2.324 Y11.281 E42.14883
G1 X2.389 Y11.105 E42.17129
G1 X2.914 Y9.837 E42.33562
G1 X2.989 Y9.675 E42.35699
G1 X3.247 Y9.169 E42.425
G1 X3.329 Y9.024 E42.44495
G1 X4.052 Y7.846 E42.61044
G1 X4.137 Y7.719 E42.62874
G1 X4.5 Y7.221 E42.70253
G1 X4.587 Y7.112 E42.71923
G1 X5.479 Y6.071 E42.88337
G1 X5.597 Y5.943 E42.90422
G0 F2400 X6.4 Y5.188
G1 F900 X6.4 Y56.154 E49.00671
G0 F2400 X8 Y56.154
G1 F900 X8 Y3.938 E55.25887
G0 F2400 X9.6 Y3.004
G1 F900 X9.6 Y56.154 E61.62286
G0 F2400 X11.2 Y56.155
G1 F900 X11.2 Y2.322 E68.06864
G0 F2400 X12.8 Y1.868
G1 F900 X12.8 Y56.155 E74.56877
G0 F2400 X14.4 Y56.155
G1 F900 X14.4 Y1.578 E81.10363
G0 F2400 X16 Y1.463
G1 F900 X16 Y56.156 E87.65238
G0 F2400 X17.6 Y56.156
G1 F900 X17.6 Y1.461 E94.20137
G0 F2400 X19.2 Y1.461
G1 F900 X19.2 Y56.157 E100.75047
G0 F2400 X20.8 Y56.157
G1 F900 X20.8 Y1.461 E107.29958
G0 F2400 X22.4 Y1.461
G1 F900 X22.4 Y56.157 E113.84869
G0 F2400 X24 Y56.071
G1 F900 X24 Y1.461 E120.3875
G0 F2400 X25.6 Y1.461
G1 F900 X25.6 Y55.58 E126.86751
G0 F2400 X27.2 Y55.377
G1 F900 X27.2 Y1.461 E133.32323
G0 F2400 X28.8 Y1.461
G1 F900 X28.8 Y55.66 E139.81282
G0 F2400 X30.4 Y56.528
G1 F900 X30.4 Y1.46 E146.40647
G0 F2400 X32 Y1.46
G1 F900 X32 Y58.6 E153.24822
G0 F2400 X32 Y66.604
G1 F900 X32 Y98.089 E157.01812
G0 F2400 X33.6 Y98.104
G1 F900 X33.6 Y1.46 E168.58993
G0 F2400 X35.2 Y1.46
G1 F900 X35.2 Y98.104 E180.16175
G0 F2400 X36.8 Y98.104
G1 F900 X36.8 Y1.46 E191.73356
G0 F2400 X38.4 Y1.46
G1 F900 X38.4 Y98.104 E203.30537
G0 F2400 X40 Y98.104
G1 F900 X40 Y1.46 E214.87718
G0 F2400 X41.6 Y1.46
G1 F900 X41.6 Y98.104 E226.449
G0 F2400 X43.2 Y98.104
G1 F900 X43.2 Y1.46 E238.02081
G0 F2400 X44.8 Y1.459
G1 F900 X44.8 Y98.104 E249.59274
G0 F2400 X46.4 Y98.104
G1 F900 X46.4 Y1.459 E261.16468
G0 F2400 X48 Y1.459
G1 F900 X48 Y98.104 E272.73661
G0 F2400 X49.6 Y98.104
G1 F900 X49.6 Y1.459 E284.30854
G0 F2400 X51.2 Y1.459
G1 F900 X51.2 Y98.104 E295.88047
G0 F2400 X52.8 Y98.104
G1 F900 X52.8 Y1.459 E307.45241
G0 F2400 X54.4 Y1.459
G1 F900 X54.4 Y98.103 E319.02422
G0 F2400 X56 Y98.103
G1 F900 X56 Y1.459 E330.59603
G0 F2400 X57.6 Y1.459
G1 F900 X57.6 Y98.103 E342.16785
G0 F2400 X59.2 Y98.103
G1 F900 X59.2 Y41.129 E348.98971
G0 F2400 X60.8 Y42.627
G1 F900 X60.8 Y98.103 E355.63221
G0 F2400 X62.4 Y98.103
G1 F900 X62.4 Y43.271 E362.1976
G0 F2400 X64 Y43.472
G1 F900 X64 Y98.103 E368.73893
G0 F2400 X65.6 Y98.103
G1 F900 X65.6 Y44.05 E375.21104
G0 F2400 X67.2 Y44.864
G1 F900 X67.2 Y98.103 E381.58569
G0 F2400 X68.8 Y98.103
G1 F900 X68.8 Y45.116 E387.93017
G0 F2400 X70.4 Y44.895
G1 F900 X70.4 Y98.103 E394.30111
G0 F2400 X72 Y98.103
G1 F900 X72 Y44.129 E400.76377
G0 F2400 X73.6 Y43.495
G1 F900 X73.6 Y98.103 E407.30234
G0 F2400 X75.2 Y98.069
G1 F900 X75.2 Y43.406 E413.84749
G0 F2400 X76.8 Y43.406
G1 F900 X76.8 Y97.918 E420.37457
G0 F2400 X78.4 Y97.567
G1 F900 X78.4 Y43.407 E426.8595
G0 F2400 X80 Y43.408
G1 F900 X80 Y97.022 E433.27905
G0 F2400 X81.6 Y96.28
G1 F900 X81.6 Y43.408 E439.60976
G0 F2400 X83.2 Y43.409
G1 F900 X83.2 Y95.253 E445.81738
G0 F2400 X84.8 Y93.889
G1 F900 X84.8 Y43.429 E451.85928
G0 F2400 X86.4 Y43.852
G1 F900 X86.4 Y92.025 E457.62734
G0 F2400 X88 Y89.133
G1 F900 X88 Y45.082 E462.90186
G0 F2400 X68.557 Y44.655
G0 X67.333 Y44.422
G0 X61.54 Y42.502
G0 X60.989 Y42.205
G0 X60.483 Y41.841
G0 X60.027 Y41.418
G0 X59.623 Y40.935
G0 X59.288 Y40.411
G0 X59.02 Y39.847
G0 X58.826 Y39.253
G0 X58.709 Y38.643
G0 X58.669 Y35.144
G0 X58.727 Y34.386
G0 X58.86 Y33.775
G0 X59.348 Y32.636
G0 X59.548 Y32.34
G0 X62.4 Y29.03
G1 F900 X62.4 Y3.59 E465.94795
G0 F2400 X60.8 Y2.091
G1 F900 X60.8 Y30.53 E469.35314
G0 F2400 X59.2 Y32.035
G1 F900 X59.2 Y1.523 E473.00654
G0 F2400 X4.8 Y6.863
G1 F900 X4.8 Y55.921 E478.88057
G0 F2400 X3.2 Y55.001
G1 F900 X3.2 Y9.261 E484.35732
G0 F2400 X1.6 Y14.752
G1 F900 X1.6 Y52.308 E488.85414
G0 F2400 X27.942 Y55.907
G0 X28.551 Y56.058
G0 X29.682 Y56.58
G0 X30.188 Y56.944
G0 X30.644 Y57.367
G0 X31.048 Y57.85
G0 X31.383 Y58.374
G0 X31.651 Y58.938
G0 X31.962 Y60.138
G0 X32.002 Y64.417
G0 X31.944 Y65.175
G0 X31.811 Y65.786
G0 X31.323 Y66.925
G0 X31.123 Y67.221
G0 X28.8 Y69.889
G1 F900 X28.8 Y96.622 E492.05506
G0 F2400 X30.4 Y97.735
G1 F900 X30.4 Y68.666 E495.53568
G0 F2400 X31.6 Y66.374
G0 X31.811 Y65.786
G0 X31.944 Y65.175
G0 X32.002 Y64.417
G0 X31.962 Y60.138
G0 X31.651 Y58.938
G0 X31.383 Y58.374
G0 X31.048 Y57.85
G0 X30.644 Y57.367
G0 X30.188 Y56.944
G0 X29.682 Y56.58
G0 X28.551 Y56.058
G0 X28.206 Y55.974
G0 X1.739 Y52.856
;TIME_ELAPSED:291.813186
;LAYER:-5
G0 X1.739 Y52.856 Z0.66
;TYPE:SUPPORT
G1 F900 X1.831 Y53.112 E495.56282
G1 X1.947 Y53.382 E495.59214
G1 X2.076 Y53.638 E495.62074
G1 X2.233 Y53.904 E495.65156
G1 X2.39 Y54.138 E495.67968
G1 X2.557 Y54.353 E495.70685
G1 X2.904 Y54.742 E495.75886
G1 X3.386 Y55.163 E495.82272
G1 X3.652 Y55.361 E495.8558
G1 X3.869 Y55.5 E495.88152
G1 X4.128 Y55.642 E495.91099
G1 X4.388 Y55.766 E495.93973
G1 X4.664 Y55.876 E495.96938
G1 X4.924 Y55.961 E495.99667
G1 X5.093 Y56.004 E496.01407
G1 X1.656 Y52.567 E496.49907
G1 X1.599 Y52.303 E496.52602
G1 X1.55 Y51.982 E496.55842
G1 X1.513 Y51.504 E496.60626
G1 X1.507 Y51.337 E496.62293
G1 X1.507 Y51.005 E496.65606
G1 X6.655 Y56.153 E497.3825
G1 X8.07 Y56.153 E497.52369
G1 X1.507 Y49.59 E498.4498
G1 X1.507 Y48.176 E498.59089
G1 X9.485 Y56.154 E499.71667
G1 X10.899 Y56.154 E499.85776
G1 X1.507 Y46.762 E501.18307
G1 X1.507 Y45.348 E501.32416
G1 X12.314 Y56.154 E502.84907
G1 X13.728 Y56.154 E502.99016
G1 X1.507 Y43.933 E504.71468
G1 X1.507 Y42.519 E504.85577
G1 X15.143 Y56.155 E506.77995
G1 X16.557 Y56.155 E506.92104
G1 X1.508 Y41.106 E509.04462
G1 X1.508 Y39.692 E509.18571
G1 X17.972 Y56.156 E511.50896
G1 X19.386 Y56.156 E511.65005
G1 X1.508 Y38.277 E514.1729
G1 X1.508 Y36.863 E514.31399
G1 X20.801 Y56.157 E517.03651
G1 X22.215 Y56.157 E517.1776
G1 X1.508 Y35.449 E520.09965
G1 X1.508 Y34.035 E520.24074
G1 X23.591 Y56.118 E523.35689
G1 X23.804 Y56.101 E523.37821
G1 X24.159 Y56.043 E523.4141
G1 X24.405 Y55.984 E523.43934
G1 X24.679 Y55.898 E523.468
G1 X24.755 Y55.868 E523.47615
G1 X1.508 Y32.621 E526.75655
G1 X1.508 Y31.207 E526.89764
G1 X25.82 Y55.519 E530.32833
G1 X25.988 Y55.474 E530.34568
G1 X26.664 Y55.381 E530.41377
G1 X27.092 Y55.376 E530.45648
G1 X1.508 Y29.793 E534.06659
G1 X1.508 Y28.379 E534.20768
G1 X28.783 Y55.653 E538.0564
G0 F2400 X29.325 Y55.862
G1 F900 X29.925 Y56.187 E538.12449
G1 X30.481 Y56.586 E538.19277
G1 X30.981 Y57.05 E538.26084
G1 X31.418 Y57.574 E538.32892
G1 X31.787 Y58.149 E538.39709
G1 X32.078 Y58.766 E538.46516
G1 X32.167 Y59.037 E538.49362
G1 X71.231 Y98.101 E544.00597
G1 X72.645 Y98.101 E544.14706
G1 X1.508 Y26.964 E554.18526
G1 X1.508 Y25.55 E554.32635
G1 X74.059 Y98.101 E564.56408
G1 X74.619 Y98.101 E564.61996
G1 X74.892 Y98.091 E564.64721
G1 X75.422 Y98.049 E564.70026
G1 X1.509 Y24.137 E575.13012
G1 X1.509 Y22.722 E575.27131
G1 X76.716 Y97.929 E585.88383
G1 X77.142 Y97.862 E585.92685
G1 X77.273 Y97.836 E585.94018
G1 X77.889 Y97.688 E586.00339
G1 X1.509 Y21.308 E596.78144
G1 X1.509 Y19.894 E596.92253
G1 X79.008 Y97.393 E607.85847
G1 X79.321 Y97.292 E607.89129
G1 X79.49 Y97.23 E607.90925
G1 X80.035 Y97.005 E607.96808
G1 X1.509 Y18.48 E619.04888
G1 X1.509 Y17.066 E619.18997
G1 X81.023 Y96.58 E630.41025
G1 X81.429 Y96.373 E630.45573
G1 X81.601 Y96.278 E630.47533
G1 X81.932 Y96.074 E630.51413
G1 X1.524 Y15.666 E641.86057
G1 X1.525 Y15.645 E641.86266
G1 X1.632 Y14.359 E641.99143
G1 X82.805 Y95.533 E653.44588
G1 X83.357 Y95.139 E653.51355
G1 X83.502 Y95.023 E653.53208
G1 X83.613 Y94.927 E653.54672
G1 X1.824 Y13.138 E665.08804
G1 X2.098 Y11.998 E665.20503
G1 X84.378 Y94.277 E676.81555
G1 X84.529 Y94.149 E676.8353
G1 X84.655 Y94.033 E676.85239
G1 X85.098 Y93.584 E676.91533
G1 X2.455 Y10.941 E688.57715
G1 X2.87 Y9.941 E688.68518
G1 X85.757 Y92.828 E700.38143
G1 X86.083 Y92.446 E700.43154
G1 X86.187 Y92.316 E700.44815
G1 X86.386 Y92.043 E700.48186
G1 X3.342 Y8.999 E712.20027
G1 X3.88 Y8.123 E712.30284
G1 X86.942 Y91.184 E724.02372
G1 X87.339 Y90.536 E724.09955
G1 X87.423 Y90.387 E724.11661
G1 X87.468 Y90.296 E724.12674
G1 X4.454 Y7.282 E735.84091
G1 X4.499 Y7.22 E735.84856
G1 X4.587 Y7.111 E735.86254
