;FLAVOR:Marlin
;TIME:5170
;Filament used: 3.7544m
;Layer height: 0.2
;Generated with Cura_SteamEngine 3.6.0
M104 S200
M105
M109 S200
M82 ;absolute extrusion mode
G28 ;Home
G1 Z15.0 F6000 ;Move the platform down 15mm
;Prime the extruder
G92 E0
G1 F200 E3
G92 E0
G92 E0
G1 F1500 E-6.5
;LAYER_COUNT:50
;LAYER:-6
M107
G0 F2400 X16.169 Y23.533 Z0.36
;TYPE:SUPPORT-INTERFACE
G1 F1500 E0
G1 F900 X16.4 Y23.377 E0.03338
G1 X16.668 Y23.219 E0.07063
G1 X16.925 Y23.089 E0.10511
G1 X17.195 Y22.973 E0.1403
G1 X17.451 Y22.881 E0.17287
G1 X17.743 Y22.797 E0.20925
G1 X18.004 Y22.741 E0.24121
G1 X18.324 Y22.693 E0.27996
G1 X18.792 Y22.657 E0.33616
G1 X18.984 Y22.65 E0.35916
G1 X61.314 Y22.653 E5.42761
G1 X61.556 Y22.661 E5.4566
G1 X63.084 Y22.779 E5.6401
G1 X63.8 Y22.887 E5.72681
G1 X63.98 Y22.923 E5.74878
G1 X65.287 Y23.235 E5.90968
G1 X65.465 Y23.285 E5.93182
G1 X66.164 Y23.517 E6.02
G1 X67.447 Y24.047 E6.18621
G1 X67.601 Y24.118 E6.20652
G1 X68.115 Y24.38 E6.2756
G1 X68.281 Y24.473 E6.29838
G1 X69.456 Y25.193 E6.46338
G1 X70.044 Y25.613 E6.5499
G1 X70.188 Y25.726 E6.57182
G1 X71.22 Y26.606 E6.73421
G1 X71.35 Y26.726 E6.7554
G1 X71.872 Y27.255 E6.84438
G1 X72.756 Y28.289 E7.00727
G1 X72.879 Y28.445 E7.03106
G1 X73.298 Y29.031 E7.11731
G1 X74.024 Y30.213 E7.28341
G1 X74.103 Y30.352 E7.30255
G1 X74.364 Y30.862 E7.37115
G1 X74.447 Y31.041 E7.39477
G1 X74.971 Y32.305 E7.55861
G1 X75.032 Y32.469 E7.57956
G1 X75.208 Y33.009 E7.64757
G1 X75.256 Y33.179 E7.66872
G1 X75.578 Y34.52 E7.83385
G1 X75.606 Y34.663 E7.8513
G1 X75.695 Y35.222 E7.91907
G1 X75.719 Y35.417 E7.9426
G1 X75.831 Y36.816 E8.11064
G1 X75.848 Y37.196 E8.15619
G1 X75.85 Y72.557 E12.39019
G1 X75.822 Y73.06 E12.45051
G1 X75.785 Y73.358 E12.48647
G1 X75.73 Y73.642 E12.5211
G1 X75.654 Y73.933 E12.55712
G1 X75.57 Y74.191 E12.5896
G1 X75.459 Y74.47 E12.62556
G1 X75.337 Y74.728 E12.65973
G1 X75.193 Y74.987 E12.69521
G1 X75.054 Y75.206 E12.72627
G1 X74.856 Y75.472 E12.76597
G1 X74.435 Y75.954 E12.8426
G1 X74.048 Y76.298 E12.9046
G1 X73.831 Y76.467 E12.93753
G1 X73.6 Y76.623 E12.97091
G1 X73.332 Y76.781 E13.00816
G1 X73.075 Y76.911 E13.04265
G1 X72.806 Y77.026 E13.07767
G1 X72.549 Y77.119 E13.1104
G1 X72.257 Y77.203 E13.14678
G1 X71.996 Y77.259 E13.17874
G1 X71.676 Y77.307 E13.21749
G1 X71.208 Y77.343 E13.27369
G1 X71.016 Y77.35 E13.29669
G1 X18.817 Y77.346 E19.54682
G1 X18.44 Y77.322 E19.59205
G1 X18.142 Y77.285 E19.62801
G1 X17.858 Y77.23 E19.66264
G1 X17.567 Y77.154 E19.69866
G1 X17.307 Y77.069 E19.73141
G1 X17.03 Y76.959 E19.76709
G1 X16.771 Y76.836 E19.80143
G1 X16.513 Y76.693 E19.83675
G1 X16.294 Y76.554 E19.8678
G1 X16.028 Y76.356 E19.90751
G1 X15.546 Y75.935 E19.98414
G1 X15.2 Y75.546 E20.04647
G1 X15.033 Y75.331 E20.07907
G1 X14.874 Y75.095 E20.11314
G1 X14.719 Y74.832 E20.1497
G1 X14.589 Y74.575 E20.18418
G1 X14.473 Y74.305 E20.21937
G1 X14.381 Y74.049 E20.25194
G1 X14.297 Y73.757 E20.28832
G1 X14.241 Y73.496 E20.32028
G1 X14.193 Y73.176 E20.35903
G1 X14.156 Y72.698 E20.41643
G1 X14.15 Y72.53 E20.43656
G1 X14.154 Y27.317 E25.85021
G1 X14.178 Y26.94 E25.89544
G1 X14.215 Y26.642 E25.93139
G1 X14.27 Y26.358 E25.96603
G1 X14.346 Y26.067 E26.00204
G1 X14.43 Y25.809 E26.03453
G1 X14.541 Y25.53 E26.07048
G1 X14.663 Y25.272 E26.10466
G1 X14.809 Y25.009 E26.14067
G1 X14.946 Y24.794 E26.1712
G1 X15.144 Y24.528 E26.2109
G1 X15.566 Y24.045 E26.2877
G1 X15.954 Y23.7 E26.34987
G1 X16.169 Y23.533 E26.38247
G0 F2400 X16 Y23.664
G1 F900 X16 Y76.331 E32.68863
G0 F2400 X17.6 Y77.162
G1 F900 X17.6 Y22.838 E39.19319
G0 F2400 X19.2 Y22.651
G1 F900 X19.2 Y77.346 E45.74218
G0 F2400 X20.8 Y77.346
G1 F900 X20.8 Y22.651 E52.29117
G0 F2400 X22.4 Y22.651
G1 F900 X22.4 Y77.346 E58.84015
G0 F2400 X24 Y77.346
G1 F900 X24 Y22.651 E65.38914
G0 F2400 X25.6 Y22.651
G1 F900 X25.6 Y77.346 E71.93813
G0 F2400 X27.2 Y77.346
G1 F900 X27.2 Y22.651 E78.48711
G0 F2400 X28.8 Y22.651
G1 F900 X28.8 Y77.346 E85.0361
G0 F2400 X30.4 Y77.346
G1 F900 X30.4 Y22.651 E91.58509
G0 F2400 X32 Y22.651
G1 F900 X32 Y77.347 E98.1342
G0 F2400 X33.6 Y77.347
G1 F900 X33.6 Y22.652 E104.68318
G0 F2400 X35.2 Y22.652
G1 F900 X35.2 Y77.347 E111.23217
G0 F2400 X36.8 Y77.347
G1 F900 X36.8 Y22.652 E117.78116
G0 F2400 X38.4 Y22.652
G1 F900 X38.4 Y77.347 E124.33014
G0 F2400 X40 Y77.347
G1 F900 X40 Y22.652 E130.87913
G0 F2400 X41.6 Y22.652
G1 F900 X41.6 Y77.347 E137.42812
G0 F2400 X43.2 Y77.347
G1 F900 X43.2 Y22.652 E143.9771
G0 F2400 X44.8 Y22.652
G1 F900 X44.8 Y77.347 E150.52609
G0 F2400 X46.4 Y77.348
G1 F900 X46.4 Y22.652 E157.0752
G0 F2400 X48 Y22.653
G1 F900 X48 Y77.348 E163.62419
G0 F2400 X49.6 Y77.348
G1 F900 X49.6 Y22.653 E170.17317
G0 F2400 X51.2 Y22.653
G1 F900 X51.2 Y77.348 E176.72216
G0 F2400 X52.8 Y77.348
G1 F900 X52.8 Y22.653 E183.27115
G0 F2400 X54.4 Y22.653
G1 F900 X54.4 Y77.348 E189.82013
G0 F2400 X56 Y77.348
G1 F900 X56 Y22.653 E196.36912
G0 F2400 X57.6 Y22.653
G1 F900 X57.6 Y77.348 E202.91811
G0 F2400 X59.2 Y77.349
G1 F900 X59.2 Y22.653 E209.46722
G0 F2400 X60.8 Y22.653
G1 F900 X60.8 Y77.349 E216.01632
G0 F2400 X62.4 Y77.349
G1 F900 X62.4 Y22.727 E222.55657
G0 F2400 X64 Y22.928
G1 F900 X64 Y77.349 E229.07275
G0 F2400 X65.6 Y77.349
G1 F900 X65.6 Y23.33 E235.54079
G0 F2400 X67.2 Y23.945
G1 F900 X67.2 Y77.349 E241.9352
G0 F2400 X68.8 Y77.349
G1 F900 X68.8 Y24.792 E248.22819
G0 F2400 X70.4 Y25.907
G1 F900 X70.4 Y77.349 E254.38768
G0 F2400 X72 Y77.259
G1 F900 X72 Y27.405 E260.35702
G0 F2400 X73.6 Y29.523
G1 F900 X73.6 Y76.623 E265.99661
G0 F2400 X75.2 Y74.975
G1 F900 X75.2 Y32.985 E271.02434
G0 F2400 X14.4 Y25.901
G1 F900 X14.4 Y74.101 E276.79564
G0 F2400 X68.367 Y24.526
;TIME_ELAPSED:167.561345
;LAYER:-5
G0 X68.367 Y24.526 Z0.66
;TYPE:SUPPORT
G1 F900 X68.279 Y24.472 E276.80594
G1 X68.114 Y24.379 E276.82484
G1 X67.6 Y24.117 E276.88241
G1 X67.446 Y24.047 E276.89929
G1 X66.163 Y23.517 E277.0378
G1 X65.835 Y23.408 E277.07229
G1 X75.097 Y32.671 E278.37932
G1 X75.207 Y33.008 E278.4147
G1 X75.255 Y33.179 E278.43242
G1 X75.577 Y34.52 E278.57003
G1 X75.589 Y34.576 E278.57574
G1 X63.924 Y22.912 E280.22173
G1 X63.798 Y22.886 E280.23457
G1 X63.083 Y22.779 E280.3067
G1 X62.318 Y22.72 E280.38326
G1 X75.779 Y36.181 E282.28275
G1 X75.83 Y36.816 E282.34632
G1 X75.847 Y37.195 E282.38417
G1 X75.848 Y37.664 E282.43097
G1 X60.836 Y22.652 E284.54933
G1 X59.422 Y22.652 E284.69042
G1 X75.848 Y39.078 E287.0083
G1 X75.848 Y40.493 E287.14949
G1 X58.008 Y22.652 E289.66698
G1 X56.593 Y22.652 E289.80817
G1 X75.848 Y41.907 E292.52526
G1 X75.848 Y43.321 E292.66635
G1 X55.179 Y22.652 E295.58296
G1 X53.765 Y22.652 E295.72405
G1 X75.848 Y44.735 E298.8402
G1 X75.848 Y46.15 E298.98139
G1 X52.35 Y22.652 E302.29721
G1 X50.936 Y22.652 E302.4383
G1 X75.848 Y47.564 E305.95366
G1 X75.848 Y48.978 E306.09475
G1 X49.522 Y22.652 E309.80963
G1 X48.108 Y22.652 E309.95072
G1 X75.848 Y50.392 E313.86513
G1 X75.848 Y51.806 E314.00622
G1 X46.693 Y22.652 E318.12024
G1 X45.279 Y22.652 E318.26133
G1 X75.848 Y53.221 E322.57494
G1 X75.848 Y54.635 E322.71603
G1 X43.864 Y22.651 E327.22932
G1 X42.45 Y22.651 E327.37041
G1 X75.849 Y56.05 E332.08337
G1 X75.849 Y57.464 E332.22446
G1 X41.036 Y22.651 E337.13695
G1 X39.622 Y22.651 E337.27804
G1 X75.849 Y58.878 E342.39006
G1 X75.849 Y60.292 E342.53115
G1 X38.207 Y22.651 E347.84277
G1 X36.793 Y22.651 E347.98386
G1 X75.849 Y61.707 E353.49508
G1 X75.849 Y63.121 E353.63617
G1 X35.378 Y22.65 E359.34707
G1 X33.964 Y22.65 E359.48816
G1 X75.849 Y64.535 E365.39858
G1 X75.849 Y65.949 E365.53967
G1 X32.55 Y22.65 E371.64963
G1 X31.136 Y22.65 E371.79072
G1 X75.849 Y67.363 E378.10021
G1 X75.849 Y68.778 E378.2414
G1 X29.721 Y22.65 E384.75056
G1 X28.307 Y22.65 E384.89164
G1 X75.849 Y70.192 E391.60033
G1 X75.849 Y71.606 E391.74142
G1 X26.892 Y22.65 E398.64971
G1 X25.478 Y22.65 E398.7908
G1 X75.825 Y72.996 E405.89524
G1 X75.821 Y73.059 E405.90154
G1 X75.784 Y73.358 E405.9316
G1 X75.729 Y73.641 E405.96037
G1 X75.652 Y73.932 E405.9904
G1 X75.579 Y74.164 E406.01467
G1 X24.064 Y22.65 E413.28392
G1 X22.65 Y22.65 E413.42501
G1 X75.113 Y75.113 E420.82811
G1 X75.053 Y75.205 E420.83907
G1 X74.855 Y75.47 E420.87207
G1 X74.483 Y75.898 E420.92866
G1 X21.235 Y22.65 E428.44252
G1 X19.821 Y22.65 E428.58361
G1 X73.715 Y76.543 E436.18857
G1 X73.599 Y76.622 E436.20257
G1 X73.331 Y76.779 E436.23357
G1 X73.075 Y76.91 E436.26226
G1 X72.806 Y77.025 E436.29145
G1 X72.788 Y77.031 E436.29334
G1 X18.441 Y22.683 E443.96236
G1 X18.323 Y22.692 E443.97417
G1 X18.004 Y22.74 E444.00636
G1 X17.743 Y22.796 E444.03299
G1 X17.451 Y22.88 E444.06331
G1 X17.284 Y22.941 E444.08105
G1 X71.65 Y77.307 E451.75268
G1 X71.207 Y77.342 E451.79702
G1 X71.016 Y77.348 E451.81609
G1 X70.277 Y77.348 E451.88983
G1 X16.344 Y23.415 E459.50036
G1 X16.168 Y23.532 E459.52144
G1 X15.953 Y23.699 E459.54861
G1 X15.562 Y24.047 E459.60084
G1 X68.863 Y77.348 E467.12218
G1 X67.448 Y77.348 E467.26337
G1 X14.925 Y24.825 E474.67494
G1 X14.808 Y25.008 E474.69661
G1 X14.663 Y25.271 E474.72657
G1 X14.54 Y25.529 E474.75509
G1 X14.448 Y25.762 E474.78009
G1 X66.034 Y77.348 E482.05943
G1 X64.62 Y77.348 E482.20052
G1 X14.181 Y26.908 E489.31808
G1 X14.177 Y26.939 E489.3212
G1 X14.154 Y27.316 E489.35889
G1 X14.153 Y28.295 E489.45657
G1 X63.206 Y77.348 E496.37848
G1 X61.791 Y77.348 E496.51967
G1 X14.153 Y29.709 E503.24197
G1 X14.153 Y31.124 E503.38316
G1 X60.377 Y77.347 E509.9058
G1 X58.962 Y77.347 E510.04699
G1 X14.153 Y32.538 E516.37002
G1 X14.153 Y33.952 E516.51111
G1 X57.548 Y77.347 E522.63462
G1 X56.134 Y77.347 E522.7757
G1 X14.153 Y35.366 E528.69968
G1 X14.152 Y36.78 E528.84077
G1 X54.72 Y77.347 E534.56528
G1 X53.305 Y77.347 E534.70647
G1 X14.152 Y38.194 E540.23138
G1 X14.152 Y39.608 E540.37247
G1 X51.891 Y77.347 E545.69785
G1 X50.477 Y77.347 E545.83894
G1 X14.152 Y41.022 E550.96479
G1 X14.152 Y42.437 E551.10598
G1 X49.062 Y77.346 E556.03209
G1 X47.648 Y77.346 E556.17318
G1 X14.152 Y43.851 E560.89975
G1 X14.152 Y45.265 E561.04084
G1 X46.234 Y77.346 E565.56789
G1 X44.819 Y77.346 E565.70908
G1 X14.152 Y46.678 E570.03659
G1 X14.152 Y48.093 E570.17778
G1 X43.405 Y77.346 E574.3057
G1 X41.991 Y77.346 E574.44679
G1 X14.152 Y49.507 E578.37517
G1 X14.152 Y50.921 E578.51626
G1 X40.577 Y77.346 E582.24511
G1 X39.162 Y77.346 E582.3863
G1 X14.152 Y52.335 E585.91555
G1 X14.152 Y53.75 E586.05674
G1 X37.748 Y77.346 E589.38639
G1 X36.333 Y77.346 E589.52758
G1 X14.151 Y55.163 E592.65777
G1 X14.151 Y56.577 E592.79886
G1 X34.919 Y77.346 E595.72952
G1 X33.505 Y77.346 E595.87061
G1 X14.151 Y57.991 E598.60174
G1 X14.151 Y59.406 E598.74293
G1 X32.091 Y77.346 E601.27446
G1 X30.677 Y77.346 E601.41555
G1 X14.151 Y60.82 E603.74754
G1 X14.151 Y62.234 E603.88863
G1 X29.262 Y77.346 E606.02103
G1 X27.847 Y77.345 E606.16222
G1 X14.15 Y63.648 E608.09501
G1 X14.15 Y65.062 E608.2361
G1 X26.433 Y77.345 E609.96937
G1 X25.019 Y77.345 E610.11046
G1 X14.15 Y66.476 E611.64419
G1 X14.15 Y67.89 E611.78528
G1 X23.605 Y77.345 E613.11948
G1 X22.191 Y77.345 E613.26057
G1 X14.15 Y69.304 E614.39524
G1 X14.15 Y70.719 E614.53643
G1 X20.776 Y77.345 E615.47143
G1 X19.362 Y77.345 E615.61252
G1 X14.15 Y72.133 E616.34799
G1 X14.15 Y72.529 E616.3875
G1 X14.156 Y72.697 E616.40428
G1 X14.193 Y73.175 E616.45212
G1 X14.241 Y73.495 E616.4844
G1 X14.28 Y73.676 E616.50288
G1 X17.823 Y77.22 E617.0029
G1 X17.566 Y77.153 E617.0294
G1 X17.306 Y77.068 E617.0567
G1 X17.029 Y76.958 E617.08644
G1 X16.771 Y76.835 E617.11496
G1 X16.513 Y76.692 E617.14439
G1 X16.293 Y76.553 E617.17036
G1 X16.027 Y76.355 E617.20344
G1 X15.545 Y75.934 E617.2673
G1 X15.199 Y75.545 E617.31925
G1 X15.032 Y75.33 E617.34641
G1 X14.873 Y75.094 E617.3748
G1 X14.719 Y74.831 E617.40521
G1 X14.589 Y74.574 E617.43395
G1 X14.473 Y74.304 E617.46327
G1 X14.381 Y74.048 E617.49042
G1 X14.296 Y73.756 E617.52076
G0 F2400 X68.367 Y24.526
G1 F900 X69.454 Y25.192 E617.64796
G1 X70.043 Y25.612 E617.72015
G1 X70.187 Y25.725 E617.73841
G1 X71.219 Y26.606 E617.8738
G1 X71.349 Y26.726 E617.89145
G1 X71.871 Y27.255 E617.96561
G1 X72.754 Y28.289 E618.10128
G1 X72.877 Y28.444 E618.12103
G1 X73.297 Y29.03 E618.19297
G0 F2400 X73.976 Y30.136
G1 F900 X68.367 Y24.526 E618.98453
G0 F2400 X17.092 Y22.8
;TIME_ELAPSED:399.471045
;LAYER:-4
G0 X17.092 Y22.8 Z0.86
;TYPE:SUPPORT-INTERFACE
G1 F1200 X16.832 Y22.911 E618.99393
G1 X16.577 Y23.04 E619.00343
G1 X16.306 Y23.2 E619.0139
G1 X65.856 Y23.2 E620.66194
G1 X66.085 Y23.274 E620.66995
G1 X66.248 Y23.334 E620.67572
G1 X66.892 Y23.6 E620.6989
G1 X15.764 Y23.6 E622.39942
G1 X15.422 Y23.904 E622.41464
G1 X15.339 Y24 E622.41886
G1 X67.813 Y24 E624.16415
G1 X68.22 Y24.208 E624.17936
G1 X68.373 Y24.294 E624.18519
G1 X68.546 Y24.4 E624.19194
G1 X14.989 Y24.4 E625.97326
G0 F2400 X14.986 Y24.403
G1 F1200 X14.788 Y24.669 E625.98428
G1 X14.705 Y24.8 E625.98944
G1 X69.199 Y24.8 E627.80192
G1 X69.554 Y25.018 E627.81578
G1 X69.697 Y25.113 E627.82149
G1 X69.817 Y25.2 E627.82642
G1 X14.476 Y25.2 E629.66707
G1 X14.349 Y25.468 E629.67693
G1 X14.297 Y25.6 E629.68165
G1 X70.35 Y25.6 E631.54598
G1 X70.819 Y26 E631.56648
G1 X14.157 Y26 E633.45107
G1 X14.15 Y26.02 E633.45177
G1 X14.074 Y26.309 E633.46171
G1 X14.057 Y26.4 E633.46479
G1 X71.288 Y26.4 E635.3683
G1 X71.344 Y26.448 E635.37075
G1 X71.497 Y26.589 E635.37767
G1 X71.709 Y26.8 E635.38762
G1 X13.993 Y26.8 E637.30726
G1 X13.979 Y26.913 E637.31105
G1 X13.961 Y27.2 E637.32061
G1 X72.089 Y27.2 E639.25396
G1 X72.431 Y27.6 E639.27146
G1 X13.953 Y27.6 E641.21645
G1 X13.953 Y28 E641.22975
G1 X72.773 Y28 E643.18612
G1 X72.913 Y28.164 E643.19329
G1 X73.031 Y28.314 E643.19963
G1 X73.093 Y28.4 E643.20316
G1 X13.953 Y28.4 E645.17017
G1 X13.953 Y28.8 E645.18347
G1 X73.379 Y28.8 E647.15999
G1 X73.469 Y28.926 E647.16514
G1 X73.638 Y29.2 E647.17584
G1 X13.953 Y29.2 E649.16097
G1 X13.953 Y29.6 E649.17428
G1 X73.883 Y29.6 E651.16756
G1 X74.129 Y30 E651.18318
G1 X13.953 Y30 E653.18464
G1 X13.953 Y30.4 E653.19794
G1 X74.353 Y30.4 E655.20686
G1 X74.549 Y30.784 E655.2212
G1 X74.557 Y30.8 E655.22179
G1 X13.953 Y30.8 E657.23749
G1 X13.953 Y31.2 E657.25079
G1 X74.73 Y31.2 E659.27224
G1 X74.896 Y31.6 E659.28665
G1 X13.953 Y31.6 E661.31362
G1 X13.953 Y32 E661.32692
G1 X75.062 Y32 E663.35942
G1 X75.153 Y32.221 E663.36737
G1 X75.22 Y32.399 E663.37369
G0 F2400 X75.221 Y32.4
G1 F1200 X13.953 Y32.4 E665.41147
G1 X13.953 Y32.8 E665.42478
G1 X75.351 Y32.8 E667.46688
G1 X75.4 Y32.954 E667.47226
G1 X75.453 Y33.139 E667.47866
G1 X75.468 Y33.2 E667.48075
G1 X13.953 Y33.2 E669.52675
G1 X13.953 Y33.6 E669.54005
G1 X75.564 Y33.6 E671.58924
G1 X75.66 Y34 E671.60292
G1 X13.953 Y34 E673.65531
G1 X13.953 Y34.4 E673.66861
G1 X75.756 Y34.4 E675.72419
G1 X75.771 Y34.465 E675.7264
G1 X75.803 Y34.63 E675.73199
G1 X75.831 Y34.8 E675.73772
G1 X13.953 Y34.8 E677.7958
G1 X13.953 Y35.2 E677.8091
G1 X75.894 Y35.2 E679.86927
G1 X75.919 Y35.408 E679.87623
G1 X75.935 Y35.6 E679.88264
G1 X13.953 Y35.6 E681.94417
G1 X13.953 Y36 E681.95748
G1 X75.966 Y36 E684.02004
G1 X75.997 Y36.4 E684.03338
G1 X13.953 Y36.4 E686.09697
G1 X13.953 Y36.8 E686.11028
G1 X76.029 Y36.8 E688.17493
G1 X76.036 Y36.9 E688.17827
G1 X76.047 Y37.2 E688.18825
G1 X13.953 Y37.2 E690.25351
G1 X13.953 Y37.6 E690.26681
G1 X76.049 Y37.6 E692.33213
G1 X76.049 Y38 E692.34543
G1 X13.953 Y38 E694.41076
G1 X13.953 Y38.4 E694.42406
G1 X76.049 Y38.4 E696.48938
G1 X76.049 Y38.8 E696.50269
G1 X13.952 Y38.8 E698.56804
G1 X13.952 Y39.2 E698.58134
G1 X76.049 Y39.2 E700.6467
G1 X76.049 Y39.6 E700.66
G1 X13.952 Y39.6 E702.72536
G1 X13.952 Y40 E702.73866
G1 X76.049 Y40 E704.80402
G1 X76.049 Y40.4 E704.81732
G1 X13.952 Y40.4 E706.88267
G1 X13.952 Y40.8 E706.89598
G1 X76.049 Y40.8 E708.96133
G1 X76.049 Y41.2 E708.97464
G1 X13.952 Y41.2 E711.03999
G1 X13.952 Y41.6 E711.0533
G1 X76.049 Y41.6 E713.11865
G1 X76.049 Y42 E713.13196
G1 X13.952 Y42 E715.19731
G1 X13.952 Y42.4 E715.21061
G1 X76.049 Y42.4 E717.27597
G1 X76.049 Y42.8 E717.28927
G1 X13.952 Y42.8 E719.35463
G1 X13.952 Y43.2 E719.36793
G1 X76.049 Y43.2 E721.43329
G1 X76.049 Y43.6 E721.44659
G1 X13.952 Y43.6 E723.51194
G1 X13.952 Y44 E723.52525
G1 X76.049 Y44 E725.5906
G1 X76.049 Y44.4 E725.60391
G1 X13.952 Y44.4 E727.66926
G1 X13.952 Y44.8 E727.68257
G1 X76.049 Y44.8 E729.74792
G1 X76.049 Y45.2 E729.76122
G1 X13.952 Y45.2 E731.82658
