;FLAVOR:Marlin
;TIME:5342
;Filament used: 3.82695m
;Layer height: 0.2
;Generated with Cura_SteamEngine 3.6.0
M104 S200
M105
M109 S200
M82 ;absolute extrusion mode
G28 ;Home
G1 Z15.0 F6000 ;Move the platform down 15mm
;Prime the extruder
G92 E0
G1 F200 E3
G92 E0
G92 E0
G1 F1500 E-6.5
;LAYER_COUNT:23
;LAYER:-6
M107
G0 F2400 X9.906 Y27.36 Z0.36
;TYPE:SUPPORT-INTERFACE
G1 F1500 E0
G1 F900 X10.802 Y27.02 E0.11475
G1 X10.945 Y26.972 E0.13281
G1 X11.547 Y26.799 E0.20781
G1 X11.737 Y26.753 E0.23122
G1 X12.664 Y26.569 E0.34438
G1 X12.861 Y26.54 E0.36822
G1 X13.468 Y26.472 E0.44135
G1 X13.658 Y26.459 E0.46416
G1 X14.625 Y26.433 E0.57998
G1 X14.8 Y26.435 E0.60094
G1 X15.411 Y26.47 E0.67422
G1 X15.611 Y26.49 E0.69828
G1 X16.715 Y26.654 E0.83192
G1 X17.508 Y26.843 E0.92953
G1 X18.54 Y27.179 E1.05949
G1 X19.182 Y27.37 E1.13969
G1 X19.856 Y27.48 E1.22146
G1 X20.539 Y27.505 E1.30329
G1 X21.219 Y27.443 E1.38505
G1 X21.886 Y27.296 E1.46683
G1 X22.529 Y27.066 E1.5486
G1 X23.138 Y26.756 E1.63042
G1 X23.702 Y26.373 E1.71205
G1 X24.214 Y25.921 E1.79383
G1 X24.665 Y25.408 E1.87562
G1 X25.048 Y24.842 E1.95745
G1 X25.355 Y24.233 E2.03911
G1 X25.585 Y23.586 E2.12133
G1 X25.653 Y23.254 E2.1619
G1 X25.659 Y23.254 E2.16262
G1 X25.747 Y22.791 E2.21905
G1 X25.818 Y22.227 E2.28712
G1 X25.811 Y22.226 E2.28796
G1 X25.811 Y21.513 E2.37334
G1 X25.767 Y21.101 E2.42295
G1 X25.726 Y20.82 E2.45695
G1 X25.689 Y20.341 E2.51447
G1 X25.683 Y20.173 E2.5346
G1 X25.687 Y17.459 E2.85957
G1 X25.711 Y17.082 E2.9048
G1 X25.748 Y16.784 E2.94076
G1 X25.803 Y16.5 E2.97539
G1 X25.879 Y16.209 E3.0114
G1 X25.963 Y15.951 E3.04389
G1 X26.074 Y15.672 E3.07985
G1 X26.196 Y15.414 E3.11402
G1 X26.342 Y15.151 E3.15003
G1 X26.479 Y14.936 E3.18056
G1 X26.679 Y14.668 E3.2206
G1 X27.098 Y14.188 E3.29689
G1 X27.487 Y13.842 E3.35923
G1 X27.702 Y13.675 E3.39182
G1 X27.933 Y13.519 E3.4252
G1 X28.201 Y13.361 E3.46245
G1 X28.458 Y13.231 E3.49694
G1 X28.728 Y13.115 E3.53212
G1 X28.984 Y13.023 E3.56469
G1 X29.276 Y12.939 E3.60107
G1 X29.537 Y12.883 E3.63304
G1 X29.857 Y12.835 E3.67178
G1 X30.325 Y12.799 E3.72798
G1 X30.517 Y12.792 E3.75099
G1 X59.069 Y12.792 E7.1697
G1 X59.737 Y12.75 E7.24985
G1 X60.408 Y12.621 E7.33166
G1 X61.057 Y12.408 E7.41345
G1 X61.674 Y12.116 E7.49518
G1 X62.249 Y11.748 E7.57692
G1 X62.777 Y11.306 E7.65937
G1 X63.407 Y10.591 E7.77347
G1 X63.556 Y10.386 E7.80382
G1 X63.933 Y9.915 E7.87606
G1 X64.065 Y9.764 E7.90007
G1 X64.701 Y9.094 E8.01068
G1 X64.842 Y8.957 E8.03422
G1 X65.311 Y8.539 E8.10945
G1 X65.462 Y8.416 E8.13276
G1 X66.213 Y7.852 E8.24522
G1 X66.369 Y7.745 E8.26787
G1 X66.901 Y7.411 E8.34309
G1 X67.069 Y7.316 E8.36619
G1 X67.91 Y6.882 E8.47951
G1 X68.066 Y6.81 E8.50008
G1 X68.641 Y6.573 E8.57455
G1 X68.842 Y6.5 E8.60016
G1 X69.729 Y6.219 E8.71156
G1 X69.927 Y6.165 E8.73614
G1 X70.543 Y6.024 E8.8118
G1 X70.684 Y5.998 E8.82897
G1 X71.647 Y5.863 E8.9454
G1 X71.863 Y5.842 E8.97139
G1 X72.447 Y5.811 E9.04141
G1 X72.632 Y5.808 E9.06357
G1 X73.575 Y5.835 E9.17653
G1 X73.774 Y5.849 E9.20041
G1 X74.374 Y5.916 E9.2727
G1 X74.561 Y5.944 E9.29534
G1 X75.477 Y6.125 E9.40714
G1 X75.693 Y6.177 E9.43374
G1 X76.28 Y6.345 E9.50685
G1 X76.434 Y6.397 E9.52631
G1 X77.354 Y6.748 E9.64421
G1 X77.525 Y6.821 E9.66648
G1 X78.091 Y7.092 E9.74162
G1 X78.232 Y7.168 E9.76079
G1 X79.057 Y7.652 E9.87532
G1 X79.214 Y7.753 E9.89767
G1 X79.737 Y8.124 E9.97445
G1 X79.868 Y8.225 E9.99426
G1 X80.622 Y8.861 E10.11237
G1 X80.734 Y8.963 E10.13051
G1 X81.206 Y9.435 E10.21043
G1 X81.944 Y10.298 E10.3464
G1 X82.395 Y10.923 E10.43868
G1 X82.506 Y11.094 E10.46309
G1 X82.986 Y11.902 E10.57562
G1 X83.073 Y12.065 E10.59774
G1 X83.357 Y12.654 E10.67604
G1 X83.417 Y12.795 E10.69439
G1 X83.764 Y13.702 E10.81066
G1 X83.829 Y13.895 E10.83505
G1 X83.993 Y14.461 E10.90561
G1 X84.04 Y14.65 E10.92893
G1 X84.228 Y15.591 E11.04383
G1 X84.256 Y15.769 E11.0654
G1 X84.326 Y16.388 E11.13999
G1 X84.339 Y16.558 E11.1604
G1 X84.368 Y17.534 E11.27732
G1 X84.365 Y17.727 E11.30043
G1 X84.332 Y18.334 E11.37322
G1 X84.315 Y18.513 E11.39475
G1 X84.183 Y19.455 E11.50864
G1 X84.147 Y19.653 E11.53274
G1 X84.011 Y20.251 E11.60617
G1 X83.96 Y20.442 E11.62984
G1 X83.674 Y21.341 E11.7428
G1 X83.606 Y21.527 E11.76651
G1 X83.374 Y22.091 E11.83953
G1 X83.293 Y22.268 E11.86284
G1 X82.843 Y23.141 E11.98044
G1 X82.775 Y23.26 E11.99685
G1 X82.432 Y23.806 E12.07406
G1 X82.322 Y23.966 E12.09731
G1 X81.753 Y24.725 E12.21089
G1 X81.638 Y24.866 E12.23267
G1 X81.231 Y25.321 E12.30577
G1 X81.079 Y25.479 E12.33202
G1 X80.396 Y26.125 E12.44459
G1 X80.268 Y26.237 E12.46495
G1 X79.766 Y26.639 E12.54196
G1 X79.629 Y26.738 E12.56219
G1 X78.841 Y27.266 E12.67577
G1 X78.67 Y27.371 E12.6998
G1 X78.144 Y27.662 E12.77177
G1 X77.968 Y27.751 E12.79539
G1 X77.752 Y27.849 E12.82379
G1 X77.159 Y28.162 E12.90408
G1 X76.601 Y28.556 E12.98587
G1 X76.098 Y29.017 E13.06756
G1 X75.654 Y29.537 E13.14943
G1 X75.131 Y30.349 E13.26508
G1 X74.933 Y30.615 E13.30479
G1 X74.512 Y31.097 E13.38141
G1 X74.125 Y31.441 E13.44341
G1 X73.908 Y31.61 E13.47635
G1 X73.677 Y31.766 E13.50972
G1 X73.409 Y31.924 E13.54697
G1 X73.152 Y32.054 E13.58146
G1 X72.883 Y32.169 E13.61649
G1 X72.626 Y32.262 E13.64921
G1 X72.334 Y32.346 E13.68559
G1 X72.073 Y32.402 E13.71756
G1 X71.753 Y32.45 E13.7563
G1 X71.285 Y32.486 E13.8125
G1 X71.093 Y32.493 E13.83551
G1 X66.927 Y32.493 E14.33433
G1 X66.259 Y32.535 E14.41447
G1 X65.588 Y32.664 E14.49629
G1 X64.939 Y32.877 E14.57807
G1 X64.322 Y33.169 E14.65981
G1 X63.747 Y33.537 E14.74155
G1 X63.223 Y33.975 E14.82332
G1 X62.759 Y34.475 E14.905
G1 X62.36 Y35.031 E14.98694
G1 X62.036 Y35.631 E15.06859
G1 X61.79 Y36.267 E15.15024
G1 X61.626 Y36.931 E15.23213
G1 X61.547 Y37.606 E15.3135
G1 X61.545 Y40.949 E15.71378
G1 X61.523 Y41.313 E15.75745
G1 X61.413 Y42.184 E15.86257
G1 X61.423 Y42.185 E15.86377
G1 X61.417 Y42.235 E15.8698
G1 X61.422 Y42.912 E15.95086
G1 X61.465 Y43.31 E15.99879
G1 X61.506 Y43.59 E16.03268
G1 X61.541 Y44.039 E16.0866
G1 X61.551 Y44.296 E16.1174
G1 X61.617 Y44.963 E16.19765
G1 X61.77 Y45.628 E16.27936
G1 X62.005 Y46.27 E16.36122
G1 X62.32 Y46.876 E16.44299
G1 X62.707 Y47.437 E16.5246
G1 X63.163 Y47.945 E16.60634
G1 X63.681 Y48.392 E16.68826
G1 X64.249 Y48.769 E16.76989
G1 X64.861 Y49.073 E16.85171
G1 X65.506 Y49.296 E16.93342
G1 X66.175 Y49.437 E17.01529
G1 X66.855 Y49.491 E17.09697
G1 X67.537 Y49.459 E17.17872
G1 X68.208 Y49.342 E17.26027
G1 X68.784 Y49.169 E17.33228
G1 X68.985 Y49.096 E17.35789
G1 X69.882 Y48.811 E17.47058
G1 X70.08 Y48.757 E17.49516
G1 X70.679 Y48.621 E17.5687
G1 X70.877 Y48.585 E17.5928
G1 X71.802 Y48.455 E17.70464
G1 X72.012 Y48.435 E17.7299
G1 X72.603 Y48.403 E17.80077
G1 X72.787 Y48.4 E17.82281
G1 X73.731 Y48.427 E17.93588
G1 X73.93 Y48.441 E17.95977
G1 X74.53 Y48.508 E18.03206
G1 X74.717 Y48.536 E18.0547
G1 X75.651 Y48.72 E18.16868
G1 X75.828 Y48.763 E18.19049
G1 X76.444 Y48.94 E18.26723
G1 X76.599 Y48.992 E18.28681
G1 X77.486 Y49.33 E18.40047
G1 X77.684 Y49.415 E18.42627
G1 X78.216 Y49.669 E18.49685
G1 X78.4 Y49.766 E18.52176
G1 X79.231 Y50.255 E18.63721
G1 X79.371 Y50.346 E18.6572
G1 X79.882 Y50.709 E18.73225
G1 X80.036 Y50.828 E18.75556
G1 X80.758 Y51.437 E18.86865
G1 X80.897 Y51.564 E18.8912
G1 X81.344 Y52.008 E18.96664
G1 X81.457 Y52.131 E18.98663
G1 X82.095 Y52.883 E19.10472
G1 X82.191 Y53.007 E19.12349
G1 X82.558 Y53.524 E19.19941
G1 X82.658 Y53.677 E19.22129
G1 X83.156 Y54.519 E19.33843
G1 X83.221 Y54.64 E19.35487
G1 X83.509 Y55.235 E19.43402
G1 X83.571 Y55.378 E19.45268
G1 X83.919 Y56.286 E19.56912
G1 X83.981 Y56.473 E19.59271
G1 X84.151 Y57.059 E19.66576
G1 X84.194 Y57.231 E19.68699
G1 X84.382 Y58.17 E19.80166
G1 X84.412 Y58.36 E19.82469
G1 X84.482 Y58.979 E19.89928
G1 X84.495 Y59.149 E19.91969
G1 X84.524 Y60.126 E20.03673
G1 X84.521 Y60.319 E20.05984
G1 X84.488 Y60.926 E20.13263
G1 X84.471 Y61.105 E20.15416
G1 X84.339 Y62.047 E20.26805
G1 X84.303 Y62.245 E20.29215
G1 X84.167 Y62.843 E20.36558
G1 X84.116 Y63.034 E20.38925
G1 X83.832 Y63.926 E20.50133
G1 X83.762 Y64.119 E20.52592
G1 X83.531 Y64.68 E20.59856
G1 X83.449 Y64.857 E20.62192
G1 X83.006 Y65.718 E20.73786
G1 X82.924 Y65.862 E20.7577
G1 X82.581 Y66.409 E20.83501
G1 X82.488 Y66.544 E20.85463
G1 X81.915 Y67.308 E20.96898
G1 X81.792 Y67.459 E20.9923
G1 X81.389 Y67.912 E21.0649
G1 X81.245 Y68.06 E21.08963
G1 X80.567 Y68.703 E21.20151
G1 X80.412 Y68.838 E21.22612
G1 X79.949 Y69.209 E21.29716
G1 X79.757 Y69.349 E21.32561
G1 X78.984 Y69.867 E21.43703
G1 X78.841 Y69.954 E21.45707
G1 X78.285 Y70.263 E21.53323
G1 X77.915 Y70.438 E21.58224
G1 X77.323 Y70.75 E21.66237
G1 X76.764 Y71.142 E21.74412
G1 X76.259 Y71.601 E21.82583
G1 X75.816 Y72.122 E21.90771
G1 X75.717 Y72.274 E21.92943
G1 X75.283 Y72.946 E22.02522
G1 X75.094 Y73.2 E22.06313
G1 X74.667 Y73.689 E22.14086
G1 X74.281 Y74.032 E22.20269
G1 X74.064 Y74.201 E22.23562
G1 X73.833 Y74.357 E22.269
G1 X73.565 Y74.515 E22.30625
G1 X73.308 Y74.645 E22.34073
G1 X73.039 Y74.76 E22.37576
G1 X72.782 Y74.853 E22.40849
G1 X72.49 Y74.937 E22.44487
G1 X72.229 Y74.993 E22.47683
G1 X71.909 Y75.041 E22.51558
G1 X71.441 Y75.077 E22.57178
G1 X71.249 Y75.084 E22.59478
G1 X68.515 Y75.084 E22.92214
G1 X67.847 Y75.126 E23.00228
G1 X67.176 Y75.255 E23.0841
G1 X66.527 Y75.468 E23.16589
G1 X65.91 Y75.76 E23.24762
G1 X65.335 Y76.128 E23.32936
G1 X64.811 Y76.566 E23.41113
G1 X64.347 Y77.066 E23.49281
G1 X63.948 Y77.622 E23.57475
G1 X63.624 Y78.222 E23.6564
G1 X63.378 Y78.858 E23.73805
G1 X63.214 Y79.522 E23.81994
G1 X63.135 Y80.2 E23.90167
G1 X63.138 Y80.477 E23.93484
G1 X63.112 Y80.477 E23.93796
G1 X63.195 Y81.554 E24.06729
G1 X63.202 Y81.741 E24.0897
G1 X63.198 Y84.454 E24.41455
G1 X63.176 Y84.818 E24.45821
G1 X63.066 Y85.689 E24.56333
G1 X63.076 Y85.69 E24.56453
G1 X63.07 Y85.74 E24.57056
G1 X63.075 Y86.417 E24.65163
G1 X63.118 Y86.815 E24.69956
G1 X63.159 Y87.095 E24.73344
G1 X63.194 Y87.544 E24.78737
G1 X63.202 Y87.757 E24.81289
G1 X63.198 Y91.954 E25.31542
G1 X63.174 Y92.331 E25.36066
G1 X63.137 Y92.626 E25.39625
G1 X63.082 Y92.913 E25.43124
G1 X63.006 Y93.204 E25.46726
G1 X62.922 Y93.462 E25.49974
G1 X62.811 Y93.741 E25.5357
G1 X62.689 Y93.999 E25.56987
G1 X62.545 Y94.258 E25.60535
G1 X62.406 Y94.477 E25.63641
G1 X62.208 Y94.743 E25.67611
G1 X61.787 Y95.225 E25.75274
G1 X61.4 Y95.569 E25.81474
G1 X61.183 Y95.738 E25.84767
G1 X60.952 Y95.894 E25.88105
G1 X60.684 Y96.052 E25.9183
G1 X60.427 Y96.182 E25.95279
G1 X60.159 Y96.297 E25.9877
G1 X59.893 Y96.392 E26.02152
G1 X59.619 Y96.472 E26.0557
G1 X59.348 Y96.53 E26.08889
G1 X59.028 Y96.578 E26.12763
G1 X58.56 Y96.614 E26.18383
G1 X58.368 Y96.621 E26.20684
G1 X17.624 Y96.618 E31.08538
G1 X17.247 Y96.594 E31.13061
G1 X16.949 Y96.557 E31.16657
G1 X16.665 Y96.502 E31.2012
G1 X16.374 Y96.426 E31.23722
G1 X16.114 Y96.341 E31.26997
G1 X15.837 Y96.231 E31.30566
G1 X15.578 Y96.108 E31.33999
G1 X15.32 Y95.965 E31.37531
G1 X15.101 Y95.826 E31.40637
G1 X14.835 Y95.628 E31.44607
G1 X14.353 Y95.207 E31.5227
G1 X14.007 Y94.818 E31.58503
G1 X13.84 Y94.603 E31.61763
G1 X13.679 Y94.364 E31.65214
G1 X13.55 Y94.145 E31.68257
G1 X13.174 Y93.591 E31.76274
G1 X12.724 Y93.078 E31.84445
G1 X12.21 Y92.626 E31.9264
G1 X11.647 Y92.245 E32.0078
G1 X11.126 Y91.975 E32.07806
G1 X10.748 Y91.796 E32.12814
G1 X10.198 Y91.491 E32.20344
G1 X10.047 Y91.398 E32.22468
G1 X9.263 Y90.873 E32.33765
G1 X9.119 Y90.768 E32.35899
G1 X8.622 Y90.371 E32.43516
G1 X8.472 Y90.24 E32.459
G1 X7.802 Y89.604 E32.56962
G1 X7.665 Y89.463 E32.59315
G1 X7.247 Y88.994 E32.66838
G1 X7.124 Y88.843 E32.6917
G1 X6.56 Y88.092 E32.80415
G1 X6.457 Y87.942 E32.82594
G1 X6.119 Y87.404 E32.90202
G1 X6.024 Y87.236 E32.92513
G1 X5.59 Y86.395 E33.03844
G1 X5.512 Y86.226 E33.06073
G1 X5.28 Y85.66 E33.13397
G1 X5.208 Y85.463 E33.15909
G1 X4.927 Y84.575 E33.27061
G1 X4.87 Y84.368 E33.29632
G1 X4.739 Y83.788 E33.36751
G1 X4.702 Y83.584 E33.39234
G1 X4.572 Y82.659 E33.50418
G1 X4.552 Y82.451 E33.5292
G1 X4.52 Y81.873 E33.59852
G1 X4.516 Y81.654 E33.62474
G1 X4.544 Y80.703 E33.73866
G1 X4.559 Y80.499 E33.76315
G1 X4.628 Y79.897 E33.83571
G1 X4.653 Y79.735 E33.85533
G1 X4.842 Y78.786 E33.9712
G1 X4.885 Y78.611 E33.99277
G1 X5.057 Y78.016 E34.06693
G1 X5.121 Y77.823 E34.09128
G1 X5.458 Y76.945 E34.20389
G1 X5.539 Y76.756 E34.22851
G1 X5.811 Y76.193 E34.30337
G1 X5.891 Y76.044 E34.32362
G1 X6.382 Y75.215 E34.43899
G1 X6.481 Y75.063 E34.46071
G1 X6.845 Y74.552 E34.53583
G1 X6.964 Y74.399 E34.55904
G1 X7.59 Y73.662 E34.67482
G1 X7.7 Y73.542 E34.69431
G1 X8.143 Y73.1 E34.76924
G1 X8.28 Y72.977 E34.79129
G1 X9.009 Y72.362 E34.90549
G1 X9.15 Y72.252 E34.9269
G1 X9.657 Y71.893 E35.00129
G1 X9.836 Y71.778 E35.02676
G1 X10.648 Y71.3 E35.13958
G1 X10.807 Y71.216 E35.16111
G1 X11.35 Y70.954 E35.2333
G1 X11.559 Y70.865 E35.2605
G1 X12.458 Y70.524 E35.37563
G1 X12.598 Y70.477 E35.39331
G1 X13.2 Y70.304 E35.46831
G1 X13.39 Y70.258 E35.49172
G1 X14.317 Y70.074 E35.60488
G1 X14.514 Y70.045 E35.62872
G1 X15.121 Y69.977 E35.70186
G1 X15.311 Y69.964 E35.72466
G1 X16.278 Y69.938 E35.84049
G1 X16.453 Y69.94 E35.86144
G1 X17.064 Y69.975 E35.93472
G1 X17.264 Y69.995 E35.95879
G1 X18.368 Y70.159 E36.09243
G1 X19.075 Y70.325 E36.17938
G1 X19.729 Y70.462 E36.25939
G1 X20.411 Y70.515 E36.3413
G1 X21.092 Y70.482 E36.42293
G1 X21.765 Y70.365 E36.50472
G1 X22.417 Y70.161 E36.58652
G1 X23.039 Y69.879 E36.6683
G1 X23.619 Y69.52 E36.74997
G1 X24.15 Y69.09 E36.83178
G1 X24.622 Y68.597 E36.91351
G1 X25.029 Y68.049 E36.99524
G1 X25.362 Y67.452 E37.07709
G1 X25.618 Y66.82 E37.15874
G1 X25.792 Y66.165 E37.23988
G1 X25.851 Y65.798 E37.28439
G1 X25.975 Y64.815 E37.40302
G1 X25.967 Y64.814 E37.40399
G1 X25.967 Y64.104 E37.489
G1 X25.923 Y63.692 E37.53861
G1 X25.882 Y63.411 E37.57262
G1 X25.845 Y62.932 E37.63014
G1 X25.839 Y62.764 E37.65027
G1 X25.843 Y60.051 E37.97512
G1 X25.866 Y59.684 E38.01915
G1 X25.976 Y58.809 E38.12474
G1 X25.958 Y58.807 E38.12691
G1 X25.966 Y58.725 E38.13677
G1 X25.95 Y58.043 E38.21846
G1 X25.848 Y57.368 E38.3002
G1 X25.66 Y56.711 E38.38202
G1 X25.392 Y56.083 E38.46377
G1 X25.046 Y55.495 E38.54546
G1 X24.629 Y54.953 E38.62735
G1 X24.146 Y54.471 E38.70905
G1 X23.608 Y54.052 E38.7907
G1 X23.02 Y53.704 E38.87251
G1 X22.393 Y53.433 E38.9543
G1 X21.736 Y53.244 E39.03616
G1 X21.066 Y53.139 E39.11736
G1 X20.579 Y53.117 E39.17573
G1 X15.971 Y53.113 E39.72748
G1 X15.594 Y53.089 E39.77271
G1 X15.296 Y53.052 E39.80866
G1 X15.012 Y52.997 E39.8433
G1 X14.721 Y52.921 E39.87931
G1 X14.461 Y52.836 E39.91206
G1 X14.184 Y52.726 E39.94775
G1 X13.925 Y52.603 E39.98208
G1 X13.667 Y52.46 E40.0174
G1 X13.448 Y52.321 E40.04846
G1 X13.182 Y52.123 E40.08817
G1 X12.7 Y51.702 E40.16479
G1 X12.354 Y51.313 E40.22713
G1 X12.187 Y51.098 E40.25973
G1 X12.026 Y50.859 E40.29423
G1 X11.897 Y50.64 E40.32466
G1 X11.521 Y50.086 E40.40483
G1 X11.071 Y49.573 E40.48654
G1 X10.557 Y49.121 E40.5685
G1 X9.994 Y48.74 E40.64989
G1 X9.471 Y48.469 E40.72042
G1 X9.105 Y48.297 E40.76885
G1 X8.545 Y47.986 E40.84554
G1 X8.394 Y47.893 E40.86678
G1 X7.61 Y47.368 E40.97976
G1 X7.466 Y47.263 E41.00109
G1 X6.969 Y46.866 E41.07726
G1 X6.819 Y46.735 E41.1011
G1 X6.149 Y46.099 E41.21172
G1 X6.012 Y45.958 E41.23526
G1 X5.594 Y45.489 E41.31048
G1 X5.471 Y45.338 E41.3338
G1 X4.907 Y44.587 E41.44626
G1 X4.804 Y44.437 E41.46804
G1 X4.466 Y43.899 E41.54412
G1 X4.379 Y43.745 E41.5653
G1 X3.927 Y42.868 E41.68343
G1 X3.859 Y42.721 E41.70283
G1 X3.627 Y42.155 E41.77607
G1 X3.555 Y41.958 E41.80118
G1 X3.274 Y41.07 E41.91271
G1 X3.217 Y40.863 E41.93841
G1 X3.086 Y40.283 E42.00961
G1 X3.049 Y40.079 E42.03443
G1 X2.919 Y39.154 E42.14628
G1 X2.899 Y38.946 E42.1713
G1 X2.867 Y38.368 E42.24061
G1 X2.863 Y38.149 E42.26684
G1 X2.891 Y37.199 E42.38064
G1 X2.905 Y37.011 E42.40321
G1 X2.974 Y36.399 E42.47695
G1 X3.004 Y36.21 E42.49987
G1 X3.185 Y35.3 E42.61096
G1 X3.24 Y35.077 E42.63846
G1 X3.404 Y34.511 E42.70902
G1 X3.468 Y34.321 E42.73303
G1 X3.817 Y33.41 E42.84984
G1 X3.888 Y33.246 E42.87124
G1 X4.144 Y32.716 E42.94171
G1 X4.247 Y32.523 E42.96791
G1 X4.717 Y31.726 E43.07869
G1 X4.824 Y31.562 E43.10214
G1 X5.182 Y31.059 E43.17606
G1 X5.312 Y30.892 E43.20141
G1 X5.942 Y30.15 E43.31795
G1 X6.051 Y30.032 E43.33719
G1 X6.477 Y29.608 E43.40916
