;FLAVOR:Marlin
;TIME:12022
;Filament used: 8.27576m
;Layer height: 0.2
;Generated with Cura_SteamEngine 3.6.0
M104 S200
M105
M109 S200
M82 ;absolute extrusion mode
G28 ;Home
G1 Z15.0 F6000 ;Move the platform down 15mm
;Prime the extruder
G92 E0
G1 F200 E3
G92 E0
G92 E0
G1 F1500 E-6.5
;LAYER_COUNT:150
;LAYER:-6
M107
G0 F2400 X7.818 Y21.03 Z0.36
;TYPE:SUPPORT-INTERFACE
G1 F1500 E0
G1 F900 X8.122 Y20.928 E0.03839
G1 X8.384 Y20.857 E0.0709
G1 X8.646 Y20.805 E0.10288
G1 X8.984 Y20.761 E0.14369
G1 X9.419 Y20.734 E0.19588
G1 X9.621 Y20.73 E0.22007
G1 X36.906 Y21.12 E3.48741
G1 X37.576 Y21.088 E3.56773
G1 X38.248 Y20.968 E3.64946
G1 X38.9 Y20.765 E3.73123
G1 X39.521 Y20.482 E3.81294
G1 X40.106 Y20.119 E3.89538
G1 X40.461 Y19.816 E3.95126
G1 X40.479 Y19.834 E3.95431
G1 X40.926 Y19.408 E4.02824
G1 X41.22 Y19.144 E4.07556
G1 X41.42 Y18.987 E4.106
G1 X41.693 Y18.798 E4.14576
G1 X41.908 Y18.67 E4.17572
G1 X42.192 Y18.522 E4.21406
G1 X42.44 Y18.413 E4.2465
G1 X42.718 Y18.312 E4.28192
G1 X42.999 Y18.229 E4.317
G1 X43.266 Y18.168 E4.34979
G1 X43.57 Y18.119 E4.38666
G1 X44.073 Y18.077 E4.4471
G1 X44.197 Y18.07 E4.46197
G1 X73.797 Y17.79 E8.00633
G1 X74.322 Y17.813 E8.06925
G1 X74.593 Y17.845 E8.10192
G1 X74.897 Y17.9 E8.13891
G1 X75.183 Y17.972 E8.17423
G1 X75.451 Y18.057 E8.20789
G1 X75.717 Y18.159 E8.242
G1 X75.993 Y18.288 E8.27848
G1 X76.231 Y18.416 E8.31084
G1 X76.476 Y18.57 E8.34549
G1 X76.727 Y18.753 E8.38268
G1 X77.217 Y19.173 E8.45996
G1 X77.572 Y19.563 E8.5231
G1 X77.729 Y19.763 E8.55355
G1 X77.918 Y20.036 E8.5933
G1 X78.046 Y20.251 E8.62326
G1 X78.197 Y20.541 E8.66241
G1 X78.303 Y20.783 E8.69405
G1 X78.405 Y21.064 E8.72984
G1 X78.486 Y21.336 E8.76382
G1 X78.548 Y21.609 E8.79734
G1 X78.597 Y21.913 E8.83421
G1 X78.639 Y22.416 E8.89465
G1 X78.646 Y22.539 E8.9094
G1 X78.777 Y36.468 E10.57729
G1 X78.826 Y37.137 E10.6576
G1 X78.961 Y37.806 E10.73932
G1 X79.179 Y38.453 E10.82107
G1 X79.478 Y39.068 E10.90295
G1 X79.851 Y39.639 E10.98461
G1 X80.294 Y40.159 E11.06641
G1 X80.8 Y40.62 E11.14837
G1 X81.464 Y41.074 E11.24468
G1 X85.498 Y43.407 E11.80266
G1 X85.834 Y43.631 E11.85101
G1 X86.06 Y43.803 E11.88502
G1 X86.291 Y44.003 E11.9216
G1 X86.48 Y44.188 E11.95327
G1 X86.675 Y44.405 E11.9882
G1 X86.865 Y44.646 E12.02495
G1 X87.161 Y45.085 E12.08835
G1 X87.381 Y45.513 E12.14597
G1 X87.504 Y45.8 E12.18335
G1 X87.594 Y46.057 E12.21596
G1 X87.675 Y46.335 E12.25063
G1 X87.735 Y46.613 E12.28468
G1 X87.781 Y46.924 E12.32233
G1 X87.815 Y47.377 E12.37672
G1 X87.823 Y47.583 E12.4014
G1 X87.819 Y54.873 E13.27428
G1 X87.795 Y55.25 E13.31951
G1 X87.758 Y55.548 E13.35547
G1 X87.703 Y55.832 E13.39011
G1 X87.629 Y56.117 E13.42536
G1 X87.546 Y56.37 E13.45725
G1 X87.424 Y56.671 E13.49613
G1 X87.198 Y57.13 E13.55739
G1 X86.921 Y57.74 E13.63761
G1 X86.719 Y58.392 E13.71934
G1 X86.602 Y59.064 E13.80101
G1 X86.57 Y59.747 E13.88288
G1 X86.624 Y60.427 E13.96456
G1 X86.765 Y61.096 E14.04642
G1 X86.985 Y61.735 E14.12734
G1 X87.39 Y62.602 E14.24192
G1 X87.555 Y63.004 E14.29395
G1 X87.7 Y63.409 E14.34546
G1 X87.841 Y63.867 E14.40284
G1 X87.964 Y64.351 E14.46263
G1 X88.072 Y64.889 E14.52834
G1 X88.145 Y65.377 E14.58742
G1 X88.193 Y65.885 E14.64852
G1 X88.216 Y66.402 E14.71048
G1 X88.213 Y66.892 E14.76915
G1 X88.193 Y67.303 E14.81842
G1 X88.135 Y67.852 E14.88452
G1 X88.057 Y68.364 E14.94654
G1 X87.992 Y68.692 E14.98657
G1 X87.871 Y69.191 E15.04805
G1 X87.741 Y69.631 E15.10299
G1 X87.579 Y70.099 E15.16229
G1 X87.389 Y70.568 E15.22288
G1 X87.169 Y71.041 E15.28534
G1 X86.785 Y71.763 E15.38326
G1 X86.794 Y71.772 E15.38478
G1 X86.646 Y72.075 E15.42516
G1 X86.425 Y72.721 E15.50691
G1 X86.289 Y73.39 E15.58865
G1 X86.237 Y74.071 E15.67043
G1 X86.273 Y74.753 E15.7522
G1 X86.394 Y75.425 E15.83396
G1 X86.599 Y76.08 E15.91614
G1 X86.983 Y76.872 E16.02153
G1 X87.296 Y77.399 E16.09492
G1 X87.368 Y77.533 E16.11313
G1 X87.648 Y78.112 E16.19014
G1 X87.73 Y78.301 E16.21481
G1 X88.066 Y79.179 E16.32737
G1 X88.13 Y79.372 E16.35172
G1 X88.298 Y79.952 E16.42402
G1 X88.341 Y80.124 E16.44525
G1 X88.531 Y81.075 E16.56137
G1 X88.559 Y81.253 E16.58295
G1 X88.629 Y81.872 E16.65753
G1 X88.642 Y82.042 E16.67795
G1 X88.671 Y83.018 E16.79486
G1 X88.668 Y83.211 E16.81798
G1 X88.635 Y83.818 E16.89076
G1 X88.618 Y83.997 E16.91229
G1 X88.489 Y84.929 E17.02495
G1 X88.451 Y85.135 E17.05003
G1 X88.316 Y85.731 E17.1232
G1 X88.267 Y85.915 E17.146
G1 X87.977 Y86.83 E17.26093
G1 X87.916 Y86.998 E17.28233
G1 X87.674 Y87.585 E17.35836
G1 X87.593 Y87.759 E17.38134
G1 X87.162 Y88.595 E17.49396
G1 X87.06 Y88.773 E17.51852
G1 X86.748 Y89.27 E17.58879
G1 X86.616 Y89.462 E17.61668
G1 X86.062 Y90.201 E17.72727
G1 X85.939 Y90.352 E17.75059
G1 X85.524 Y90.818 E17.82531
G1 X85.395 Y90.951 E17.84749
G1 X84.725 Y91.587 E17.9581
G1 X84.564 Y91.728 E17.98373
G1 X84.078 Y92.116 E18.05819
G1 X83.925 Y92.228 E18.0809
G1 X83.137 Y92.755 E18.1944
G1 X82.973 Y92.855 E18.2174
G1 X82.441 Y93.15 E18.29024
G1 X82.055 Y93.333 E18.34139
G1 X81.462 Y93.646 E18.42168
G1 X80.904 Y94.04 E18.50347
G1 X80.401 Y94.501 E18.58516
G1 X79.957 Y95.021 E18.66704
G1 X79.434 Y95.833 E18.78268
G1 X79.236 Y96.099 E18.82239
G1 X78.815 Y96.581 E18.89902
G1 X78.428 Y96.925 E18.96101
G1 X78.211 Y97.094 E18.99395
G1 X77.98 Y97.25 E19.02732
G1 X77.712 Y97.408 E19.06457
G1 X77.455 Y97.538 E19.09906
G1 X77.186 Y97.653 E19.13409
G1 X76.929 Y97.746 E19.16681
G1 X76.637 Y97.83 E19.20319
G1 X76.376 Y97.886 E19.23516
G1 X76.056 Y97.934 E19.2739
G1 X75.588 Y97.97 E19.3301
G1 X75.396 Y97.977 E19.35311
G1 X34.653 Y97.973 E24.23153
G1 X34.276 Y97.949 E24.27676
G1 X33.981 Y97.912 E24.31236
G1 X33.697 Y97.857 E24.347
G1 X33.506 Y97.808 E24.37061
G1 X32.848 Y97.681 E24.45085
G1 X32.168 Y97.635 E24.53246
G1 X31.486 Y97.676 E24.61427
G1 X30.815 Y97.804 E24.69606
G1 X30.163 Y98.015 E24.77811
G1 X29.465 Y98.353 E24.87097
G1 X29.083 Y98.568 E24.92346
G1 X28.766 Y98.726 E24.96587
G1 X28.486 Y98.843 E25.0022
G1 X28.206 Y98.94 E25.03768
G1 X27.929 Y99.017 E25.07211
G1 X27.663 Y99.073 E25.10466
G1 X27.358 Y99.116 E25.14154
G1 X26.772 Y99.153 E25.21184
G1 X26.311 Y99.126 E25.26714
G1 X26.013 Y99.089 E25.30309
G1 X25.729 Y99.034 E25.33773
G1 X25.438 Y98.958 E25.37374
G1 X25.184 Y98.875 E25.40574
G1 X24.907 Y98.764 E25.44147
G1 X24.333 Y98.478 E25.51825
G1 X22.39 Y97.355 E25.78697
G1 X21.79 Y97.057 E25.86718
G1 X21.144 Y96.834 E25.94901
G1 X20.477 Y96.693 E26.03064
G1 X19.796 Y96.638 E26.11244
G1 X19.113 Y96.67 E26.19431
G1 X18.441 Y96.786 E26.27597
G1 X17.785 Y96.988 E26.35815
G1 X17.014 Y97.355 E26.4604
G1 X15.066 Y98.48 E26.72974
G1 X14.594 Y98.72 E26.79315
G1 X14.311 Y98.839 E26.82991
G1 X14.039 Y98.934 E26.8644
G1 X13.757 Y99.011 E26.89941
G1 X13.492 Y99.067 E26.93184
G1 X13.183 Y99.111 E26.96921
G1 X12.6 Y99.148 E27.03915
G1 X12.139 Y99.121 E27.09445
G1 X11.841 Y99.084 E27.1304
G1 X11.557 Y99.029 E27.16504
G1 X11.266 Y98.953 E27.20105
G1 X11.012 Y98.87 E27.23305
G1 X10.735 Y98.759 E27.26878
G1 X10.161 Y98.473 E27.34557
G1 X3.865 Y94.833 E28.21635
G1 X3.529 Y94.609 E28.2647
G1 X3.303 Y94.437 E28.29871
G1 X3.072 Y94.237 E28.33529
G1 X2.881 Y94.049 E28.36738
G1 X2.688 Y93.835 E28.40189
G1 X2.491 Y93.585 E28.44
G1 X2.197 Y93.147 E28.50316
G1 X1.979 Y92.72 E28.56057
G1 X1.86 Y92.443 E28.59667
G1 X1.769 Y92.183 E28.62965
G1 X1.684 Y91.888 E28.66641
G1 X1.628 Y91.627 E28.69837
G1 X1.582 Y91.316 E28.73601
G1 X1.547 Y90.849 E28.79209
G1 X1.54 Y90.657 E28.81509
G1 X1.544 Y83.368 E29.68785
G1 X1.568 Y82.991 E29.73308
G1 X1.605 Y82.693 E29.76904
G1 X1.66 Y82.409 E29.80368
G1 X1.736 Y82.118 E29.83969
G1 X1.815 Y81.875 E29.87028
G1 X1.938 Y81.571 E29.90955
G1 X2.206 Y81.035 E29.9813
G1 X2.465 Y80.646 E30.03726
G1 X2.647 Y80.411 E30.07285
G1 X2.843 Y80.187 E30.10849
G1 X3.502 Y79.517 E30.22102
G1 X3.917 Y78.974 E30.30285
G1 X4.26 Y78.384 E30.38456
G1 X4.525 Y77.754 E30.4664
G1 X4.709 Y77.096 E30.54821
G1 X4.808 Y76.421 E30.62989
G1 X4.821 Y75.739 E30.71157
G1 X4.749 Y75.059 E30.79344
G1 X4.591 Y74.395 E30.87517
G1 X4.35 Y73.755 E30.95705
G1 X4.007 Y73.116 E31.04389
G1 X3.813 Y72.805 E31.08778
G1 X3.711 Y72.627 E31.11234
G1 X3.271 Y71.774 E31.22727
G1 X3.189 Y71.597 E31.25062
G1 X2.953 Y71.025 E31.32471
G1 X2.889 Y70.849 E31.34714
G1 X2.595 Y69.92 E31.46381
G1 X2.555 Y69.77 E31.4824
G1 X2.422 Y69.181 E31.5547
G1 X2.381 Y68.955 E31.5822
G1 X2.252 Y68.037 E31.6932
G1 X2.232 Y67.828 E31.71834
G1 X2.199 Y67.231 E31.78993
G1 X2.196 Y67.033 E31.81364
G1 X2.224 Y66.084 E31.92732
G1 X2.238 Y65.896 E31.94989
G1 X2.307 Y65.284 E32.02364
G1 X2.337 Y65.095 E32.04655
G1 X2.518 Y64.185 E32.15764
G1 X2.569 Y63.977 E32.18329
G1 X2.737 Y63.396 E32.2557
G1 X2.801 Y63.206 E32.27971
G1 X3.15 Y62.295 E32.39652
G1 X3.221 Y62.131 E32.41792
G1 X3.477 Y61.601 E32.48839
G1 X3.58 Y61.408 E32.51459
G1 X4.05 Y60.611 E32.62538
G1 X4.157 Y60.447 E32.64882
G1 X4.827 Y59.506 E32.78714
G1 X4.817 Y59.499 E32.7886
G1 X4.885 Y59.398 E32.80318
G1 X5.194 Y58.788 E32.88505
G1 X5.424 Y58.146 E32.96671
G1 X5.571 Y57.479 E33.04849
G1 X5.633 Y56.799 E33.13025
G1 X5.608 Y56.117 E33.21196
G1 X5.498 Y55.443 E33.29373
G1 X5.302 Y54.785 E33.37594
G1 X4.919 Y53.966 E33.4842
G1 X4.244 Y52.786 E33.64697
G1 X4.089 Y52.476 E33.68847
G1 X3.972 Y52.196 E33.7248
G1 X3.873 Y51.911 E33.76093
G1 X3.798 Y51.639 E33.79471
G1 X3.742 Y51.373 E33.82726
G1 X3.699 Y51.068 E33.86414
G1 X3.662 Y50.482 E33.93445
G1 X3.689 Y50.021 E33.98974
G1 X3.726 Y49.723 E34.0257
G1 X3.781 Y49.439 E34.06033
G1 X3.859 Y49.14 E34.09733
G1 X3.94 Y48.894 E34.12834
G1 X4.051 Y48.617 E34.16407
G1 X4.323 Y48.07 E34.23722
G1 X4.798 Y47.248 E34.35089
G1 X5.096 Y46.647 E34.43122
G1 X5.319 Y46.002 E34.51293
G1 X5.46 Y45.333 E34.5948
G1 X5.515 Y44.653 E34.67648
G1 X5.483 Y43.971 E34.75823
G1 X5.367 Y43.299 E34.83989
G1 X5.167 Y42.65 E34.9212
G1 X4.977 Y42.208 E34.97881
G1 X4.915 Y42.083 E34.99551
G1 X4.808 Y41.819 E35.02962
G1 X4.709 Y41.524 E35.06688
G1 X4.638 Y41.262 E35.09938
G1 X4.586 Y41 E35.13137
G1 X4.541 Y40.658 E35.17267
G1 X4.515 Y40.227 E35.22437
G1 X4.511 Y40.031 E35.24784
G1 X4.726 Y25.323 E37.00911
G1 X4.756 Y24.939 E37.05523
G1 X4.797 Y24.654 E37.08971
G1 X4.857 Y24.361 E37.12552
G1 X4.931 Y24.091 E37.15904
G1 X5.025 Y23.815 E37.19395
G1 X5.138 Y23.546 E37.22889
G1 X5.262 Y23.292 E37.26273
G1 X5.411 Y23.032 E37.29861
G1 X5.559 Y22.807 E37.33086
G1 X5.759 Y22.546 E37.37023
G1 X6.084 Y22.18 E37.42884
G1 X6.269 Y21.998 E37.45991
G1 X6.573 Y21.74 E37.50765
G1 X6.816 Y21.559 E37.54393
G1 X7.063 Y21.397 E37.5793
G1 X7.294 Y21.265 E37.61116
G1 X7.576 Y21.129 E37.64865
G1 X7.818 Y21.03 E37.67995
G0 F2400 X8 Y20.968
G1 F900 X8 Y97.223 E46.81046
G0 F2400 X6.4 Y96.298
G1 F900 X6.4 Y21.886 E55.72029
G0 F2400 X4.8 Y24.639
G1 F900 X4.8 Y41.795 E57.77449
G0 F2400 X5.053 Y44.643
G0 X4.8 Y47.243
G1 F900 X4.8 Y53.757 E58.55445
G0 F2400 X5.148 Y56.166
G0 X5.168 Y56.718
G0 X4.8 Y59.543
G1 F900 X4.8 Y75.54 E60.46988
G0 F2400 X4.8 Y76.475
G1 F900 X4.8 Y95.373 E62.73266
G0 F2400 X3.2 Y94.347
G1 F900 X3.2 Y79.824 E64.47159
G0 F2400 X1.6 Y82.733
G1 F900 X1.6 Y91.437 E65.51378
G0 F2400 X9.6 Y98.148
G1 F900 X9.6 Y20.73 E74.78354
G0 F2400 X11.2 Y20.753
G1 F900 X11.2 Y98.931 E84.1443
G0 F2400 X12.8 Y99.136
G1 F900 X12.8 Y20.776 E93.52685
G0 F2400 X14.4 Y20.799
G1 F900 X14.4 Y98.802 E102.86665
G0 F2400 X16 Y97.941
G1 F900 X16 Y20.822 E112.10061
G0 F2400 X17.6 Y20.845
G1 F900 X17.6 Y97.077 E121.22836
G0 F2400 X19.2 Y96.666
G1 F900 X19.2 Y20.867 E130.30427
G0 F2400 X20.8 Y20.89
G1 F900 X20.8 Y96.761 E139.38879
G0 F2400 X22.4 Y97.36
G1 F900 X22.4 Y20.913 E148.54229
G0 F2400 X24 Y20.936
G1 F900 X24 Y98.285 E157.80379
G0 F2400 X25.6 Y99
G1 F900 X25.6 Y20.959 E167.14814
G0 F2400 X27.2 Y20.982
G1 F900 X27.2 Y99.126 E176.50483
G0 F2400 X28.8 Y98.71
G1 F900 X28.8 Y21.005 E185.80895
G0 F2400 X30.4 Y21.028
G1 F900 X30.4 Y97.939 E195.01801
G0 F2400 X32 Y97.646
G1 F900 X32 Y21.05 E204.18934
G0 F2400 X33.6 Y21.073
G1 F900 X33.6 Y97.832 E213.3802
G0 F2400 X35.2 Y97.973
G1 F900 X35.2 Y21.096 E222.58518
G0 F2400 X36.8 Y21.119
G1 F900 X36.8 Y97.973 E231.78741
G0 F2400 X38.4 Y97.973
G1 F900 X38.4 Y20.92 E241.01346
G0 F2400 X40 Y20.184
G1 F900 X40 Y97.973 E250.32764
G0 F2400 X41.6 Y97.973
G1 F900 X41.6 Y18.862 E259.80012
G0 F2400 X43.2 Y18.183
G1 F900 X43.2 Y97.973 E269.35389
G0 F2400 X44.8 Y97.973
G1 F900 X44.8 Y18.064 E278.92191
G0 F2400 X46.4 Y18.049
G1 F900 X46.4 Y97.974 E288.49185
G0 F2400 X48 Y97.974
G1 F900 X48 Y18.034 E298.06359
G0 F2400 X49.6 Y18.018
G1 F900 X49.6 Y97.974 E307.63724
G0 F2400 X51.2 Y97.974
G1 F900 X51.2 Y18.003 E317.21268
G0 F2400 X52.8 Y17.988
G1 F900 X52.8 Y97.974 E326.78993
G0 F2400 X54.4 Y97.974
G1 F900 X54.4 Y17.973 E336.36896
G0 F2400 X56 Y17.958
G1 F900 X56 Y97.975 E345.94992
G0 F2400 X57.6 Y97.975
G1 F900 X57.6 Y17.943 E355.53267
G0 F2400 X59.2 Y17.928
G1 F900 X59.2 Y97.975 E365.11722
G0 F2400 X60.8 Y97.975
G1 F900 X60.8 Y17.912 E374.70368
G0 F2400 X62.4 Y17.897
G1 F900 X62.4 Y97.975 E384.29194
G0 F2400 X64 Y97.975
G1 F900 X64 Y17.882 E393.88199
G0 F2400 X65.6 Y17.867
G1 F900 X65.6 Y97.976 E403.47396
G0 F2400 X67.2 Y97.976
G1 F900 X67.2 Y17.852 E413.06773
G0 F2400 X68.8 Y17.837
G1 F900 X68.8 Y97.976 E422.66329
G0 F2400 X70.4 Y97.976
G1 F900 X70.4 Y17.822 E432.26065
G0 F2400 X72 Y17.806
G1 F900 X72 Y97.976 E441.85992
G0 F2400 X73.6 Y97.976
G1 F900 X73.6 Y17.791 E451.46099
G0 F2400 X75.2 Y17.978
G1 F900 X75.2 Y97.976 E461.03967
G0 F2400 X76.8 Y97.784
G1 F900 X76.8 Y18.816 E470.49502
G0 F2400 X78.4 Y21.051
G1 F900 X78.4 Y96.947 E479.58254
G0 F2400 X80 Y94.971
G1 F900 X80 Y39.814 E486.18685
G0 F2400 X81.6 Y41.153
G1 F900 X81.6 Y93.574 E492.46355
G0 F2400 X83.2 Y92.713
G1 F900 X83.2 Y42.078 E498.52641
G0 F2400 X84.8 Y43.004
G1 F900 X84.8 Y91.516 E504.33507
G0 F2400 X86.4 Y89.751
G1 F900 X86.4 Y75.445 E506.04802
G0 F2400 X86.4 Y72.844
G1 F900 X86.4 Y44.11 E509.48853
G0 F2400 X87.082 Y60.361
G0 X88 Y64.531
G1 F900 X88 Y68.652 E509.98196
G0 F2400 X86.747 Y73.448
G0 X86.699 Y74.079
G0 X86.827 Y75.19
G0 X88 Y79.007
G1 F900 X88 Y86.758 E510.91004
G0 F2400 X3.2 Y71.62
G1 F900 X3.2 Y62.179 E512.04047
G0 F2400 X76.795 Y18.812
;TIME_ELAPSED:301.740257
;LAYER:-5
G0 X76.795 Y18.812 Z0.66
;TYPE:SUPPORT
G1 F900 X76.726 Y18.753 E512.04953
G1 X76.475 Y18.57 E512.08052
G1 X76.23 Y18.415 E512.10945
G1 X75.992 Y18.287 E512.13642
G1 X75.716 Y18.159 E512.16677
G1 X75.45 Y18.057 E512.1952
G1 X75.182 Y17.971 E512.22328
G1 X74.896 Y17.9 E512.25269
G1 X74.591 Y17.845 E512.28361
G1 X74.39 Y17.821 E512.30381
G1 X78.606 Y22.038 E512.8988
G1 X78.638 Y22.415 E512.93655
G1 X78.645 Y22.539 E512.94895
G1 X78.654 Y23.499 E513.04474
G1 X72.952 Y17.798 E513.84928
G1 X71.552 Y17.812 E513.98898
G1 X78.667 Y24.927 E514.99299
G1 X78.681 Y26.355 E515.13548
G1 X70.15 Y17.824 E516.3393
G1 X68.749 Y17.838 E516.47909
G1 X78.694 Y27.782 E517.88237
G1 X78.708 Y29.21 E518.02486
G1 X67.349 Y17.851 E519.62774
G1 X65.947 Y17.864 E519.76764
G1 X78.721 Y30.638 E521.57019
G1 X78.734 Y32.065 E521.71258
G1 X64.546 Y17.877 E523.71466
G1 X63.146 Y17.891 E523.85436
G1 X78.748 Y33.493 E526.05597
G1 X78.761 Y34.921 E526.19846
G1 X61.745 Y17.904 E528.59968
G1 X60.343 Y17.917 E528.73958
G1 X78.775 Y36.348 E531.34046
G1 X78.775 Y36.468 E531.35243
G1 X78.825 Y37.137 E531.41937
G1 X78.959 Y37.806 E531.48745
G1 X79.031 Y38.019 E531.50989
G1 X58.943 Y17.93 E534.34459
G1 X57.542 Y17.944 E534.48439
G1 X87.821 Y48.223 E538.75708
G1 X87.821 Y49.637 E538.89817
G1 X56.141 Y17.957 E543.36856
G1 X54.739 Y17.97 E543.50846
G1 X87.82 Y51.05 E548.17648
G1 X87.819 Y52.464 E548.31757
G1 X53.339 Y17.983 E553.18314
G1 X51.938 Y17.997 E553.32294
G1 X87.819 Y53.878 E558.38613
G1 X87.818 Y54.872 E558.48532
G1 X87.794 Y55.25 E558.52311
G1 X87.792 Y55.266 E558.52472
G1 X50.537 Y18.01 E563.78187
G1 X49.136 Y18.023 E563.92167
G1 X87.527 Y56.414 E569.33905
G1 X87.423 Y56.671 E569.36672
G1 X87.197 Y57.129 E569.41768
G1 X87.082 Y57.383 E569.4455
G1 X47.735 Y18.036 E574.99779
G1 X46.334 Y18.05 E575.13758
G1 X86.712 Y58.428 E580.83536
G1 X86.601 Y59.063 E580.89968
G1 X86.571 Y59.701 E580.96341
G1 X44.933 Y18.063 E586.83898
G1 X44.196 Y18.07 E586.91252
G1 X44.071 Y18.077 E586.92501
G1 X43.574 Y18.118 E586.97477
G1 X86.875 Y61.42 E593.08508
