;FLAVOR:Marlin
;TIME:9320
;Filament used: 6.75794m
;Layer height: 0.2
;Generated with Cura_SteamEngine 3.6.0
M104 S200
M105
M109 S200
M82 ;absolute extrusion mode
G28 ;Home
G1 Z15.0 F6000 ;Move the platform down 15mm
;Prime the extruder
G92 E0
G1 F200 E3
G92 E0
G92 E0
G1 F1500 E-6.5
;LAYER_COUNT:40
;LAYER:-6
M107
G0 F2400 X6.958 Y10.229 Z0.36
;TYPE:SUPPORT-INTERFACE
G1 F1500 E0
G1 F900 X7.467 Y9.867 E0.07479
G1 X7.607 Y9.776 E0.09478
G1 X8.438 Y9.287 E0.21023
G1 X8.622 Y9.19 E0.23514
G1 X9.154 Y8.936 E0.30572
G1 X9.352 Y8.851 E0.33152
G1 X10.239 Y8.513 E0.44518
G1 X10.394 Y8.461 E0.46476
G1 X11.01 Y8.284 E0.5415
G1 X11.187 Y8.241 E0.56331
G1 X12.126 Y8.055 E0.67792
G1 X12.293 Y8.03 E0.69814
G1 X12.922 Y7.961 E0.77391
G1 X13.111 Y7.948 E0.79659
G1 X14.076 Y7.922 E0.91218
G1 X14.25 Y7.924 E0.93302
G1 X14.861 Y7.959 E1.00629
G1 X15.063 Y7.979 E1.0306
G1 X16.001 Y8.113 E1.14405
G1 X16.176 Y8.145 E1.16535
G1 X16.78 Y8.283 E1.23954
G1 X16.974 Y8.336 E1.26362
G1 X17.872 Y8.623 E1.3765
G1 X18.06 Y8.692 E1.40048
G1 X18.614 Y8.921 E1.47226
G1 X18.818 Y9.017 E1.49925
G1 X19.65 Y9.448 E1.61145
G1 X19.819 Y9.546 E1.63484
G1 X20.325 Y9.866 E1.70652
G1 X20.49 Y9.979 E1.73047
G1 X21.254 Y10.555 E1.84503
G1 X21.39 Y10.666 E1.86605
G1 X21.862 Y11.089 E1.94194
G1 X22.003 Y11.227 E1.96557
G1 X22.631 Y11.893 E2.07517
G1 X22.766 Y12.047 E2.09969
G1 X23.154 Y12.534 E2.17425
G1 X23.267 Y12.689 E2.19722
G1 X23.694 Y13.206 E2.2775
G1 X24.192 Y13.672 E2.35917
G1 X24.746 Y14.072 E2.44099
G1 X25.344 Y14.399 E2.52259
G1 X25.981 Y14.649 E2.60453
G1 X26.649 Y14.816 E2.68698
G1 X27.61 Y14.905 E2.80253
G1 X53.374 Y14.905 E5.88743
G1 X54.042 Y14.863 E5.96757
G1 X54.713 Y14.734 E6.04938
G1 X55.362 Y14.521 E6.13117
G1 X55.979 Y14.229 E6.2129
G1 X56.554 Y13.861 E6.29464
G1 X57.078 Y13.423 E6.37642
G1 X57.542 Y12.923 E6.45809
G1 X57.942 Y12.366 E6.5402
G1 X58.296 Y11.696 E6.63093
G1 X58.71 Y10.816 E6.74738
G1 X58.977 Y10.317 E6.81514
G1 X59.405 Y9.6 E6.91513
G1 X59.745 Y9.091 E6.98842
G1 X60.246 Y8.415 E7.08917
G1 X60.559 Y8.029 E7.14867
G1 X61.171 Y7.35 E7.25812
G1 X61.488 Y7.027 E7.31231
G1 X62.22 Y6.358 E7.43105
G1 X62.577 Y6.062 E7.48658
G1 X63.335 Y5.495 E7.59992
G1 X63.843 Y5.155 E7.67311
G1 X64.562 Y4.727 E7.7733
G1 X64.94 Y4.521 E7.82485
G1 X65.827 Y4.094 E7.94272
G1 X66.279 Y3.903 E8.00147
G1 X67.168 Y3.581 E8.11469
G1 X67.606 Y3.445 E8.1696
G1 X68.552 Y3.204 E8.28649
G1 X69.014 Y3.108 E8.34299
G1 X69.957 Y2.965 E8.45719
G1 X70.44 Y2.913 E8.51536
G1 X71.387 Y2.864 E8.6289
G1 X71.843 Y2.86 E8.6835
G1 X72.823 Y2.905 E8.80097
G1 X73.283 Y2.947 E8.85628
G1 X74.241 Y3.086 E8.97218
G1 X74.71 Y3.175 E9.02934
G1 X75.648 Y3.406 E9.14501
G1 X76.116 Y3.546 E9.2035
G1 X76.988 Y3.855 E9.31427
G1 X77.43 Y4.036 E9.37146
G1 X78.312 Y4.45 E9.48813
G1 X78.708 Y4.659 E9.54174
G1 X79.529 Y5.145 E9.65598
G1 X80.037 Y5.485 E9.72917
G1 X80.711 Y5.985 E9.82965
G1 X81.08 Y6.283 E9.88644
G1 X81.778 Y6.911 E9.99887
G1 X82.101 Y7.228 E10.05306
G1 X82.77 Y7.96 E10.1718
G1 X83.066 Y8.317 E10.22732
G1 X83.633 Y9.075 E10.34067
G1 X83.898 Y9.466 E10.39722
G1 X84.459 Y10.403 E10.52799
G1 X84.679 Y10.819 E10.58433
G1 X85.042 Y11.584 E10.68572
G1 X85.218 Y12 E10.73981
G1 X85.551 Y12.915 E10.8564
G1 X85.687 Y13.359 E10.912
G1 X85.922 Y14.283 E11.02615
G1 X86.018 Y14.743 E11.08242
G1 X86.162 Y15.688 E11.19688
G1 X86.215 Y16.173 E11.2553
G1 X86.264 Y17.118 E11.3686
G1 X86.268 Y17.584 E11.4244
G1 X86.223 Y18.563 E11.54174
G1 X86.181 Y19.023 E11.59705
G1 X86.042 Y19.981 E11.71296
G1 X85.954 Y20.446 E11.76963
G1 X85.7 Y21.466 E11.89549
G1 X85.545 Y21.964 E11.95794
G1 X85.234 Y22.826 E12.06766
G1 X85.05 Y23.266 E12.12477
G1 X84.606 Y24.195 E12.24805
G1 X84.322 Y24.856 E12.3342
G1 X84.137 Y25.514 E12.41604
G1 X84.038 Y26.189 E12.49772
G1 X84.023 Y26.872 E12.57952
G1 X84.095 Y27.552 E12.6614
G1 X84.253 Y28.216 E12.74312
G1 X84.492 Y28.855 E12.82481
G1 X84.823 Y29.478 E12.90928
G1 X84.815 Y29.484 E12.91048
G1 X85.466 Y30.399 E13.04494
G1 X85.57 Y30.556 E13.06749
G1 X86.049 Y31.368 E13.18037
G1 X86.145 Y31.547 E13.20469
G1 X86.408 Y32.091 E13.27704
G1 X86.479 Y32.255 E13.29844
G1 X86.828 Y33.166 E13.41525
G1 X86.892 Y33.356 E13.43925
G1 X87.056 Y33.922 E13.50981
G1 X87.107 Y34.127 E13.53511
G1 X87.292 Y35.055 E13.64841
G1 X87.322 Y35.244 E13.67132
G1 X87.391 Y35.856 E13.74507
G1 X87.404 Y36.026 E13.76548
G1 X87.433 Y36.994 E13.88144
G1 X87.429 Y37.213 E13.90766
G1 X87.397 Y37.791 E13.97698
G1 X87.377 Y37.999 E14.002
G1 X87.247 Y38.924 E14.11384
G1 X87.21 Y39.128 E14.13867
G1 X87.079 Y39.708 E14.20986
G1 X87.022 Y39.915 E14.23557
G1 X86.741 Y40.803 E14.34709
G1 X86.669 Y41 E14.37221
G1 X86.435 Y41.571 E14.4461
G1 X86.359 Y41.735 E14.46774
G1 X85.926 Y42.574 E14.58079
G1 X85.816 Y42.766 E14.60728
G1 X85.503 Y43.266 E14.67791
G1 X85.386 Y43.436 E14.70262
G1 X84.818 Y44.192 E14.81585
G1 X84.704 Y44.331 E14.83737
G1 X84.288 Y44.798 E14.91226
G1 X84.148 Y44.942 E14.9363
G1 X83.855 Y45.22 E14.98467
G1 X83.398 Y45.711 E15.06498
G1 X83 Y46.267 E15.14685
G1 X82.676 Y46.867 E15.2285
G1 X82.43 Y47.504 E15.31026
G1 X82.266 Y48.166 E15.39192
G1 X82.187 Y48.845 E15.47377
G1 X82.194 Y49.528 E15.55556
G1 X82.287 Y50.204 E15.63726
G1 X82.465 Y50.864 E15.71911
G1 X82.725 Y51.495 E15.80083
G1 X83.06 Y52.084 E15.88196
G1 X83.391 Y52.54 E15.94943
G1 X84.264 Y53.781 E16.13111
G1 X84.368 Y53.945 E16.15436
G1 X84.681 Y54.487 E16.2293
G1 X84.777 Y54.671 E16.25415
G1 X85.412 Y56.026 E16.43332
G1 X85.494 Y56.224 E16.45899
G1 X85.715 Y56.832 E16.53645
G1 X85.769 Y57.002 E16.5578
G1 X86.162 Y58.466 E16.7393
G1 X86.205 Y58.661 E16.76321
G1 X86.318 Y59.297 E16.84056
G1 X86.342 Y59.471 E16.86159
G1 X86.476 Y60.986 E17.0437
G1 X86.484 Y61.182 E17.06719
G1 X86.484 Y61.812 E17.14262
G1 X86.475 Y62.014 E17.16683
G1 X86.344 Y63.525 E17.34843
G1 X86.319 Y63.721 E17.37209
G1 X86.211 Y64.339 E17.44721
G1 X86.165 Y64.543 E17.47225
G1 X85.774 Y66.012 E17.65426
G1 X85.722 Y66.179 E17.67521
G1 X85.504 Y66.781 E17.75187
G1 X85.428 Y66.963 E17.77549
G1 X84.786 Y68.342 E17.95762
G1 X84.697 Y68.514 E17.98081
G1 X84.393 Y69.042 E18.05376
G1 X84.255 Y69.259 E18.08455
G1 X84.169 Y69.384 E18.10272
G1 X83.82 Y69.957 E18.18305
G1 X83.541 Y70.58 E18.26478
G1 X83.345 Y71.234 E18.34653
G1 X83.231 Y71.906 E18.42815
G1 X83.203 Y72.589 E18.50999
G1 X83.263 Y73.27 E18.59185
G1 X83.406 Y73.937 E18.67353
G1 X83.634 Y74.581 E18.75533
G1 X83.941 Y75.191 E18.8371
G1 X84.321 Y75.756 E18.91863
G1 X84.912 Y76.435 E19.02641
G1 X85.21 Y76.829 E19.08556
G1 X85.923 Y77.873 E19.23694
G1 X86.2 Y78.33 E19.30092
G1 X86.328 Y78.58 E19.33455
G1 X86.506 Y78.99 E19.38807
G1 X87.004 Y80.327 E19.5589
G1 X87.122 Y80.719 E19.60792
G1 X87.179 Y80.961 E19.63769
G1 X87.259 Y81.438 E19.6956
G1 X87.419 Y82.841 E19.86468
G1 X87.441 Y83.218 E19.9099
G1 X87.438 Y83.518 E19.94582
G1 X87.4 Y83.996 E20.00324
G1 X87.22 Y85.392 E20.17177
G1 X87.146 Y85.778 E20.21883
G1 X87.081 Y86.038 E20.25092
G1 X86.926 Y86.504 E20.30972
G1 X86.416 Y87.813 E20.47794
G1 X86.262 Y88.147 E20.52197
G1 X86.126 Y88.403 E20.55668
G1 X85.883 Y88.789 E20.6113
G1 X85.069 Y89.955 E20.78157
G1 X84.829 Y90.259 E20.82794
G1 X84.654 Y90.454 E20.85931
G1 X84.316 Y90.783 E20.91579
G1 X83.256 Y91.71 E21.0844
G1 X82.919 Y91.97 E21.13537
G1 X82.691 Y92.125 E21.16838
G1 X82.319 Y92.343 E21.22
G1 X80.197 Y93.458 E21.50702
G1 X79.712 Y93.68 E21.57089
G1 X79.434 Y93.784 E21.60643
G1 X79.181 Y93.862 E21.63813
G1 X78.859 Y93.935 E21.67766
G1 X78.395 Y94.007 E21.73389
G1 X78.246 Y94.024 E21.75184
G1 X77.561 Y94.079 E21.83413
G1 X77.177 Y94.124 E21.88042
G1 X58.558 Y97.013 E24.13647
G1 X58.376 Y97.034 E24.15841
G1 X57.806 Y97.077 E24.22685
G1 X57.618 Y97.084 E24.24938
G1 X56.053 Y97.081 E24.43677
G1 X55.877 Y97.074 E24.45786
G1 X55.321 Y97.031 E24.52463
G1 X55.139 Y97.01 E24.54657
G1 X36.551 Y94.123 E26.79891
G1 X36.181 Y94.079 E26.84353
G1 X35.649 Y94.028 E26.90752
G1 X35.089 Y93.937 E26.97545
G1 X34.565 Y93.817 E27.03982
G1 X34.08 Y93.673 E27.10039
G1 X33.796 Y93.564 E27.13682
G1 X33.347 Y93.356 E27.19607
G1 X31.786 Y92.532 E27.40742
G1 X31.175 Y92.258 E27.4876
G1 X30.521 Y92.059 E27.56945
G1 X29.849 Y91.943 E27.6511
G1 X29.166 Y91.914 E27.73296
G1 X28.486 Y91.972 E27.81467
G1 X27.818 Y92.114 E27.89644
G1 X27.174 Y92.34 E27.97816
G1 X26.563 Y92.644 E28.05988
G1 X25.993 Y93.026 E28.14204
G1 X25.709 Y93.281 E28.18774
G1 X25.693 Y93.265 E28.19045
G1 X25.078 Y93.877 E28.29433
G1 X24.882 Y94.048 E28.32548
G1 X24.592 Y94.273 E28.36943
G1 X23.435 Y95.067 E28.53745
G1 X22.982 Y95.341 E28.60084
G1 X22.723 Y95.475 E28.63575
G1 X22.305 Y95.654 E28.6902
G1 X20.972 Y96.15 E28.8605
G1 X20.628 Y96.254 E28.90353
G1 X20.34 Y96.323 E28.93899
G1 X19.883 Y96.4 E28.99448
G1 X18.595 Y96.551 E29.14976
G1 X18.083 Y96.583 E29.21118
G1 X17.79 Y96.58 E29.24627
G1 X17.312 Y96.542 E29.30368
G1 X15.917 Y96.362 E29.4721
G1 X15.534 Y96.289 E29.51878
G1 X15.26 Y96.219 E29.55265
G1 X14.802 Y96.068 E29.61039
G1 X13.506 Y95.566 E29.7768
G1 X13.151 Y95.402 E29.82363
G1 X12.925 Y95.282 E29.85426
G1 X12.527 Y95.034 E29.91041
G1 X11.472 Y94.3 E30.0643
G1 X11.056 Y93.977 E30.12736
G1 X10.849 Y93.791 E30.16068
G1 X10.502 Y93.433 E30.22038
G1 X9.572 Y92.361 E30.39031
G1 X9.332 Y92.049 E30.43744
G1 X9.18 Y91.825 E30.46985
G1 X8.959 Y91.447 E30.52228
G1 X7.863 Y89.355 E30.80507
G1 X7.712 Y89.019 E30.84917
G1 X7.607 Y88.733 E30.88565
G1 X7.482 Y88.31 E30.93847
G1 X7.373 Y87.835 E30.99682
G1 X7.34 Y87.658 E31.01838
G1 X7.252 Y87.01 E31.09668
G1 X7.228 Y86.7 E31.13391
G1 X7.181 Y86.292 E31.18308
G1 X4.295 Y67.69 E33.43707
G1 X4.275 Y67.518 E33.4578
G1 X4.231 Y66.937 E33.52757
G1 X4.225 Y66.759 E33.54889
G1 X4.228 Y65.196 E33.73604
G1 X4.234 Y65.03 E33.75593
G1 X4.298 Y64.29 E33.84487
G1 X7.183 Y45.705 E36.09682
G1 X7.228 Y45.323 E36.14288
G1 X7.272 Y44.844 E36.20047
G1 X7.362 Y44.269 E36.27016
G1 X7.487 Y43.721 E36.33746
G1 X7.636 Y43.221 E36.39993
G1 X7.731 Y42.97 E36.43206
G1 X7.889 Y42.62 E36.47804
G1 X7.948 Y42.497 E36.49438
G1 X8.997 Y40.512 E36.7632
G1 X9.268 Y40.061 E36.8262
G1 X9.413 Y39.853 E36.85656
G1 X9.707 Y39.485 E36.91296
G1 X10.905 Y38.14 E37.12863
G1 X10.891 Y38.129 E37.13076
G1 X10.956 Y38.051 E37.14292
G1 X11.327 Y37.478 E37.22465
G1 X11.623 Y36.862 E37.30648
G1 X11.838 Y36.214 E37.38823
G1 X11.968 Y35.543 E37.47007
G1 X12.015 Y34.863 E37.55168
G1 X11.975 Y34.18 E37.6336
G1 X11.848 Y33.509 E37.71537
G1 X11.639 Y32.86 E37.79701
G1 X11.348 Y32.241 E37.87891
G1 X10.983 Y31.665 E37.96056
G1 X10.547 Y31.139 E38.04236
G1 X10.049 Y30.673 E38.12403
G1 X9.495 Y30.271 E38.20599
G1 X8.845 Y29.923 E38.29427
G1 X8.544 Y29.778 E38.33427
G1 X8.012 Y29.483 E38.40711
G1 X7.848 Y29.383 E38.43011
G1 X7.06 Y28.856 E38.54362
G1 X6.907 Y28.744 E38.56632
G1 X6.421 Y28.356 E38.64078
G1 X6.26 Y28.215 E38.66641
G1 X5.59 Y27.579 E38.77702
G1 X5.461 Y27.446 E38.79921
G1 X5.046 Y26.98 E38.87392
G1 X4.923 Y26.829 E38.89724
G1 X4.36 Y26.078 E39.00963
G1 X4.25 Y25.918 E39.03287
G1 X3.907 Y25.372 E39.11008
G1 X3.839 Y25.253 E39.12649
G1 X3.389 Y24.38 E39.24409
G1 X3.308 Y24.203 E39.2674
G1 X3.071 Y23.629 E39.34175
G1 X3.01 Y23.46 E39.36327
G1 X2.722 Y22.554 E39.4771
G1 X2.671 Y22.363 E39.50077
G1 X2.535 Y21.765 E39.5742
G1 X2.499 Y21.567 E39.5983
G1 X2.367 Y20.625 E39.71219
G1 X2.35 Y20.446 E39.73372
G1 X2.317 Y19.839 E39.80651
G1 X2.314 Y19.646 E39.82962
G1 X2.342 Y18.684 E39.94485
G1 X2.356 Y18.5 E39.96695
G1 X2.426 Y17.881 E40.04154
G1 X2.451 Y17.719 E40.06117
G1 X2.638 Y16.78 E40.17581
G1 X2.685 Y16.588 E40.19947
G1 X2.853 Y16.007 E40.27189
G1 X2.918 Y15.814 E40.29628
G1 X3.325 Y14.766 E40.43089
G1 X3.603 Y14.189 E40.50758
G1 X3.696 Y14.015 E40.5312
G1 X4.17 Y13.214 E40.64265
G1 X4.286 Y13.036 E40.66808
G1 X4.639 Y12.539 E40.74108
G1 X4.749 Y12.397 E40.76258
G1 X5.381 Y11.652 E40.87956
G1 X5.494 Y11.529 E40.89956
G1 X5.941 Y11.085 E40.975
G1 X6.08 Y10.958 E40.99754
G1 X6.802 Y10.349 E41.11064
G1 X6.958 Y10.229 E41.13421
G0 F2400 X6.4 Y10.688
G1 F900 X6.4 Y28.337 E43.24743
G0 F2400 X8 Y29.475
G1 F900 X8 Y9.544 E45.6339
G0 F2400 X9.6 Y8.756
G1 F900 X9.6 Y30.347 E48.21913
G0 F2400 X11.2 Y32.007
G1 F900 X11.2 Y8.238 E51.06515
G0 F2400 X12.8 Y7.974
G1 F900 X12.8 Y95.204 E61.50976
G0 F2400 X14.4 Y95.912
G1 F900 X14.4 Y7.933 E72.04406
G0 F2400 X16 Y8.113
G1 F900 X16 Y96.372 E82.61188
G0 F2400 X17.6 Y96.564
G1 F900 X17.6 Y8.537 E93.15193
G0 F2400 X19.2 Y9.215
G1 F900 X19.2 Y96.481 E103.60085
G0 F2400 X20.8 Y96.202
G1 F900 X20.8 Y10.213 E113.89687
G0 F2400 X22.4 Y11.649
G1 F900 X22.4 Y95.614 E123.95054
G0 F2400 X24 Y94.68
G1 F900 X24 Y13.493 E133.67159
G0 F2400 X25.6 Y14.5
G1 F900 X25.6 Y93.358 E143.11377
G0 F2400 X27.2 Y92.331
G1 F900 X27.2 Y14.868 E152.38892
G0 F2400 X28.8 Y14.905
G1 F900 X28.8 Y91.946 E161.61354
G0 F2400 X30.4 Y92.038
G1 F900 X30.4 Y14.905 E170.84917
G0 F2400 X32 Y14.905
G1 F900 X32 Y92.644 E180.15737
G0 F2400 X33.6 Y93.473
G1 F900 X33.6 Y14.905 E189.56482
G0 F2400 X35.2 Y14.905
G1 F900 X35.2 Y93.955 E199.02999
G0 F2400 X36.8 Y94.161
G1 F900 X36.8 Y14.905 E208.51983
G0 F2400 X38.4 Y14.905
G1 F900 X38.4 Y94.41 E218.03948
G0 F2400 X40 Y94.658
G1 F900 X40 Y14.905 E227.58882
G0 F2400 X41.6 Y14.905
G1 F900 X41.6 Y94.907 E237.16798
G0 F2400 X43.2 Y95.155
G1 F900 X43.2 Y14.905 E246.77683
G0 F2400 X44.8 Y14.905
G1 F900 X44.8 Y95.404 E256.4155
G0 F2400 X46.4 Y95.652
G1 F900 X46.4 Y14.905 E266.08386
G0 F2400 X48 Y14.905
G1 F900 X48 Y95.901 E275.78204
G0 F2400 X49.6 Y96.149
G1 F900 X49.6 Y14.905 E285.50991
G0 F2400 X51.2 Y14.905
G1 F900 X51.2 Y96.398 E295.26759
G0 F2400 X52.8 Y96.646
G1 F900 X52.8 Y14.905 E305.05497
G0 F2400 X54.4 Y14.794
G1 F900 X54.4 Y96.895 E314.88546
G0 F2400 X56 Y97.078
G1 F900 X56 Y14.215 E324.80718
G0 F2400 X57.6 Y12.842
G1 F900 X57.6 Y97.083 E334.8939
G0 F2400 X59.2 Y96.914
G1 F900 X59.2 Y9.943 E345.30751
G0 F2400 X60.8 Y7.761
G1 F900 X60.8 Y96.666 E355.95268
G0 F2400 X62.4 Y96.417
G1 F900 X62.4 Y6.208 E366.75399
G0 F2400 X64 Y5.061
G1 F900 X64 Y96.169 E377.66294
G0 F2400 X65.6 Y95.921
G1 F900 X65.6 Y4.203 E388.64493
G0 F2400 X67.2 Y3.571
G1 F900 X67.2 Y95.673 E399.6729
G0 F2400 X68.8 Y95.424
G1 F900 X68.8 Y3.152 E410.72123
G0 F2400 X70.4 Y2.917
G1 F900 X70.4 Y95.176 E421.76799
G0 F2400 X72 Y94.928
G1 F900 X72 Y2.868 E432.79093
G0 F2400 X73.6 Y2.993
G1 F900 X73.6 Y94.68 E443.76921
G0 F2400 X75.2 Y94.431
G1 F900 X75.2 Y3.296 E454.6814
G0 F2400 X76.8 Y3.789
G1 F900 X76.8 Y94.183 E465.50486
G0 F2400 X78.4 Y94.007
G1 F900 X78.4 Y4.497 E476.22247
G0 F2400 X80 Y5.461
G1 F900 X80 Y93.549 E486.76982
G0 F2400 X81.6 Y92.721
G1 F900 X81.6 Y6.751 E497.06356
G0 F2400 X83.2 Y8.497
G1 F900 X83.2 Y45.988 E501.55261
G0 F2400 X84.8 Y44.214
G1 F900 X84.8 Y29.435 E503.32219
G0 F2400 X86.4 Y32.075
G1 F900 X86.4 Y41.647 E504.46831
G0 F2400 X83.095 Y47.061
G0 X82.87 Y47.642
G0 X82.719 Y48.25
G0 X82.648 Y48.864
G0 X82.655 Y49.493
G0 X83.2 Y52.277
G1 F900 X83.2 Y91.754 E509.19515
G0 F2400 X84.8 Y90.292
G1 F900 X84.8 Y76.307 E510.86966
G0 F2400 X86.4 Y78.746
G1 F900 X86.4 Y87.848 E511.9595
G0 F2400 X83.72 Y73.201
G0 X83.665 Y72.575
G0 X83.69 Y71.961
G0 X83.774 Y71.457
G0 X84.8 Y68.312
G1 F900 X84.8 Y54.721 E513.58684
G0 F2400 X86.4 Y60.127
G1 F900 X86.4 Y62.88 E513.91648
G0 F2400 X82.738 Y50.105
G0 X82.655 Y49.493
G0 X82.648 Y48.864
G0 X84.498 Y26.229
G0 X84.8 Y23.79
G1 F900 X84.8 Y11.074 E515.43904
G0 F2400 X11.2 Y37.674
G1 F900 X11.2 Y94.088 E522.19386
G0 F2400 X9.6 Y92.393
G1 F900 X9.6 Y39.618 E528.51295
G0 F2400 X8 Y42.398
G1 F900 X8 Y89.616 E534.16667
G0 F2400 X6.4 Y81.257
G1 F900 X6.4 Y50.749 E537.81959
G0 F2400 X4.8 Y61.056
G1 F900 X4.8 Y70.945 E539.00366
G0 F2400 X11.51 Y35.486
G0 X11.554 Y34.86
G0 X11.516 Y34.231
G0 X11.212 Y33.035
G0 X10.943 Y32.461
G0 X10.611 Y31.939
G0 X9.923 Y31.206
G0 X4.8 Y26.664
G1 F900 X4.8 Y12.336 E540.71925
G0 F2400 X3.2 Y15.087
G1 F900 X3.2 Y23.941 E541.77939
G0 F2400 X3.626 Y24.839
;TIME_ELAPSED:318.460226
;LAYER:-5
G0 X3.626 Y24.839 Z0.66
;TYPE:SUPPORT
G1 F900 X8.582 Y29.795 E542.47874
G1 X8.543 Y29.776 E542.48307
G1 X8.011 Y29.482 E542.54372
G1 X7.848 Y29.382 E542.5628
G1 X7.059 Y28.855 E542.65747
G1 X6.907 Y28.743 E542.67631
G1 X6.421 Y28.355 E542.73836
G1 X6.26 Y28.214 E542.75972
G1 X5.59 Y27.578 E542.85189
